; generated by PrusaSlicer 2.3.3+win64 on 2021-12-17 at 09:24:34 UTC

; 

; external perimeters extrusion width = 0.45mm
; perimeters extrusion width = 0.45mm
; infill extrusion width = 0.45mm
; solid infill extrusion width = 0.45mm
; top infill extrusion width = 0.40mm
; first layer extrusion width = 0.42mm

M73 P0 R32
M73 Q0 S33
M201 X1000 Y1000 Z200 E5000 ; sets maximum accelerations, mm/sec^2
M203 X200 Y200 Z12 E120 ; sets maximum feedrates, mm/sec
M204 P1250 R1250 T1250 ; sets acceleration (P, T) and retract acceleration (R), mm/sec^2
M205 X8.00 Y8.00 Z0.40 E4.50 ; sets the jerk limits, mm/sec
M205 S0 T0 ; sets the minimum extruding and travel feed rate, mm/sec
M107
;TYPE:Custom
M862.3 P "MK3S" ; printer model check
M862.1 P0.4 ; nozzle diameter check
M115 U3.10.0 ; tell printer latest fw version
G90 ; use absolute coordinates
M83 ; extruder relative mode
M104 S215 ; set extruder temp
M140 S60 ; set bed temp
M190 S60 ; wait for bed temp
M109 S215 ; wait for extruder temp
G28 W ; home all without mesh bed level
G80 ; mesh bed leveling
G1 Y-3.0 F1000.0 ; go outside print area
G92 E0.0
G1 X60.0 E9.0 F1000.0 ; intro line
M73 Q0 S32
G1 X100.0 E12.5 F1000.0 ; intro line
G92 E0.0
M221 S95

; Don't change E values below. Excessive value can damage the printer.

M907 E538 ; set extruder motor current
G21 ; set units to millimeters
G90 ; use absolute coordinates
M83 ; use relative distances for extrusion
M900 K0.05 ; Filament gcode LA 1.5
M900 K30 ; Filament gcode LA 1.0
;LAYER_CHANGE
;Z:0.2
;HEIGHT:0.2
;BEFORE_LAYER_CHANGE
G92 E0.0
;0.2


G1 E-0.80000 F2100.000
G1 Z0.400 F10800.000
;AFTER_LAYER_CHANGE
;0.2
G1 X112.086 Y131.458
G1 Z0.200
G1 E0.80000 F2100.000
M204 S1000
;TYPE:Skirt
;WIDTH:0.42
G1 F1200.000
G1 X111.818 Y130.653 E0.02661
G1 X109.052 Y97.049 E1.05719
G1 X109.110 Y96.278 E0.02424
G1 X109.279 Y95.783 E0.01641
G1 X109.557 Y95.302 E0.01742
G1 X116.170 Y86.299 E0.35025
G1 X118.579 Y83.212 E0.12278
G1 X120.578 Y80.914 E0.09550
G1 X122.516 Y79.033 E0.08468
G1 X124.136 Y77.826 E0.06336
G1 X124.945 Y77.378 E0.02898
G1 X125.794 Y77.035 E0.02871
G1 X126.552 Y76.844 E0.02451
G1 X127.378 Y76.767 E0.02600
G1 X128.278 Y76.851 E0.02834
G1 X129.210 Y77.145 E0.03064
G1 X129.814 Y77.552 E0.02284
G1 X130.267 Y78.122 E0.02284
G1 X139.367 Y97.196 E0.66260
G1 X140.193 Y99.310 E0.07117
G1 X140.594 Y100.927 E0.05225
G1 X140.865 Y102.859 E0.06118
G1 X140.951 Y104.460 E0.05025
G1 X140.912 Y106.453 E0.06252
G1 X139.391 Y115.542 E0.28895
G1 X138.235 Y119.879 E0.14072
G1 X137.976 Y120.471 E0.02027
G1 X137.390 Y121.358 E0.03332
G1 X136.420 Y122.502 E0.04705
G1 X135.377 Y123.478 E0.04478
G1 X133.911 Y124.597 E0.05783
G1 X131.843 Y125.883 E0.07633
G1 X129.661 Y127.031 E0.07734
G1 X117.536 Y132.676 E0.41933
G1 X116.593 Y133.027 E0.03155
G1 X115.846 Y133.191 E0.02399
G1 X115.023 Y133.225 E0.02583
G1 X114.393 Y133.135 E0.01994
G1 X113.431 Y132.759 E0.03237
G1 X112.644 Y132.165 E0.03091
G1 X112.123 Y131.505 E0.02638
; printing object larynx-Brik.stl id:0 copy 0
;WIPE_START
G1 F8640.000
G1 X111.818 Y130.653 E-0.20903
G1 X111.622 Y128.275 E-0.55097
;WIPE_END
G1 E-0.04000 F2100.000
G1 Z0.600 F10800.000
G1 X115.080 Y130.034
G1 Z0.200
G1 E0.80000 F2100.000
;TYPE:Perimeter
G1 F1200.000
G1 X115.783 Y127.821 E0.07281
G1 X116.902 Y124.095 E0.12198
G1 X117.497 Y121.985 E0.06876
G1 X118.324 Y118.859 E0.10138
G1 X118.936 Y116.352 E0.08089
G1 X119.426 Y114.083 E0.07281
G1 X119.732 Y112.320 E0.05609
G1 X119.851 Y111.287 E0.03261
G1 X119.972 Y111.234 E0.00415
G1 X120.566 Y110.822 E0.02266
G1 X120.915 Y110.721 E0.01139
G1 X121.422 Y110.642 E0.01608
G1 X122.004 Y110.587 E0.01832
G1 X122.822 Y110.547 E0.02568
G1 X123.929 Y110.535 E0.03473
G1 X125.130 Y110.567 E0.03765
G1 X126.067 Y110.626 E0.02945
G1 X127.155 Y110.738 E0.03428
G1 X127.913 Y110.847 E0.02402
G1 X128.684 Y110.990 E0.02460
G1 X129.550 Y111.200 E0.02792
G1 X130.008 Y111.338 E0.01500
G1 X130.658 Y111.576 E0.02170
G1 X131.035 Y111.739 E0.01288
G1 X131.538 Y111.994 E0.01768
G1 X131.970 Y112.253 E0.01579
G1 X132.316 Y112.494 E0.01323
G1 X132.706 Y112.804 E0.01560
G1 X133.041 Y113.104 E0.01410
G1 X134.142 Y114.194 E0.04859
G1 X134.479 Y114.502 E0.01433
G1 X134.995 Y114.902 E0.02045
G1 X135.315 Y115.109 E0.01196
G1 X135.703 Y115.325 E0.01394
G1 X136.132 Y115.521 E0.01478
G1 X135.867 Y116.555 E0.03346
G1 X135.221 Y118.907 E0.07650
G1 X134.873 Y119.440 E0.01996
G1 X134.415 Y120.009 E0.02288
G1 X133.902 Y120.547 E0.02332
G1 X133.344 Y121.053 E0.02364
G1 X132.742 Y121.537 E0.02421
G1 X131.738 Y122.246 E0.03851
G1 X131.022 Y122.698 E0.02655
G1 X129.876 Y123.356 E0.04144
G1 X129.080 Y123.780 E0.02828
G1 X127.412 Y124.604 E0.05832
G1 X125.667 Y125.408 E0.06024
G1 X122.109 Y126.987 E0.12208
G1 X120.358 Y127.787 E0.06036
G1 X116.270 Y129.776 E0.14254
G1 X115.678 Y129.996 E0.01980
G1 X115.399 Y130.056 E0.00893
G1 X115.138 Y130.048 E0.00819
G1 X114.740 Y130.292 F10800.000
;TYPE:External perimeter
G1 F1200.000
G1 X114.632 Y130.197 E0.00451
G1 X115.423 Y127.710 E0.08182
G1 X116.540 Y123.990 E0.12178
G1 X117.133 Y121.885 E0.06856
G1 X117.959 Y118.766 E0.10117
G1 X118.568 Y116.268 E0.08062
G1 X119.056 Y114.011 E0.07241
G1 X119.359 Y112.266 E0.05551
G1 X119.501 Y111.029 E0.03906
M73 Q1 S32
G1 X119.787 Y110.903 E0.00980
G1 X120.391 Y110.485 E0.02302
G1 X120.603 Y110.406 E0.00709
G1 X120.843 Y110.350 E0.00773
G1 X121.376 Y110.268 E0.01688
G1 X121.977 Y110.211 E0.01893
G1 X122.810 Y110.170 E0.02617
G1 X123.933 Y110.158 E0.03519
G1 X125.147 Y110.190 E0.03808
G1 X126.098 Y110.250 E0.02990
G1 X127.201 Y110.363 E0.03475
G1 X127.974 Y110.474 E0.02450
M73 P1 R32
G1 X128.763 Y110.621 E0.02517
G1 X129.649 Y110.836 E0.02857
G1 X130.127 Y110.980 E0.01567
G1 X130.798 Y111.226 E0.02238
G1 X131.195 Y111.398 E0.01358
G1 X131.720 Y111.664 E0.01845
G1 X132.174 Y111.936 E0.01660
G1 X132.541 Y112.191 E0.01401
G1 X132.949 Y112.515 E0.01633
G1 X133.299 Y112.829 E0.01474
G1 X134.402 Y113.921 E0.04864
G1 X134.722 Y114.213 E0.01362
G1 X135.213 Y114.594 E0.01947
G1 X135.509 Y114.786 E0.01105
G1 X135.874 Y114.988 E0.01307
G1 X136.299 Y115.182 E0.01466
G1 X136.583 Y115.282 E0.00944
G1 X136.232 Y116.651 E0.04431
G1 X135.569 Y119.064 E0.07845
G1 X135.178 Y119.662 E0.02239
G1 X134.699 Y120.257 E0.02396
G1 X134.165 Y120.817 E0.02424
G1 X133.589 Y121.340 E0.02442
G1 X132.969 Y121.838 E0.02494
G1 X131.948 Y122.559 E0.03919
G1 X131.217 Y123.021 E0.02710
G1 X130.059 Y123.686 E0.04188
G1 X129.252 Y124.115 E0.02865
G1 X127.575 Y124.944 E0.05866
G1 X125.823 Y125.751 E0.06049
G1 X122.264 Y127.331 E0.12210
G1 X120.517 Y128.129 E0.06019
G1 X119.157 Y128.780 E0.04729
G1 X117.082 Y129.814 E0.07270
G1 X116.415 Y130.124 E0.02306
G1 X115.784 Y130.359 E0.02112
G1 X115.444 Y130.432 E0.01090
G1 X115.149 Y130.439 E0.00924
G1 X114.902 Y130.379 E0.00796
G1 X114.793 Y130.320 E0.00391
G1 X114.751 Y130.149 F10800.000
;WIPE_START
G1 F8640.000
G1 X114.632 Y130.197 E-0.04677
G1 X115.423 Y127.710 E-0.60251
G1 X115.561 Y127.251 E-0.11072
;WIPE_END
G1 E-0.04000 F2100.000
G1 Z0.600 F10800.000
G1 X132.194 Y112.546
G1 Z0.200
G1 E0.80000 F2100.000
;TYPE:Solid infill
;WIDTH:0.420193
G1 F1200.000
G1 X135.703 Y116.056 E0.15570
G1 X135.594 Y116.481 E0.01375
G1 X131.309 Y112.195 E0.19012
G1 X130.914 Y111.995 E0.01388
G1 X130.341 Y111.761 E0.01942
G1 X135.479 Y116.899 E0.22795
G1 X135.364 Y117.318 E0.01362
G1 X129.538 Y111.492 E0.25848
G1 X128.829 Y111.316 E0.02292
G1 X135.249 Y117.736 E0.28484
G1 X135.134 Y118.155 E0.01362
G1 X128.160 Y111.180 E0.30943
G1 X127.522 Y111.076 E0.02026
G1 X135.019 Y118.573 E0.33261
G1 X134.960 Y118.790 E0.00703
G1 X134.858 Y118.946 E0.00585
G1 X126.909 Y110.997 E0.35264
G1 X126.315 Y110.936 E0.01874
G1 X134.647 Y119.268 E0.36965
G1 X134.410 Y119.564 E0.01191
G1 X125.734 Y110.889 E0.38490
G1 X125.164 Y110.852 E0.01791
G1 X134.169 Y119.857 E0.39950
G1 X133.908 Y120.130 E0.01184
G1 X124.614 Y110.836 E0.41234
G1 X124.066 Y110.821 E0.01720
G1 X133.644 Y120.399 E0.42491
G1 X133.364 Y120.653 E0.01185
G1 X123.533 Y110.822 E0.43615
G1 X123.005 Y110.827 E0.01656
G1 X133.080 Y120.902 E0.44697
G1 X132.784 Y121.140 E0.01190
G1 X122.490 Y110.846 E0.45669
G1 X121.984 Y110.873 E0.01591
G1 X132.484 Y121.373 E0.46582
G1 X132.171 Y121.594 E0.01201
G1 X121.496 Y110.919 E0.47358
G1 X121.032 Y110.989 E0.01472
G1 X131.858 Y121.815 E0.48029
G1 X131.544 Y122.034 E0.01202
G1 X120.631 Y111.121 E0.48413
G1 X120.316 Y111.340 E0.01203
G1 X131.217 Y122.240 E0.48361
G1 X130.890 Y122.447 E0.01213
G1 X120.094 Y111.651 E0.47895
G1 X120.039 Y112.130 E0.01511
G1 X130.551 Y122.642 E0.46638
G1 X130.213 Y122.837 E0.01226
G1 X119.971 Y112.596 E0.45434
G1 X119.893 Y113.050 E0.01447
G1 X129.874 Y123.032 E0.44282
G1 X129.529 Y123.221 E0.01233
G1 X119.814 Y113.505 E0.43103
M73 P2 R32
M73 Q2 S32
G1 X119.735 Y113.959 E0.01447
G1 X129.181 Y123.406 E0.41908
G1 X128.830 Y123.588 E0.01242
G1 X119.646 Y114.404 E0.40743
G1 X119.551 Y114.843 E0.01408
G1 X128.472 Y123.764 E0.39579
G1 X128.115 Y123.941 E0.01250
G1 X119.456 Y115.282 E0.38415
G1 X119.362 Y115.721 E0.01408
G1 X127.758 Y124.117 E0.37252
G1 X127.401 Y124.294 E0.01250
G1 X119.267 Y116.159 E0.36088
G1 X119.168 Y116.594 E0.01398
G1 X127.038 Y124.465 E0.34917
G1 X126.673 Y124.633 E0.01262
G1 X119.063 Y117.023 E0.33761
G1 X118.959 Y117.452 E0.01385
G1 X126.308 Y124.801 E0.32605
G1 X125.943 Y124.969 E0.01262
G1 X118.854 Y117.881 E0.31449
G1 X118.749 Y118.310 E0.01385
G1 X125.577 Y125.138 E0.30293
G1 X125.208 Y125.302 E0.01268
G1 X118.645 Y118.739 E0.29119
G1 X118.536 Y119.164 E0.01376
G1 X124.839 Y125.466 E0.27961
G1 X124.469 Y125.630 E0.01268
G1 X118.424 Y119.585 E0.26817
G1 X118.313 Y120.007 E0.01369
G1 X124.100 Y125.794 E0.25673
G1 X123.730 Y125.958 E0.01268
G1 X118.201 Y120.429 E0.24529
G1 X118.090 Y120.851 E0.01369
G1 X123.361 Y126.122 E0.23385
G1 X122.991 Y126.286 E0.01268
G1 X117.978 Y121.273 E0.22241
G1 X117.866 Y121.695 E0.01369
G1 X122.622 Y126.450 E0.21097
G1 X122.252 Y126.614 E0.01268
G1 X117.754 Y122.116 E0.19956
G1 X117.636 Y122.532 E0.01356
G1 X121.883 Y126.779 E0.18842
G1 X121.517 Y126.947 E0.01263
G1 X117.519 Y122.948 E0.17738
G1 X117.402 Y123.365 E0.01356
G1 X121.151 Y127.114 E0.16633
G1 X120.785 Y127.281 E0.01263
G1 X117.284 Y123.781 E0.15529
G1 X117.167 Y124.197 E0.01356
G1 X120.418 Y127.448 E0.14426
G1 X120.056 Y127.619 E0.01257
G1 X117.043 Y124.607 E0.13364
G1 X116.920 Y125.017 E0.01344
G1 X119.697 Y127.794 E0.12319
G1 X119.338 Y127.969 E0.01252
G1 X116.797 Y125.428 E0.11273
G1 X116.674 Y125.838 E0.01344
G1 X118.979 Y128.143 E0.10227
G1 X118.620 Y128.318 E0.01252
G1 X116.551 Y126.248 E0.09181
G1 X116.428 Y126.659 E0.01344
G1 X118.261 Y128.493 E0.08135
G1 X117.902 Y128.667 E0.01252
G1 X116.304 Y127.069 E0.07089
G1 X116.181 Y127.480 E0.01344
G1 X117.543 Y128.842 E0.06043
G1 X117.185 Y129.016 E0.01252
G1 X116.058 Y127.890 E0.04997
G1 X115.930 Y128.295 E0.01333
G1 X116.826 Y129.191 E0.03975
G1 X116.467 Y129.366 E0.01252
G1 X115.801 Y128.700 E0.02954
G1 X115.672 Y129.105 E0.01333
G1 X116.104 Y129.536 E0.01914
G1 X115.715 Y129.681 E0.01302
G1 X115.408 Y129.374 E0.01359
;WIPE_START
G1 F8640.000
G1 X115.715 Y129.681 E-0.10002
G1 X116.104 Y129.536 E-0.09582
G1 X115.672 Y129.105 E-0.14088
G1 X115.801 Y128.700 E-0.09809
G1 X116.467 Y129.366 E-0.21743
G1 X116.826 Y129.191 E-0.09216
G1 X116.778 Y129.143 E-0.01561
;WIPE_END
G1 E-0.04000 F2100.000
G1 Z0.600 F10800.000
G1 X118.205 Y101.406
G1 Z0.200
G1 E0.80000 F2100.000
;TYPE:Perimeter
;WIDTH:0.42
G1 F1200.000
G1 X117.907 Y100.814 E0.02078
G1 X117.394 Y99.921 E0.03230
G1 X116.853 Y99.094 E0.03097
G1 X116.298 Y98.342 E0.02930
G1 X115.722 Y97.655 E0.02811
G1 X115.152 Y97.065 E0.02575
G1 X114.550 Y96.545 E0.02492
G1 X114.080 Y96.222 E0.01788
G1 X113.795 Y96.068 E0.01018
G1 X113.487 Y95.953 E0.01032
G1 X113.172 Y95.884 E0.01011
G1 X113.014 Y95.870 E0.00497
G1 X113.383 Y95.489 E0.01665
G1 X113.548 Y95.279 E0.00837
G1 X117.941 Y89.222 E0.23461
G1 X119.878 Y86.658 E0.10076
G1 X121.416 Y84.747 E0.07691
G1 X122.162 Y83.878 E0.03591
G1 X122.887 Y83.077 E0.03388
G1 X123.584 Y82.356 E0.03143
G1 X124.258 Y81.715 E0.02917
G1 X124.901 Y81.164 E0.02654
G1 X125.652 Y80.612 E0.02924
G1 X126.190 Y80.295 E0.01957
G1 X126.668 Y80.082 E0.01641
G1 X127.104 Y79.961 E0.01420
G1 X127.291 Y79.937 E0.00589
G1 X127.619 Y79.950 E0.01031
G1 X128.473 Y82.008 E0.06985
G1 X128.866 Y83.058 E0.03515
G1 X129.325 Y84.430 E0.04537
G1 X129.667 Y85.583 E0.03770
G1 X130.193 Y87.471 E0.06145
G1 X130.662 Y88.976 E0.04942
G1 X131.066 Y90.045 E0.03583
G1 X131.504 Y91.001 E0.03296
G1 X132.045 Y91.976 E0.03497
G1 X132.668 Y92.930 E0.03572
G1 X133.201 Y93.672 E0.02864
G1 X135.039 Y96.121 E0.09602
G1 X135.623 Y96.982 E0.03263
G1 X135.990 Y97.581 E0.02200
G1 X136.334 Y98.204 E0.02232
G1 X136.805 Y99.218 E0.03506
G1 X137.014 Y99.768 E0.01845
G1 X137.254 Y100.533 E0.02512
G1 X137.451 Y101.346 E0.02625
G1 X137.620 Y102.320 E0.03098
G1 X137.718 Y103.186 E0.02733
G1 X137.774 Y104.067 E0.02769
G1 X137.792 Y104.954 E0.02780
G1 X137.773 Y105.639 E0.02148
G1 X135.530 Y106.016 E0.07131
G1 X134.646 Y106.128 E0.02793
G1 X133.455 Y106.212 E0.03745
G1 X132.721 Y106.226 E0.02301
G1 X132.024 Y106.211 E0.02185
G1 X130.735 Y106.112 E0.04054
G1 X129.895 Y105.996 E0.02661
G1 X129.316 Y105.892 E0.01844
G1 X128.040 Y105.587 E0.04112
G1 X127.296 Y105.364 E0.02436
G1 X126.578 Y105.122 E0.02375
G1 X125.204 Y104.590 E0.04620
G1 X123.962 Y104.041 E0.04257
G1 X122.925 Y103.541 E0.03612
G1 X120.521 Y102.322 E0.08452
G1 X119.733 Y101.950 E0.02729
G1 X119.228 Y101.735 E0.01722
G1 X118.684 Y101.537 E0.01814
G1 X118.264 Y101.419 E0.01370
G1 X117.949 Y101.735 F10800.000
;TYPE:External perimeter
G1 F1200.000
G1 X117.575 Y100.993 E0.02606
G1 X117.072 Y100.118 E0.03163
G1 X116.544 Y99.309 E0.03030
G1 X116.002 Y98.576 E0.02860
G1 X115.442 Y97.908 E0.02733
G1 X114.892 Y97.339 E0.02480
G1 X114.320 Y96.844 E0.02373
G1 X113.884 Y96.545 E0.01659
G1 X113.638 Y96.412 E0.00874
G1 X113.380 Y96.315 E0.00866
G1 X113.116 Y96.257 E0.00848
G1 X112.854 Y96.236 E0.00822
G1 X112.644 Y96.284 E0.00677
G1 X112.318 Y96.298 E0.01022
G1 X112.124 Y96.338 E0.00622
G1 X111.974 Y96.400 E0.00508
G1 X112.390 Y95.872 E0.02106
M73 P2 R31
G1 X112.798 Y95.560 E0.01613
G1 X113.097 Y95.243 E0.01366
G1 X113.247 Y95.052 E0.00761
M73 Q3 S32
G1 X117.638 Y88.997 E0.23450
G1 X119.580 Y86.426 E0.10105
M73 P3 R31
G1 X121.126 Y84.506 E0.07727
G1 X121.879 Y83.629 E0.03625
G1 X122.612 Y82.819 E0.03424
G1 X123.319 Y82.089 E0.03187
G1 X124.005 Y81.435 E0.02972
G1 X124.666 Y80.869 E0.02730
G1 X125.444 Y80.297 E0.03028
G1 X126.017 Y79.959 E0.02084
G1 X126.540 Y79.726 E0.01797
G1 X127.029 Y79.590 E0.01592
G1 X127.264 Y79.560 E0.00740
G1 X127.498 Y79.557 E0.00735
G1 X127.721 Y79.582 E0.00704
G1 X127.894 Y79.630 E0.00563
G1 X128.824 Y81.869 E0.07603
G1 X129.222 Y82.932 E0.03557
G1 X129.684 Y84.317 E0.04579
G1 X130.029 Y85.479 E0.03800
G1 X130.554 Y87.364 E0.06137
G1 X131.019 Y88.853 E0.04889
G1 X131.415 Y89.899 E0.03508
G1 X131.841 Y90.830 E0.03210
G1 X132.368 Y91.781 E0.03409
G1 X132.979 Y92.717 E0.03503
G1 X133.505 Y93.448 E0.02826
G1 X135.346 Y95.902 E0.09618
G1 X135.940 Y96.778 E0.03319
G1 X136.316 Y97.391 E0.02255
G1 X136.670 Y98.033 E0.02300
G1 X137.152 Y99.071 E0.03589
G1 X137.371 Y99.645 E0.01923
G1 X137.617 Y100.432 E0.02587
G1 X137.820 Y101.270 E0.02702
G1 X137.993 Y102.266 E0.03171
G1 X138.094 Y103.152 E0.02797
G1 X138.151 Y104.051 E0.02825
G1 X138.169 Y104.955 E0.02834
G1 X138.141 Y105.970 E0.03184
G1 X135.585 Y106.389 E0.08121
G1 X134.683 Y106.503 E0.02851
G1 X133.472 Y106.589 E0.03809
G1 X132.721 Y106.603 E0.02356
G1 X132.006 Y106.588 E0.02241
G1 X130.695 Y106.487 E0.04122
G1 X129.835 Y106.369 E0.02722
G1 X129.242 Y106.262 E0.01889
G1 X128.654 Y106.134 E0.01888
G1 X127.939 Y105.950 E0.02314
G1 X127.182 Y105.723 E0.02479
G1 X126.450 Y105.476 E0.02421
G1 X125.060 Y104.939 E0.04674
G1 X123.804 Y104.384 E0.04304
G1 X122.758 Y103.879 E0.03643
G1 X120.355 Y102.660 E0.08447
G1 X119.579 Y102.294 E0.02689
G1 X119.090 Y102.086 E0.01668
G1 X118.565 Y101.895 E0.01750
G1 X118.007 Y101.748 E0.01809
G1 X118.072 Y101.355 F10800.000
;WIPE_START
G1 F8640.000
G1 X117.575 Y100.993 E-0.20094
G1 X117.072 Y100.118 E-0.23293
