; generated by PrusaSlicer 2.4.1+win64 on 2022-04-11 at 07:36:52 UTC

; 

; external perimeters extrusion width = 0.60mm
; perimeters extrusion width = 0.50mm
; infill extrusion width = 0.50mm
; solid infill extrusion width = 0.50mm
; top infill extrusion width = 0.45mm
; first layer extrusion width = 0.42mm

; external perimeters extrusion width = 0.60mm
; perimeters extrusion width = 0.50mm
; infill extrusion width = 0.50mm
; solid infill extrusion width = 0.50mm
; top infill extrusion width = 0.45mm
; first layer extrusion width = 0.42mm

; external perimeters extrusion width = 0.60mm
; perimeters extrusion width = 0.50mm
; infill extrusion width = 0.50mm
; solid infill extrusion width = 0.50mm
; top infill extrusion width = 0.45mm
; first layer extrusion width = 0.42mm

; external perimeters extrusion width = 0.60mm
; perimeters extrusion width = 0.50mm
; infill extrusion width = 0.50mm
; solid infill extrusion width = 0.50mm
; top infill extrusion width = 0.45mm
; first layer extrusion width = 0.42mm

; external perimeters extrusion width = 0.60mm
; perimeters extrusion width = 0.50mm
; infill extrusion width = 0.50mm
; solid infill extrusion width = 0.50mm
; top infill extrusion width = 0.45mm
; first layer extrusion width = 0.42mm

; external perimeters extrusion width = 0.60mm
; perimeters extrusion width = 0.50mm
; infill extrusion width = 0.50mm
; solid infill extrusion width = 0.50mm
; top infill extrusion width = 0.45mm
; first layer extrusion width = 0.42mm

; external perimeters extrusion width = 0.60mm
; perimeters extrusion width = 0.50mm
; infill extrusion width = 0.50mm
; solid infill extrusion width = 0.50mm
; top infill extrusion width = 0.45mm
; first layer extrusion width = 0.42mm

; external perimeters extrusion width = 0.60mm
; perimeters extrusion width = 0.50mm
; infill extrusion width = 0.50mm
; solid infill extrusion width = 0.50mm
; top infill extrusion width = 0.45mm
; first layer extrusion width = 0.42mm

M73 P0 R42
M73 Q0 S43
M201 X1000 Y1000 Z200 E5000 ; sets maximum accelerations, mm/sec^2
M203 X200 Y200 Z12 E120 ; sets maximum feedrates, mm / sec
M204 P1250 R1250 T1250 ; sets acceleration (P, T) and retract acceleration (R), mm/sec^2
M205 X8.00 Y8.00 Z0.40 E4.50 ; sets the jerk limits, mm/sec
M205 S0 T0 ; sets the minimum extruding and travel feed rate, mm/sec
M107
;TYPE:Custom
M862.3 P "MK3S" ; printer model check
M862.1 P0.4 ; nozzle diameter check
M115 U3.10.1 ; tell printer latest fw version
G90 ; use absolute coordinates
M83 ; extruder relative mode
M104 S215 ; set extruder temp
M140 S60 ; set bed temp
M190 S60 ; wait for bed temp
M109 S215 ; wait for extruder temp
G28 W ; home all without mesh bed level
G80 ; mesh bed leveling
G1 Z0.2 F720
G1 Y-3 F1000 ; go outside print area
G92 E0
G1 X60 E9 F1000 ; intro line
G1 X100 E12.5 F1000 ; intro line
G92 E0
M221 S95

; Don't change E values below. Excessive value can damage the printer.

M907 E538 ; set extruder motor current
G21 ; set units to millimeters
G90 ; use absolute coordinates
M83 ; use relative distances for extrusion
M900 K0.05 ; Filament gcode LA 1.5
M900 K30 ; Filament gcode LA 1.0
M107
;LAYER_CHANGE
;Z:0.2
;HEIGHT:0.2
;BEFORE_LAYER_CHANGE
G92 E0.0
;0.2


M73 Q0 S42
G1 E-.8 F2100
G1 Z.4 F720
;AFTER_LAYER_CHANGE
;0.2
G1 X101.013 Y53.399 F10800
G1 Z.2 F720
G1 E.8 F2100
M204 S800
;TYPE:Skirt/Brim
;WIDTH:0.42
G1 F1200
G1 X101.486 Y52.598 E.02917
G1 X101.952 Y52.007 E.02362
G1 X102.623 Y51.361 E.02918
G1 X103.535 Y50.733 E.03473
G1 X104.648 Y50.241 E.03817
G1 X105.552 Y50.017 E.02918
G1 X106.559 Y49.928 E.03171
G1 X113.656 Y49.897 E.22251
G1 X115.04 Y50.066 E.04371
G1 X116.351 Y50.539 E.04371
G1 X150.205 Y68.382 E1.19988
G1 X150.94 Y68.908 E.02835
G1 X151.356 Y69.391 E.01997
G1 X151.677 Y69.964 E.02061
G1 X162.485 Y94.939 E.85325
G1 X162.701 Y95.627 E.02259
G1 X163.165 Y114.169 E.58158
G1 X163.13 Y114.719 E.01727
G1 X162.961 Y115.372 E.02114
G1 X140.033 Y156.542 E1.47754
G1 X139.324 Y157.458 E.03632
G1 X138.466 Y158.173 E.03503
G1 X137.666 Y158.61 E.02856
G1 X136.56 Y158.954 E.03632
G1 X135.917 Y159.037 E.02032
G1 X113.926 Y160.049 E.69025
G1 X106.366 Y160.083 E.23704
G1 X104.998 Y159.815 E.04371
G1 X103.724 Y159.25 E.04371
G1 X103.098 Y158.83 E.02362
G1 X102.402 Y158.213 E.02918
G1 X101.461 Y156.96 E.04913
G1 X87.245 Y130.672 E.93703
G1 X86.916 Y129.816 E.02878
G1 X86.834 Y129.07 E.02352
G1 X87.283 Y81.072 E1.50501
G1 X87.477 Y80.004 E.03405
G1 X100.985 Y53.452 E.93403
M204 S1000
; printing object Stag-Næse3.stl id:7 copy 0
;WIPE_START
G1 F8640
G1 X101.486 Y52.598 E-.22868
G1 X101.952 Y52.007 E-.17393
G1 X102.623 Y51.361 E-.21487
G1 X103.131 Y51.011 E-.14252
;WIPE_END
G1 E-.04 F2100
G1 Z.6 F720
G1 X156.512 Y96.264 F10800
G1 Z.2 F720
G1 E.8 F2100
M204 S800
;TYPE:Perimeter
G1 F1200
G1 X159.524 Y96.188 E.09448
G1 X159.584 Y96.214 E.00205
G1 X159.599 Y96.296 E.00261
G1 X160.001 Y114.205 E.56168
G1 X159.988 Y114.268 E.00203
G1 X159.931 Y114.301 E.00206
G1 X156.976 Y114.371 E.09266
G1 X156.919 Y114.365 E.00182
G1 X156.888 Y114.328 E.00149
G1 X156.478 Y96.311 E.56506
M204 S1000
G1 X156.349 Y95.919 F10800
M204 S800
;TYPE:External perimeter
G1 F1200
G1 X156.485 Y95.879 E.00446
G1 X159.565 Y95.809 E.09659
G1 X159.709 Y95.845 E.00464
G1 X159.784 Y95.886 E.0027
G1 X159.854 Y95.946 E.00288
G1 X159.946 Y96.096 E.00553
G1 X159.975 Y96.258 E.00515
G1 X160.379 Y114.216 E.5632
G1 X160.37 Y114.318 E.00321
M73 P1 R42
M73 Q1 S42
G1 X160.322 Y114.452 E.00446
G1 X160.239 Y114.56 E.00429
G1 X160.126 Y114.637 E.00429
G1 X159.989 Y114.677 E.00447
G1 X156.966 Y114.749 E.09482
G1 X156.858 Y114.74 E.00338
G1 X156.695 Y114.672 E.00554
G1 X156.592 Y114.574 E.00446
G1 X156.527 Y114.454 E.00428
G1 X156.499 Y114.298 E.00497
G1 X156.096 Y96.34 E.5632
G1 X156.104 Y96.238 E.00321
G1 X156.152 Y96.104 E.00446
G1 X156.236 Y95.996 E.00429
G1 X156.299 Y95.952 E.00241
M204 S1000
G1 X156.466 Y96 F10800
;WIPE_START
G1 F8640
G1 X156.485 Y95.879 E-.04624
G1 X159.565 Y95.809 E-.71132
G1 X159.575 Y95.812 E-.00244
;WIPE_END
G1 E-.04 F2100
G1 Z.6 F720
G1 X158.728 Y96.327 F10800
G1 Z.2 F720
G1 E.8 F2100
M204 S800
;TYPE:Solid infill
;WIDTH:0.424611
G1 F1200
G1 X159.33 Y96.93 E.02703
G1 X159.342 Y97.482 E.01753
G1 X158.364 Y96.504 E.04389
G1 X157.834 Y96.514 E.01682
G1 X159.355 Y98.034 E.06823
G1 X159.367 Y98.586 E.01753
G1 X157.304 Y96.523 E.09257
G1 X156.774 Y96.533 E.01682
G1 X159.379 Y99.138 E.11691
G1 X159.391 Y99.69 E.01753
G1 X156.776 Y97.074 E.11741
G1 X156.788 Y97.626 E.01753
G1 X159.404 Y100.242 E.11741
G1 X159.416 Y100.794 E.01753
G1 X156.8 Y98.178 E.11741
G1 X156.813 Y98.731 E.01753
G1 X159.428 Y101.346 E.11741
G1 X159.441 Y101.898 E.01753
G1 X156.825 Y99.283 E.11741
G1 X156.837 Y99.835 E.01753
G1 X159.453 Y102.45 E.11741
G1 X159.465 Y103.003 E.01753
G1 X156.85 Y100.387 E.11741
G1 X156.862 Y100.939 E.01753
G1 X159.478 Y103.555 E.11741
G1 X159.49 Y104.107 E.01753
G1 X156.874 Y101.491 E.11741
G1 X156.886 Y102.043 E.01753
G1 X159.502 Y104.659 E.11741
G1 X159.514 Y105.211 E.01753
G1 X156.899 Y102.595 E.11741
G1 X156.911 Y103.147 E.01753
G1 X159.527 Y105.763 E.11741
G1 X159.539 Y106.315 E.01753
G1 X156.923 Y103.699 E.11741
G1 X156.936 Y104.251 E.01753
G1 X159.551 Y106.867 E.11741
G1 X159.564 Y107.419 E.01753
G1 X156.948 Y104.804 E.11741
G1 X156.96 Y105.356 E.01753
G1 X159.576 Y107.971 E.11741
G1 X159.588 Y108.523 E.01753
G1 X156.973 Y105.908 E.11741
G1 X156.985 Y106.46 E.01753
G1 X159.601 Y109.076 E.11741
G1 X159.613 Y109.628 E.01753
G1 X156.997 Y107.012 E.11741
G1 X157.009 Y107.564 E.01753
G1 X159.625 Y110.18 E.11741
G1 X159.638 Y110.732 E.01753
G1 X157.022 Y108.116 E.11741
G1 X157.034 Y108.668 E.01753
G1 X159.65 Y111.284 E.11741
G1 X159.662 Y111.836 E.01753
G1 X157.046 Y109.22 E.11741
G1 X157.059 Y109.772 E.01753
G1 X159.674 Y112.388 E.11741
G1 X159.687 Y112.94 E.01753
G1 X157.071 Y110.324 E.11741
G1 X157.083 Y110.877 E.01753
G1 X159.699 Y113.492 E.11741
G1 X159.711 Y114.023 E.01685
G1 X159.691 Y114.024 E.00064
G1 X157.096 Y111.429 E.11648
G1 X157.108 Y111.981 E.01753
G1 X159.162 Y114.035 E.09222
G1 X158.634 Y114.047 E.01677
G1 X157.12 Y112.533 E.06796
G1 X157.132 Y113.085 E.01753
G1 X158.106 Y114.059 E.0437
G1 X157.578 Y114.07 E.01677
G1 X156.971 Y113.463 E.02724
M204 S1000
; stop printing object Stag-Næse3.stl id:7 copy 0
; printing object Steptumstag.stl id:4 copy 0
;WIPE_START
G1 F8640
G1 X157.578 Y114.07 E-.19816
G1 X158.106 Y114.059 E-.12198
G1 X157.132 Y113.085 E-.31795
G1 X157.121 Y112.557 E-.1219
;WIPE_END
G1 E-.04 F2100
G1 Z.6 F720
G1 X148.696 Y118.522 F10800
G1 Z.2 F720
G1 E.8 F2100
M204 S800
;TYPE:Perimeter
;WIDTH:0.42
G1 F1200
G1 X145.682 Y118.511 E.09449
G1 X145.627 Y118.483 E.00194
G1 X145.614 Y118.441 E.00138
G1 X145.805 Y91.959 E.83035
G1 X145.816 Y91.893 E.00209
G1 X145.882 Y91.86 E.00232
G1 X148.857 Y91.883 E.09327
G1 X148.893 Y91.894 E.00119
G1 X148.926 Y91.937 E.00168
G1 X148.724 Y118.472 E.83203
M204 S1000
G1 X148.871 Y118.863 F10800
M204 S800
;TYPE:External perimeter
G1 F1200
G1 X148.715 Y118.91 E.00513
G1 X145.622 Y118.887 E.09697
G1 X145.466 Y118.837 E.00513
G1 X145.338 Y118.735 E.00513
G1 X145.286 Y118.659 E.00291
G1 X145.236 Y118.496 E.00534
G1 X145.428 Y91.934 E.83285
G1 X145.443 Y91.811 E.0039
G1 X145.538 Y91.631 E.00637
G1 X145.668 Y91.531 E.00513
G1 X145.826 Y91.483 E.00516
G1 X148.917 Y91.506 E.09693
G1 X149.073 Y91.556 E.00514
G1 X149.196 Y91.654 E.00493
G1 X149.28 Y91.795 E.00513
G1 X149.303 Y91.891 E.00311
G1 X149.112 Y118.453 E.83285
G1 X149.078 Y118.633 E.00573
G1 X148.996 Y118.767 E.00492
G1 X148.919 Y118.826 E.00305
M204 S1000
G1 X148.734 Y118.774 F10800
;WIPE_START
G1 F8640
G1 X148.715 Y118.91 E-.051
G1 X145.644 Y118.887 E-.709
;WIPE_END
G1 E-.04 F2100
G1 Z.6 F720
G1 X148.038 Y91.99 F10800
G1 Z.2 F720
G1 E.8 F2100
M204 S800
;TYPE:Solid infill
;WIDTH:0.422988
G1 F1200
G1 X148.638 Y92.59 E.02684
G1 X148.634 Y93.124 E.01687
G1 X147.667 Y92.157 E.04323
G1 X147.125 Y92.153 E.01712
G1 X148.631 Y93.658 E.06727
G1 X148.627 Y94.191 E.01687
G1 X146.584 Y92.148 E.0913
G1 X146.086 Y92.145 E.01573
G1 X146.086 Y92.188 E.00137
G1 X148.623 Y94.725 E.11338
G1 X148.619 Y95.259 E.01687
G1 X146.082 Y92.722 E.11338
G1 X146.078 Y93.255 E.01687
G1 X148.615 Y95.792 E.11338
G1 X148.611 Y96.326 E.01687
G1 X146.074 Y93.789 E.11338
G1 X146.07 Y94.323 E.01687
G1 X148.607 Y96.86 E.11338
G1 X148.604 Y97.393 E.01687
G1 X146.067 Y94.856 E.11338
G1 X146.063 Y95.39 E.01687
G1 X148.6 Y97.927 E.11338
G1 X148.596 Y98.46 E.01687
G1 X146.059 Y95.924 E.11338
G1 X146.055 Y96.457 E.01687
G1 X148.592 Y98.994 E.11338
G1 X148.588 Y99.528 E.01687
G1 X146.051 Y96.991 E.11338
G1 X146.047 Y97.525 E.01687
G1 X148.584 Y100.061 E.11338
G1 X148.581 Y100.595 E.01687
G1 X146.044 Y98.058 E.11338
G1 X146.04 Y98.592 E.01687
G1 X148.577 Y101.129 E.11338
G1 X148.573 Y101.662 E.01687
G1 X146.036 Y99.125 E.11338
G1 X146.032 Y99.659 E.01687
G1 X148.569 Y102.196 E.11338
G1 X148.565 Y102.73 E.01687
G1 X146.028 Y100.193 E.11338
G1 X146.024 Y100.726 E.01687
G1 X148.561 Y103.263 E.11338
G1 X148.557 Y103.797 E.01687
G1 X146.02 Y101.26 E.11338
G1 X146.017 Y101.794 E.01687
G1 X148.554 Y104.331 E.11338
G1 X148.55 Y104.864 E.01687
G1 X146.013 Y102.327 E.11338
G1 X146.009 Y102.861 E.01687
G1 X148.546 Y105.398 E.11338
G1 X148.542 Y105.932 E.01687
G1 X146.005 Y103.395 E.11338
G1 X146.001 Y103.928 E.01687
G1 X148.538 Y106.465 E.11338
G1 X148.534 Y106.999 E.01687
G1 X145.997 Y104.462 E.11338
G1 X145.994 Y104.996 E.01687
G1 X148.531 Y107.533 E.11338
G1 X148.527 Y108.066 E.01687
G1 X145.99 Y105.529 E.11338
G1 X145.986 Y106.063 E.01687
G1 X148.523 Y108.6 E.11338
G1 X148.519 Y109.134 E.01687
G1 X145.982 Y106.597 E.11338
G1 X145.978 Y107.13 E.01687
G1 X148.515 Y109.667 E.11338
G1 X148.511 Y110.201 E.01687
G1 X145.974 Y107.664 E.11338
G1 X145.971 Y108.198 E.01687
G1 X148.507 Y110.734 E.11338
G1 X148.504 Y111.268 E.01687
G1 X145.967 Y108.731 E.11338
M73 P1 R41
G1 X145.963 Y109.265 E.01687
G1 X148.5 Y111.802 E.11338
G1 X148.496 Y112.335 E.01687
G1 X145.959 Y109.798 E.11338
G1 X145.955 Y110.332 E.01687
G1 X148.492 Y112.869 E.11338
G1 X148.488 Y113.403 E.01687
G1 X145.951 Y110.866 E.11338
G1 X145.947 Y111.399 E.01687
G1 X148.484 Y113.936 E.11338
G1 X148.481 Y114.47 E.01687
G1 X145.944 Y111.933 E.11338
G1 X145.94 Y112.467 E.01687
G1 X148.477 Y115.004 E.11338
G1 X148.473 Y115.537 E.01687
M73 P2 R41
M73 Q2 S42
G1 X145.936 Y113 E.11338
G1 X145.932 Y113.534 E.01687
G1 X148.469 Y116.071 E.11338
G1 X148.465 Y116.605 E.01687
G1 X145.928 Y114.068 E.11338
G1 X145.924 Y114.601 E.01687
G1 X148.461 Y117.138 E.11338
G1 X148.457 Y117.672 E.01687
G1 X145.921 Y115.135 E.11338
G1 X145.917 Y115.669 E.01687
G1 X148.454 Y118.206 E.11338
G1 X148.453 Y118.248 E.00135
G1 X147.955 Y118.245 E.01574
G1 X145.913 Y116.202 E.09128
G1 X145.909 Y116.736 E.01687
G1 X147.414 Y118.241 E.06725
G1 X146.872 Y118.237 E.01711
G1 X145.905 Y117.27 E.04322
G1 X145.901 Y117.803 E.01687
G1 X146.502 Y118.404 E.02683
M204 S1000
; stop printing object Steptumstag.stl id:4 copy 0
; printing object Stag-Tunge2.stl id:3 copy 0
;WIPE_START
G1 F8640
G1 X145.901 Y117.803 E-.19602
G1 X145.905 Y117.27 E-.12322
G1 X146.872 Y118.237 E-.31576
G1 X147.413 Y118.241 E-.12499
;WIPE_END
G1 E-.04 F2100
G1 Z.6 F720
G1 X138.044 Y98.532 F10800
G1 Z.2 F720
G1 E.8 F2100
M204 S800
;TYPE:Perimeter
;WIDTH:0.42
G1 F1200
G1 X137.847 Y98.916 E.01353
G1 X137.684 Y99.133 E.0085
G1 X137.486 Y99.333 E.00882
G1 X137.263 Y99.504 E.00882
G1 X137.018 Y99.643 E.00882
G1 X136.757 Y99.747 E.00882
G1 X136.484 Y99.815 E.00882
G1 X136.181 Y99.847 E.00956
G1 X128.238 Y100.153 E.24921
G1 X127.668 Y100.126 E.01789
G1 X127.327 Y100.059 E.01089
G1 X126.988 Y99.95 E.01116
G1 X126.672 Y99.806 E.0109
G1 X126.209 Y99.508 E.01727
G1 X125.947 Y99.279 E.0109
G1 X125.708 Y99.015 E.01116
G1 X125.501 Y98.726 E.01116
G1 X125.334 Y98.421 E.0109
G1 X125.14 Y97.906 E.01727
G1 X125.067 Y97.566 E.01089
G1 X125.031 Y97.192 E.01179
G1 X124.339 Y79.239 E.56333
G1 X124.366 Y78.814 E.01333
G1 X124.483 Y78.389 E.01384
G1 X124.598 Y78.143 E.00851
G1 X124.752 Y77.907 E.00882
G1 X124.936 Y77.694 E.00882
G1 X125.147 Y77.509 E.00882
G1 X125.382 Y77.353 E.00882
G1 X125.626 Y77.236 E.00851
G1 X126.05 Y77.115 E.01384
G1 X126.344 Y77.083 E.00924
G1 X135.29 Y76.739 E.28072
G1 X135.585 Y76.747 E.00924
G1 X136.017 Y76.835 E.01384
G1 X136.27 Y76.934 E.00851
G1 X136.507 Y77.066 E.00851
G1 X136.843 Y77.336 E.01353
G1 X137.117 Y77.67 E.01353
G1 X137.246 Y77.897 E.00819
G1 X137.395 Y78.312 E.01384
G1 X137.443 Y78.58 E.00851
G1 X138.185 Y97.672 E.5991
G1 X138.156 Y98.126 E.01426
G1 X138.06 Y98.474 E.01132
M204 S1000
G1 X138.397 Y98.67 F10800
M204 S800
;TYPE:External perimeter
G1 F1200
G1 X138.168 Y99.117 E.01575
G1 X137.97 Y99.38 E.01033
G1 X137.736 Y99.617 E.01044
G1 X137.471 Y99.819 E.01044
G1 X137.182 Y99.983 E.01044
G1 X136.873 Y100.107 E.01044
G1 X136.55 Y100.187 E.01044
G1 X136.208 Y100.224 E.01077
G1 X128.236 Y100.531 E.25013
G1 X127.623 Y100.501 E.01927
G1 X127.233 Y100.424 E.01244
G1 X126.852 Y100.302 E.01254
G1 X126.491 Y100.138 E.01244
G1 X125.982 Y99.81 E.01899
G1 X125.683 Y99.549 E.01245
G1 X125.414 Y99.253 E.01254
G1 X125.182 Y98.927 E.01254
G1 X124.99 Y98.579 E.01245
G1 X124.778 Y98.012 E.01899
G1 X124.694 Y97.624 E.01244
G1 X124.654 Y97.217 E.01282
G1 X123.961 Y79.077 E.5692
G1 X123.994 Y78.745 E.01044
G1 X124.128 Y78.257 E.01587
G1 X124.268 Y77.959 E.01033
G1 X124.45 Y77.68 E.01044
G1 X124.667 Y77.428 E.01044
G1 X124.917 Y77.208 E.01044
G1 X125.195 Y77.025 E.01044
G1 X125.492 Y76.882 E.01033
G1 X125.978 Y76.743 E.01587
G1 X126.316 Y76.707 E.01066
G1 X135.289 Y76.361 E.28153
G1 X135.628 Y76.371 E.01066
G1 X136.124 Y76.472 E.01586
G1 X136.431 Y76.592 E.01033
G1 X136.719 Y76.752 E.01033
G1 X137.11 Y77.067 E.01575
G1 X137.429 Y77.456 E.01575
G1 X137.59 Y77.739 E.01021
G1 X137.761 Y78.215 E.01587
G1 X137.818 Y78.539 E.01033
G1 X138.562 Y97.677 E.60051
G1 X138.53 Y98.189 E.01608
G1 X138.413 Y98.612 E.01376
M204 S1000
G1 X138.002 Y98.731 F10800
;WIPE_START
G1 F8640
G1 X138.168 Y99.117 E-.1296
G1 X137.97 Y99.38 E-.07604
G1 X137.736 Y99.617 E-.07688
G1 X137.471 Y99.819 E-.07688
G1 X137.182 Y99.983 E-.07688
