; generated by PrusaSlicer 2.3.3+win64 on 2022-02-21 at 08:51:36 UTC

; 

; external perimeters extrusion width = 0.45mm
; perimeters extrusion width = 0.45mm
; infill extrusion width = 0.45mm
; solid infill extrusion width = 0.45mm
; top infill extrusion width = 0.40mm
; support material extrusion width = 0.35mm
; first layer extrusion width = 0.42mm

M73 P0 R22
M73 Q0 S22
M201 X1000 Y1000 Z200 E5000 ; sets maximum accelerations, mm/sec^2
M203 X200 Y200 Z12 E120 ; sets maximum feedrates, mm/sec
M204 P1250 R1250 T1250 ; sets acceleration (P, T) and retract acceleration (R), mm/sec^2
M205 X8.00 Y8.00 Z0.40 E4.50 ; sets the jerk limits, mm/sec
M205 S0 T0 ; sets the minimum extruding and travel feed rate, mm/sec
M107
;TYPE:Custom
M862.3 P "MK3S" ; printer model check
M862.1 P0.4 ; nozzle diameter check
M115 U3.10.0 ; tell printer latest fw version
G90 ; use absolute coordinates
M83 ; extruder relative mode
M104 S215 ; set extruder temp
M140 S60 ; set bed temp
M190 S60 ; wait for bed temp
M109 S215 ; wait for extruder temp
G28 W ; home all without mesh bed level
G80 ; mesh bed leveling
G1 Y-3.0 F1000.0 ; go outside print area
G92 E0.0
G1 X60.0 E9.0 F1000.0 ; intro line
M73 P0 R21
G1 X100.0 E12.5 F1000.0 ; intro line
G92 E0.0
M221 S95

; Don't change E values below. Excessive value can damage the printer.
M907 E430 ; set extruder motor current
G21 ; set units to millimeters
G90 ; use absolute coordinates
M83 ; use relative distances for extrusion
M900 K0.05 ; Filament gcode LA 1.5
M900 K30 ; Filament gcode LA 1.0
;LAYER_CHANGE
;Z:0.2
;HEIGHT:0.2
;BEFORE_LAYER_CHANGE
G92 E0.0
;0.2


G1 E-0.80000 F2100.000
G1 Z0.400 F10800.000
;AFTER_LAYER_CHANGE
;0.2
G1 X109.036 Y88.604
M73 Q0 S21
G1 Z0.200
G1 E0.80000 F2100.000
M204 S1000
;TYPE:Skirt
;WIDTH:0.42
G1 F1200.000
G1 X109.792 Y88.121 E0.02813
G1 X110.674 Y87.953 E0.02813
G1 X139.404 Y88.124 E0.90083
G1 X140.328 Y88.343 E0.02977
G1 X141.093 Y88.906 E0.02977
G1 X141.539 Y89.623 E0.02649
G1 X141.706 Y90.452 E0.02649
G1 X141.706 Y119.681 E0.91648
G1 X141.652 Y120.173 E0.01550
G1 X141.498 Y120.642 E0.01550
G1 X141.252 Y121.067 E0.01538
G1 X140.922 Y121.434 E0.01550
G1 X140.211 Y121.877 E0.02626
G1 X139.395 Y122.046 E0.02614
G1 X118.186 Y122.047 E0.66499
G1 X110.427 Y121.865 E0.24333
G1 X109.595 Y121.620 E0.02720
G1 X108.906 Y121.093 E0.02720
G1 X108.461 Y120.375 E0.02649
G1 X108.294 Y119.547 E0.02649
G1 X108.297 Y90.204 E0.92002
M73 P1 R21
M73 Q1 S21
G1 X108.513 Y89.333 E0.02813
G1 X109.001 Y88.653 E0.02625
; printing object StemmeBånd.stl id:0 copy 0
;WIPE_START
G1 F8640.000
G1 X109.792 Y88.121 E-0.22012
G1 X110.674 Y87.953 E-0.20719
G1 X112.114 Y87.961 E-0.33269
;WIPE_END
G1 E-0.04000 F2100.000
G1 Z0.600 F10800.000
G1 X110.671 Y90.330
G1 Z0.200
G1 E0.80000 F2100.000
;TYPE:Support material
G1 F1200.000
G1 X110.671 Y119.500 E0.91462
G1 X111.425 Y119.500 E0.02365
G1 X111.425 Y90.500 E0.90929
G1 X112.179 Y90.500 E0.02365
G1 X112.179 Y119.500 E0.90929
G1 X112.933 Y119.500 E0.02365
G1 X112.933 Y90.500 E0.90929
G1 X113.688 Y90.500 E0.02365
G1 X113.688 Y119.500 E0.90929
G1 X114.442 Y119.500 E0.02365
G1 X114.442 Y90.500 E0.90929
G1 X115.196 Y90.500 E0.02365
G1 X115.196 Y119.500 E0.90929
G1 X115.950 Y119.500 E0.02365
G1 X115.950 Y90.500 E0.90929
M73 P2 R21
M73 Q2 S21
G1 X116.704 Y90.500 E0.02365
G1 X116.704 Y119.500 E0.90929
G1 X117.458 Y119.500 E0.02365
G1 X117.458 Y90.500 E0.90929
G1 X118.213 Y90.500 E0.02365
G1 X118.213 Y119.670 E0.91462
G1 X139.329 Y119.670 F10800.000
G1 F1200.000
G1 X139.329 Y90.500 E0.91462
G1 X138.575 Y90.500 E0.02365
G1 X138.575 Y119.500 E0.90929
G1 X137.821 Y119.500 E0.02365
G1 X137.821 Y90.500 E0.90929
G1 X137.067 Y90.500 E0.02365
G1 X137.067 Y119.500 E0.90929
G1 X136.312 Y119.500 E0.02365
G1 X136.312 Y116.877 E0.08224
G1 X135.558 Y116.877 E0.02365
G1 X135.558 Y119.500 E0.08224
G1 X134.804 Y119.500 E0.02365
G1 X134.804 Y116.877 E0.08224
G1 X134.050 Y116.877 E0.02365
G1 X134.050 Y119.500 E0.08224
G1 X133.296 Y119.500 E0.02365
G1 X133.296 Y116.877 E0.08224
G1 X132.542 Y116.877 E0.02365
G1 X132.542 Y119.500 E0.08224
G1 X131.787 Y119.500 E0.02365
G1 X131.787 Y116.877 E0.08224
G1 X131.579 Y116.877 E0.00653
G1 X131.579 Y109.272 E0.23846
G1 X131.787 Y109.272 E0.00653
G1 X131.787 Y106.649 E0.08224
M73 Q3 S21
G1 X132.542 Y106.649 E0.02365
G1 X132.542 Y109.272 E0.08224
G1 X133.296 Y109.272 E0.02365
M73 P3 R21
G1 X133.296 Y100.728 E0.26790
G1 X132.542 Y100.728 E0.02365
G1 X132.542 Y103.351 E0.08224
G1 X131.787 Y103.351 E0.02365
G1 X131.787 Y100.728 E0.08224
G1 X131.579 Y100.728 E0.00653
G1 X131.579 Y93.122 E0.23846
G1 X131.787 Y93.122 E0.00653
G1 X131.787 Y90.500 E0.08224
G1 X131.033 Y90.500 E0.02365
G1 X131.033 Y103.351 E0.40294
G1 X130.279 Y103.351 E0.02365
G1 X130.279 Y90.500 E0.40294
G1 X129.525 Y90.500 E0.02365
G1 X129.525 Y103.351 E0.40294
G1 X128.771 Y103.351 E0.02365
G1 X128.771 Y90.500 E0.40294
G1 X128.017 Y90.500 E0.02365
G1 X128.017 Y103.351 E0.40294
G1 X127.262 Y103.351 E0.02365
G1 X127.262 Y90.500 E0.40294
G1 X126.508 Y90.500 E0.02365
G1 X126.508 Y103.351 E0.40294
G1 X125.754 Y103.351 E0.02365
G1 X125.754 Y90.500 E0.40294
G1 X125.000 Y90.500 E0.02365
G1 X125.000 Y103.351 E0.40294
G1 X124.246 Y103.351 E0.02365
G1 X124.246 Y90.500 E0.40294
G1 X123.492 Y90.500 E0.02365
G1 X123.492 Y103.351 E0.40294
G1 X122.738 Y103.351 E0.02365
G1 X122.738 Y90.500 E0.40294
G1 X121.983 Y90.500 E0.02365
G1 X121.983 Y101.044 E0.33060
G1 X121.229 Y101.044 E0.02365
G1 X121.229 Y90.500 E0.33060
G1 X120.475 Y90.500 E0.02365
G1 X120.475 Y101.044 E0.33060
G1 X119.721 Y101.044 E0.02365
G1 X119.721 Y90.500 E0.33060
G1 X118.967 Y90.500 E0.02365
G1 X118.967 Y101.044 E0.33060
G1 X118.737 Y101.044 E0.00722
G1 X118.737 Y108.956 E0.24809
M73 P4 R21
M73 Q4 S21
G1 X118.967 Y108.956 E0.00722
G1 X118.967 Y119.500 E0.33060
G1 X119.721 Y119.500 E0.02365
G1 X119.721 Y108.956 E0.33060
G1 X120.475 Y108.956 E0.02365
G1 X120.475 Y119.500 E0.33060
G1 X121.229 Y119.500 E0.02365
G1 X121.229 Y108.956 E0.33060
G1 X121.983 Y108.956 E0.02365
G1 X121.983 Y119.500 E0.33060
G1 X122.738 Y119.500 E0.02365
G1 X122.738 Y106.649 E0.40294
G1 X123.492 Y106.649 E0.02365
G1 X123.492 Y119.500 E0.40294
G1 X124.246 Y119.500 E0.02365
G1 X124.246 Y106.649 E0.40294
G1 X125.000 Y106.649 E0.02365
G1 X125.000 Y119.500 E0.40294
G1 X125.754 Y119.500 E0.02365
G1 X125.754 Y106.649 E0.40294
G1 X126.508 Y106.649 E0.02365
G1 X126.508 Y119.500 E0.40294
G1 X127.262 Y119.500 E0.02365
G1 X127.262 Y106.649 E0.40294
G1 X128.017 Y106.649 E0.02365
G1 X128.017 Y119.500 E0.40294
G1 X128.771 Y119.500 E0.02365
G1 X128.771 Y106.649 E0.40294
G1 X129.525 Y106.649 E0.02365
G1 X129.525 Y119.500 E0.40294
G1 X130.279 Y119.500 E0.02365
G1 X130.279 Y106.649 E0.40294
G1 X131.033 Y106.649 E0.02365
G1 X131.033 Y119.670 E0.40826
;WIPE_START
G1 F8640.000
G1 X131.033 Y116.379 E-0.76000
;WIPE_END
G1 E-0.04000 F2100.000
G1 Z0.600 F10800.000
M73 P4 R20
G1 X132.099 Y116.674
G1 Z0.200
G1 E0.80000 F2100.000
;TYPE:Support material interface
;WIDTH:0.35
G1 F1200.000
G1 X132.099 Y109.614 E0.18025
G1 X132.606 Y109.614 E0.01295
G1 X132.606 Y116.674 E0.18025
;WIPE_START
G1 F8640.000
G1 X132.606 Y113.382 E-0.76000
;WIPE_END
G1 E-0.04000 F2100.000
G1 Z0.600 F10800.000
G1 X133.620 Y110.683
M73 Q5 S21
G1 Z0.200
G1 E0.80000 F2100.000
G1 F1200.000
G1 X133.620 Y109.614 E0.02729
G1 X133.113 Y109.614 E0.01295
M73 P5 R20
G1 X133.113 Y116.535 E0.17673
G1 X133.620 Y116.535 E0.01295
G1 X133.620 Y115.179 E0.03465
G1 X134.127 Y115.179 E0.01295
G1 X134.127 Y116.535 E0.03465
G1 X134.635 Y116.535 E0.01295
G1 X134.635 Y115.179 E0.03465
G1 X135.142 Y115.179 E0.01295
G1 X135.142 Y116.535 E0.03465
G1 X135.649 Y116.535 E0.01295
G1 X135.649 Y115.179 E0.03465
G1 X136.038 Y115.179 E0.00995
G1 X136.156 Y115.061 E0.00424
G1 X136.156 Y116.674 E0.04117
G1 X136.312 Y114.056 F10800.000
;TYPE:Support material
;WIDTH:0.42
G1 F1200.000
G1 X136.312 Y96.114 E0.56256
M73 Q5 S20
G1 X136.877 Y96.114 E0.01772
G1 X136.877 Y93.122 E0.09379
G1 X136.312 Y93.122 E0.01772
G1 X136.312 Y90.500 E0.08224
G1 X135.558 Y90.500 E0.02365
G1 X135.558 Y93.122 E0.08224
G1 X134.804 Y93.122 E0.02365
G1 X134.804 Y90.500 E0.08224
G1 X134.050 Y90.500 E0.02365
G1 X134.050 Y93.122 E0.08224
G1 X133.296 Y93.122 E0.02365
G1 X133.296 Y90.500 E0.08224
G1 X132.542 Y90.500 E0.02365
G1 X132.542 Y93.292 E0.08756
G1 X132.099 Y93.326 F10800.000
;TYPE:Support material interface
;WIDTH:0.35
G1 F1200.000
G1 X132.099 Y100.386 E0.18025
G1 X132.606 Y100.386 E0.01295
G1 X132.606 Y93.465 E0.17673
G1 X133.113 Y93.465 E0.01295
G1 X133.113 Y100.524 E0.18025
G1 X133.620 Y100.524 F10800.000
G1 F1200.000
G1 X133.620 Y99.317 E0.03081
;WIPE_START
G1 F8640.000
G1 X133.620 Y100.524 E-0.27863
;WIPE_END
G1 E-0.52137 F2100.000
G1 Z0.600 F10800.000
G1 X136.156 Y95.910
G1 Z0.200
G1 E0.80000 F2100.000
G1 F1200.000
G1 X136.156 Y93.465 E0.06244
G1 X135.649 Y93.465 E0.01295
G1 X135.649 Y94.821 E0.03465
G1 X135.142 Y94.821 E0.01295
G1 X135.142 Y93.465 E0.03465
G1 X134.635 Y93.465 E0.01295
G1 X134.635 Y94.821 E0.03465
G1 X134.127 Y94.821 E0.01295
G1 X134.127 Y93.465 E0.03465
G1 X133.620 Y93.465 E0.01295
G1 X133.620 Y94.960 E0.03818
;WIPE_START
G1 F8640.000
G1 X133.620 Y93.465 E-0.34522
G1 X134.127 Y93.465 E-0.11709
G1 X134.127 Y94.754 E-0.29769
;WIPE_END
G1 E-0.04000 F2100.000
G1 Z0.600 F10800.000
G1 X134.449 Y95.610
G1 Z0.200
G1 E0.80000 F2100.000
;TYPE:External perimeter
;WIDTH:0.42
G1 F1200.000
G1 X135.057 Y95.610 E0.01907
G1 X135.057 Y114.390 E0.58883
G1 X134.449 Y114.390 E0.01908
G1 X134.449 Y111.225 E0.09925
G1 X134.625 Y111.201 E0.00556
G1 X134.625 Y98.799 E0.38882
G1 X134.449 Y98.775 E0.00556
G1 X134.449 Y95.670 E0.09737
G1 X134.799 Y95.804 F10800.000
G1 X134.753 Y95.799
;TYPE:Gap fill
;WIDTH:0.274052
G1 F1200.000
G1 X134.753 Y98.627 E0.05436
G1 X134.638 Y98.169 F10800.000
;WIDTH:0.0984724
G1 F1200.000
G1 X134.841 Y98.635 E0.00235
G1 X134.841 Y111.365 E0.05880
;WIDTH:0.140695
G1 X134.638 Y111.832 E0.00414
G1 X134.753 Y111.373 F10800.000
;WIDTH:0.274469
G1 F1200.000
G1 X134.753 Y114.201 E0.05445
; stop printing object StemmeBånd.stl id:0 copy 0
M106 S84.15
;LAYER_CHANGE
;Z:0.3
;HEIGHT:0.1
;BEFORE_LAYER_CHANGE
G92 E0.0
;0.3


;WIPE_START
G1 F8640.000
G1 X134.753 Y111.373 E-0.65307
;WIPE_END
G1 E-0.14693 F2100.000
G1 Z0.600 F10800.000
;AFTER_LAYER_CHANGE
;0.3
; printing object StemmeBånd.stl id:0 copy 0
G1 X133.620 Y110.683
G1 Z0.300
G1 E0.80000 F2100.000
;TYPE:Support material interface
;WIDTH:0.35
G1 F1082
G1 X133.620 Y109.614 E0.01460
G1 X133.113 Y109.614 E0.00693
G1 X133.113 Y116.535 E0.09454
G1 X133.620 Y116.535 E0.00693
G1 X133.620 Y115.179 E0.01853
G1 X134.127 Y115.179 E0.00693
G1 X134.127 Y116.535 E0.01853
G1 X134.635 Y116.535 E0.00693
G1 X134.635 Y115.179 E0.01853
G1 X135.142 Y115.179 E0.00693
G1 X135.142 Y116.535 E0.01853
G1 X135.649 Y116.535 E0.00693
G1 X135.649 Y115.179 E0.01853
G1 X136.038 Y115.179 E0.00532
G1 X136.156 Y115.061 E0.00227
G1 X136.156 Y116.674 E0.02202
;WIPE_START
G1 F8640.000
G1 X136.156 Y115.061 E-0.37229
G1 X136.038 Y115.179 E-0.03831
G1 X135.649 Y115.179 E-0.08999
G1 X135.649 Y116.302 E-0.25941
;WIPE_END
G1 E-0.04000 F2100.000
G1 Z0.700 F10800.000
G1 X132.606 Y116.674
G1 Z0.300
G1 E0.80000 F2100.000
G1 F1082
G1 X132.606 Y109.614 E0.09643
G1 X132.099 Y109.614 E0.00693
G1 X132.099 Y116.674 E0.09643
;WIPE_START
G1 F8640.000
G1 X132.099 Y113.382 E-0.76000
;WIPE_END
G1 E-0.04000 F2100.000
G1 Z0.700 F10800.000
G1 X136.121 Y111.921
G1 Z0.300
G1 E0.80000 F2100.000
;TYPE:Support material
G1 F1082
G1 X136.535 Y111.921 E0.00566
G1 X136.535 Y109.614 E0.03151
G1 X136.258 Y109.614 E0.00378
G1 X136.258 Y107.307 E0.03151
M73 Q6 S20
G1 X136.535 Y107.307 E0.00378
G1 X136.535 Y105.000 E0.03151
G1 X136.258 Y105.000 E0.00378
G1 X136.259 Y102.693 E0.03151
M73 P6 R20
G1 X136.535 Y102.693 E0.00378
G1 X136.535 Y100.386 E0.03151
G1 X136.259 Y100.386 E0.00377
G1 X136.260 Y98.079 E0.03151
G1 X136.674 Y98.079 E0.00565
;WIPE_START
G1 F8640.000
G1 X136.260 Y98.079 E-0.09551
G1 X136.259 Y100.386 E-0.53271
G1 X136.535 Y100.386 E-0.06372
G1 X136.535 Y100.681 E-0.06806
;WIPE_END
G1 E-0.04000 F2100.000
G1 Z0.700 F10800.000
G1 X136.156 Y95.910
G1 Z0.300
G1 E0.80000 F2100.000
;TYPE:Support material interface
G1 F1082
G1 X136.156 Y93.465 E0.03340
G1 X135.649 Y93.465 E0.00693
G1 X135.649 Y94.821 E0.01853
G1 X135.142 Y94.821 E0.00693
G1 X135.142 Y93.465 E0.01853
G1 X134.635 Y93.465 E0.00693
G1 X134.635 Y94.821 E0.01853
G1 X134.127 Y94.821 E0.00693
G1 X134.127 Y93.465 E0.01853
G1 X133.620 Y93.465 E0.00693
G1 X133.620 Y94.960 E0.02042
;WIPE_START
G1 F8640.000
G1 X133.620 Y93.465 E-0.34522
G1 X134.127 Y93.465 E-0.11709
G1 X134.127 Y94.754 E-0.29770
;WIPE_END
G1 E-0.04000 F2100.000
G1 Z0.700 F10800.000
G1 X124.862 Y100.386
G1 Z0.300
G1 E0.80000 F2100.000
;TYPE:Support material
G1 F1082
G1 X131.752 Y100.386 E0.09412
;WIPE_START
G1 F8640.000
G1 X128.461 Y100.386 E-0.76000
;WIPE_END
G1 E-0.04000 F2100.000
G1 Z0.700 F10800.000
G1 X133.620 Y99.317
G1 Z0.300
G1 E0.80000 F2100.000
;TYPE:Support material interface
G1 F1082
G1 X133.620 Y100.524 E0.01648
G1 X133.113 Y100.524 F10800.000
G1 F1082
G1 X133.113 Y93.465 E0.09643
G1 X132.606 Y93.465 E0.00693
G1 X132.606 Y100.386 E0.09454
G1 X132.099 Y100.386 E0.00693
G1 X132.099 Y93.326 E0.09643
G1 X131.752 Y93.465 F10800.000
;TYPE:Support material
G1 F1082
G1 X113.465 Y93.465 E0.24979
G1 X113.465 Y95.772 E0.03151
G1 X131.614 Y95.772 E0.24791
G1 X131.614 Y98.079 E0.03151
G1 X113.465 Y98.079 E0.24791
G1 X113.465 Y100.386 E0.03151
G1 X115.772 Y100.386 E0.03151
G1 X115.772 Y102.693 E0.03151
G1 X113.465 Y102.693 E0.03151
G1 X113.465 Y105.000 E0.03151
G1 X115.772 Y105.000 E0.03151
G1 X115.772 Y107.307 E0.03151
G1 X113.465 Y107.307 E0.03151
G1 X113.465 Y109.614 E0.03151
G1 X115.772 Y109.614 E0.03151
G1 X115.772 Y111.921 E0.03151
G1 X125.000 Y111.921 E0.12605
G1 X125.000 Y109.614 E0.03151
G1 X131.614 Y109.614 E0.09034
G1 X131.614 Y111.921 E0.03151
G1 X113.465 Y111.921 E0.24791
G1 X113.465 Y114.228 E0.03151
G1 X131.614 Y114.228 E0.24791
G1 X131.614 Y116.535 E0.03151
G1 X113.326 Y116.535 E0.24979
; stop printing object StemmeBånd.stl id:0 copy 0
;LAYER_CHANGE
;Z:0.4
;HEIGHT:0.1
;BEFORE_LAYER_CHANGE
G92 E0.0
;0.4


;WIPE_START
M73 P7 R20
M73 Q7 S20
G1 F8640.000
G1 X116.618 Y116.535 E-0.76000
;WIPE_END
G1 E-0.04000 F2100.000
G1 Z0.700 F10800.000
;AFTER_LAYER_CHANGE
;0.4
G1 X109.595 Y121.620
G1 Z0.400
G1 E0.80000 F2100.000
;TYPE:Skirt
;WIDTH:0.42
;HEIGHT:0.2
G1 F949
G1 X108.906 Y121.093 E0.02720
G1 X108.461 Y120.375 E0.02649
G1 X108.294 Y119.547 E0.02649
G1 X108.297 Y90.204 E0.92002
G1 X108.513 Y89.333 E0.02813
G1 X109.036 Y88.604 E0.02813
G1 X109.792 Y88.121 E0.02813
G1 X110.674 Y87.953 E0.02813
G1 X139.404 Y88.124 E0.90083
G1 X140.328 Y88.343 E0.02977
G1 X141.093 Y88.906 E0.02977
G1 X141.539 Y89.623 E0.02649
G1 X141.706 Y90.452 E0.02649
G1 X141.706 Y119.681 E0.91648
G1 X141.652 Y120.173 E0.01550
G1 X141.498 Y120.642 E0.01550
G1 X141.252 Y121.067 E0.01538
G1 X140.922 Y121.434 E0.01550
G1 X140.211 Y121.877 E0.02626
G1 X139.395 Y122.046 E0.02614
G1 X118.186 Y122.047 E0.66499
G1 X110.427 Y121.865 E0.24333
G1 X109.653 Y121.637 E0.02531
; printing object StemmeBånd.stl id:0 copy 0
;WIPE_START
G1 F8640.000
G1 X108.906 Y121.093 E-0.21327
G1 X108.461 Y120.375 E-0.19509
G1 X108.294 Y119.547 E-0.19509
G1 X108.294 Y118.869 E-0.15655
;WIPE_END
G1 E-0.04000 F2100.000
G1 Z0.800 F10800.000
G1 X134.784 Y111.512
G1 Z0.400
G1 E0.80000 F2100.000
M204 S800
;TYPE:Perimeter
;WIDTH:0.45
G1 F949
G1 X134.783 Y111.403 E0.00370
G1 X134.847 Y111.394 E0.00218
G1 X134.847 Y98.606 E0.43287
G1 X134.783 Y98.597 E0.00218
G1 X134.784 Y98.488 E0.00370
G1 X134.039 Y98.488 E0.02523
G1 X134.040 Y95.832 E0.08990
G1 X135.250 Y95.832 E0.04093
G1 X135.250 Y96.550 E0.02431
G1 X135.250 Y114.168 E0.59633
G1 X134.041 Y114.168 E0.04092
G1 X134.041 Y111.512 E0.08990
G1 X134.724 Y111.512 E0.02313
M204 S1000
G1 X134.374 Y111.105 F10800.000
M204 S800
;TYPE:External perimeter
M73 Q8 S20
G1 F949
G1 X134.373 Y111.048 E0.00192
G1 X134.440 Y111.039 E0.00227
G1 X134.440 Y98.961 E0.40884
M73 P8 R20
G1 X134.373 Y98.952 E0.00227
G1 X134.374 Y98.895 E0.00192
G1 X133.963 Y98.895 E0.01392
