; generated by PrusaSlicer 2.4.0+win64 on 2022-03-07 at 08:13:53 UTC

; 

; external perimeters extrusion width = 0.45mm
; perimeters extrusion width = 0.45mm
; infill extrusion width = 0.45mm
; solid infill extrusion width = 0.45mm
; top infill extrusion width = 0.40mm
; first layer extrusion width = 0.42mm

M73 P0 R26
M73 Q0 S26
M201 X1000 Y1000 Z200 E5000 ; sets maximum accelerations, mm/sec^2
M203 X200 Y200 Z12 E120 ; sets maximum feedrates, mm/sec
M204 P1250 R1250 T1250 ; sets acceleration (P, T) and retract acceleration (R), mm/sec^2
M205 X8.00 Y8.00 Z0.40 E4.50 ; sets the jerk limits, mm/sec
M205 S0 T0 ; sets the minimum extruding and travel feed rate, mm/sec
M107
;TYPE:Custom
M862.3 P "MK3S" ; printer model check
M862.1 P0.4 ; nozzle diameter check
M115 U3.10.0 ; tell printer latest fw version
G90 ; use absolute coordinates
M83 ; extruder relative mode
M104 S240 ; set extruder temp
M140 S50 ; set bed temp
M190 S50 ; wait for bed temp
M109 S240 ; wait for extruder temp
G28 W ; home all without mesh bed level
G80 ; mesh bed leveling
G1 Z0.2 F720
G1 Y-3 F1000 ; go outside print area
G92 E0
G1 X60 E9 F1000 ; intro line
G1 X100 E12.5 F1000 ; intro line
G92 E0
M221 S95

; Don't change E values below. Excessive value can damage the printer.

M907 E538 ; set extruder motor current
G21 ; set units to millimeters
G90 ; use absolute coordinates
M83 ; use relative distances for extrusion
M900 K0
M107
;LAYER_CHANGE
;Z:0.2
;HEIGHT:0.2
;BEFORE_LAYER_CHANGE
G92 E0.0
;0.2


G1 Z.2 F720
;AFTER_LAYER_CHANGE
;0.2
; printing object StrubeLåg_7Marts.stl id:0 copy 0
G1 X125.337 Y98.947 F10800
M204 S800
;TYPE:Perimeter
;WIDTH:0.42
G1 F954.706
G1 X125.323 Y99.232 E.01029
G1 X125.379 Y99.538 E.01123
G1 X125.528 Y99.974 E.01663
G1 X125.757 Y100.472 E.01975
G1 X126.147 Y101.193 E.02957
G1 X127.171 Y102.858 E.07045
G1 X127.41 Y103.278 E.01744
G1 X127.441 Y103.363 E.00324
G1 X127.347 Y103.465 E.005
G1 X125.792 Y104.825 E.07448
G1 X124.671 Y105.905 E.05614
G1 X123.039 Y107.62 E.08537
G1 X119.892 Y111.124 E.1698
G1 X118.572 Y112.533 E.06965
G1 X117.417 Y113.689 E.05891
G1 X114.27 Y116.713 E.15737
G1 X113.534 Y117.357 E.03526
G1 X113.101 Y117.671 E.01928
G1 X112.783 Y117.841 E.01302
G1 X112.642 Y117.88 E.00527
G1 X112.519 Y117.663 E.00897
G1 X112.458 Y117.488 E.00669
G1 X112.343 Y116.964 E.01935
G1 X112.305 Y116.672 E.0106
G1 X112.261 Y115.974 E.02524
G1 X112.266 Y115.211 E.0275
G1 X112.323 Y114.408 E.02904
G1 X112.435 Y113.585 E.02993
G1 X112.607 Y112.757 E.0305
G1 X112.844 Y111.929 E.03104
G1 X113.154 Y111.104 E.03179
G1 X113.545 Y110.273 E.03311
G1 X114.014 Y109.454 E.03404
G1 X114.585 Y108.608 E.03677
G1 X114.896 Y108.194 E.0187
G1 X115.598 Y107.337 E.03995
G1 X116.38 Y106.474 E.042
G1 X117.231 Y105.604 E.04387
G1 X118.134 Y104.732 E.04525
G1 X119.064 Y103.869 E.04576
G1 X120.924 Y102.205 E.08998
G1 X123.023 Y100.393 E.09999
G1 X124.067 Y99.56 E.04818
G1 X124.653 Y99.156 E.02565
G1 X125.123 Y98.913 E.01908
G1 X125.401 Y98.826 E.01049
G1 X125.365 Y98.894 E.00274
M204 S1000
G1 X126.843 Y98.595 F10800
M204 S800
G1 F954.706
G1 X127.024 Y98.551 E.00673
G1 X127.383 Y98.415 E.01384
G1 X127.895 Y98.128 E.02117
G1 X128.069 Y98.41 E.01194
G1 X128.363 Y98.672 E.01422
G1 X128.705 Y98.8 E.01317
G1 X129.066 Y98.8 E.01301
G1 X129.434 Y98.664 E.01415
G1 X129.659 Y98.512 E.00981
G1 X130.074 Y98.106 E.02093
G1 X130.562 Y97.506 E.0279
G1 X131.005 Y96.908 E.02683
G1 X131.574 Y96.073 E.03641
G1 X132.025 Y95.307 E.03207
G1 X132.276 Y94.791 E.02067
G1 X132.719 Y93.783 E.0397
G1 X132.959 Y93.316 E.01897
G1 X133.24 Y92.894 E.01825
G1 X133.547 Y92.566 E.01621
G1 X133.721 Y92.431 E.00793
G1 X133.906 Y92.319 E.00782
G1 X134.104 Y92.23 E.00784
G1 X134.317 Y92.165 E.00801
G1 X134.543 Y92.126 E.0083
G1 X134.784 Y92.116 E.00869
G1 X135.037 Y92.137 E.00915
G1 X135.299 Y92.191 E.00966
G1 X135.568 Y92.28 E.01019
G1 X135.837 Y92.405 E.01073
G1 X136.105 Y92.567 E.01127
G1 X136.365 Y92.766 E.01181
G1 X136.613 Y93.001 E.01232
G1 X136.844 Y93.27 E.0128
G1 X137.056 Y93.571 E.01325
G1 X137.243 Y93.899 E.01364
G1 X137.404 Y94.252 E.01396
G1 X137.535 Y94.622 E.01416
G1 X137.634 Y95.004 E.01422
G1 X137.702 Y95.388 E.01409
G1 X137.738 Y95.768 E.01375
G1 X137.743 Y96.133 E.01315
G1 X137.719 Y96.472 E.01228
G1 X137.67 Y96.777 E.01113
G1 X137.6 Y97.037 E.00968
G1 X137.522 Y97.234 E.00765
G1 X137.363 Y97.47 E.01026
G1 X137.312 Y97.496 E.00207
G1 X137.162 Y97.458 E.00558
G1 X136.83 Y97.272 E.01371
G1 X135.59 Y96.339 E.05595
G1 X135.281 Y96.149 E.01309
G1 X134.95 Y95.99 E.01323
G1 X134.587 Y95.874 E.01375
G1 X134.193 Y95.824 E.01431
G1 X133.787 Y95.859 E.01469
G1 X133.396 Y95.982 E.01477
G1 X133.04 Y96.178 E.01468
G1 X132.72 Y96.429 E.01466
G1 X132.432 Y96.724 E.01487
G1 X132.16 Y97.061 E.01561
G1 X131.677 Y97.806 E.032
G1 X131.218 Y98.652 E.03471
G1 X130.142 Y100.81 E.08696
G1 X129.738 Y101.512 E.02919
G1 X129.559 Y101.772 E.01138
G1 X129.315 Y102.058 E.01357
G1 X129.161 Y102.175 E.00695
G1 X129.105 Y102.162 E.00211
G1 X128.993 Y102.068 E.00524
G1 X128.845 Y101.903 E.00802
G1 X128.475 Y101.363 E.02359
G1 X127.513 Y99.59 E.07271
G1 X127.166 Y99.002 E.02464
G1 X126.985 Y98.748 E.01124
G1 X126.883 Y98.639 E.00538
M204 S1000
G1 X125.94 Y98.609 F10800
M204 S800
;TYPE:External perimeter
G1 F954.706
G1 X125.71 Y99.049 E.01789
G1 X125.701 Y99.207 E.00571
G1 X125.745 Y99.443 E.00863
G1 X125.878 Y99.834 E.01493
G1 X126.094 Y100.303 E.01861
G1 X126.474 Y101.005 E.02876
G1 X127.496 Y102.666 E.07032
G1 X127.753 Y103.119 E.0188
G1 X127.849 Y103.382 E.01011
G1 X127.849 Y103.443 E.00217
G1 X127.816 Y103.512 E.00276
G1 X127.611 Y103.735 E.01094
G1 X126.047 Y105.103 E.0749
G1 X124.939 Y106.171 E.05552
G1 X123.316 Y107.876 E.08488
G1 X120.17 Y111.379 E.16974
G1 X118.843 Y112.795 E.07001
G1 X117.681 Y113.958 E.05927
G1 X114.525 Y116.991 E.15783
G1 X113.769 Y117.652 E.03619
G1 X113.308 Y117.987 E.02054
G1 X113.105 Y118.106 E.00851
G1 X112.922 Y118.192 E.00731
G1 X112.645 Y118.261 E.01027
G1 X112.555 Y118.255 E.00325
G1 X112.415 Y118.187 E.00562
G1 X112.253 Y117.981 E.00944
G1 X112.17 Y117.807 E.00695
G1 X112.095 Y117.591 E.00825
G1 X111.972 Y117.029 E.02075
G1 X111.93 Y116.709 E.01164
G1 X111.884 Y115.985 E.02617
G1 X111.889 Y115.196 E.02842
G1 X111.948 Y114.369 E.02991
G1 X112.063 Y113.521 E.03084
G1 X112.241 Y112.666 E.03148
G1 X112.486 Y111.811 E.03209
G1 X112.806 Y110.957 E.03288
G1 X113.209 Y110.102 E.03407
G1 X113.696 Y109.252 E.03535
G1 X114.277 Y108.39 E.03748
G1 X114.599 Y107.961 E.01933
G1 X115.312 Y107.091 E.04058
G1 X116.106 Y106.215 E.04259
G1 X116.965 Y105.336 E.04432
G1 X117.874 Y104.458 E.04558
G1 X118.81 Y103.59 E.04602
G1 X120.675 Y101.922 E.09023
G1 X122.782 Y100.103 E.10037
G1 X123.842 Y99.257 E.04892
M73 Q1 S26
G1 X124.452 Y98.836 E.02671
G1 X124.724 Y98.682 E.01127
G1 X124.981 Y98.563 E.01021
G1 X125.225 Y98.477 E.00931
G1 X125.826 Y98.354 E.02215
G1 X126.186 Y98.301 E.01312
G1 X126.584 Y98.269 E.01437
G1 X126.913 Y98.19 E.0122
G1 X127.228 Y98.07 E.01218
G1 X127.525 Y97.916 E.01206
M73 P1 R26
G1 X128.057 Y97.579 E.0227
G1 X128.256 Y98.009 E.01711
G1 X128.356 Y98.161 E.00654
G1 X128.561 Y98.344 E.00991
G1 X128.773 Y98.423 E.00818
G1 X128.999 Y98.423 E.00813
G1 X129.261 Y98.326 E.01006
G1 X129.42 Y98.219 E.00694
G1 X129.795 Y97.852 E.01892
G1 X130.264 Y97.274 E.02682
G1 X130.698 Y96.689 E.02627
G1 X131.256 Y95.871 E.0357
G1 X131.693 Y95.129 E.03108
G1 X131.934 Y94.633 E.01986
G1 X132.378 Y93.621 E.03985
G1 X132.634 Y93.124 E.02015
G1 X132.938 Y92.667 E.01981
G1 X133.11 Y92.466 E.00953
G1 X133.299 Y92.282 E.00954
G1 X133.506 Y92.12 E.00945
G1 X133.73 Y91.984 E.00945
G1 X133.971 Y91.876 E.00954
G1 X134.23 Y91.797 E.00973
G1 X134.504 Y91.75 E.01002
G1 X134.792 Y91.738 E.01039
G1 X135.091 Y91.763 E.01082
G1 X135.397 Y91.826 E.01128
G1 X135.707 Y91.928 E.01177
G1 X136.015 Y92.072 E.01227
G1 X136.318 Y92.256 E.01276
G1 X136.61 Y92.479 E.01325
G1 X136.886 Y92.741 E.01372
G1 X137.142 Y93.038 E.01416
G1 X137.374 Y93.368 E.01456
G1 X137.579 Y93.727 E.0149
G1 X137.754 Y94.11 E.01517
G1 X137.895 Y94.511 E.01533
G1 X138.003 Y94.923 E.01535
G1 X138.076 Y95.338 E.01519
G1 X138.115 Y95.748 E.01484
G1 X138.12 Y96.143 E.01427
G1 X138.094 Y96.516 E.01346
G1 X138.039 Y96.856 E.01243
G1 X137.959 Y97.155 E.01116
G1 X137.86 Y97.405 E.00969
G1 X137.688 Y97.679 E.01167
G1 X137.585 Y97.78 E.00519
G1 X137.42 Y97.864 E.00667
G1 X137.326 Y97.877 E.00345
G1 X137.186 Y97.861 E.00506
G1 X137.021 Y97.809 E.00624
G1 X136.617 Y97.584 E.01669
G1 X135.377 Y96.651 E.05593
G1 X135.099 Y96.48 E.01176
G1 X134.81 Y96.341 E.01157
G1 X134.505 Y96.244 E.01154
G1 X134.186 Y96.203 E.01162
G1 X133.861 Y96.231 E.01175
G1 X133.545 Y96.33 E.01193
G1 X133.249 Y96.493 E.01221
G1 X132.973 Y96.711 E.01266
G1 X132.714 Y96.975 E.01333
G1 X132.466 Y97.283 E.01426
G1 X132.001 Y97.998 E.03077
G1 X131.553 Y98.826 E.03393
G1 X130.475 Y100.989 E.08714
G1 X130.057 Y101.713 E.03014
G1 X129.859 Y102.002 E.01264
G1 X129.575 Y102.333 E.01573
G1 X129.338 Y102.514 E.01075
G1 X129.171 Y102.567 E.00632
G1 X129.017 Y102.543 E.00564
G1 X128.891 Y102.475 E.00516
G1 X128.73 Y102.34 E.00757
G1 X128.547 Y102.136 E.00988
G1 X128.153 Y101.56 E.02518
G1 X127.185 Y99.776 E.07317
G1 X126.85 Y99.208 E.02379
G1 X126.692 Y98.987 E.00979
G1 X126.517 Y98.798 E.00929
G1 X126.335 Y98.716 E.00718
G1 X125.998 Y98.625 E.01259
M204 S1000
G1 X125.576 Y98.444 F10800
G1 X126.336 Y98.499
M204 S800
;TYPE:Gap fill
;WIDTH:0.109405
G1 F1200
G1 X126.408 Y98.506 E.00046
M204 S1000
M204 S800
;WIDTH:0.11175
G1 X126.413 Y98.506 E.00004
M204 S1000
M204 S800
;WIDTH:0.130474
G1 X126.522 Y98.525 E.00092
M204 S1000
G1 X125.387 Y99.913 F10800
M204 S800
;TYPE:Solid infill
;WIDTH:0.425396
G1 F941.236
G1 X124.848 Y99.374 E.02791
G1 X124.523 Y99.589 E.01427
G1 X125.48 Y100.547 E.04951
G1 X125.902 Y101.335 E.03272
G1 X126.182 Y101.79 E.01954
G1 X124.204 Y99.812 E.10231
G1 X123.903 Y100.052 E.01408
G1 X127.025 Y103.174 E.16148
G1 X127.1 Y103.305 E.00551
G1 X126.842 Y103.531 E.01255
G1 X123.603 Y100.292 E.16753
G1 X123.302 Y100.532 E.01408
G1 X126.553 Y103.783 E.16817
G1 X126.265 Y104.036 E.01402
G1 X123.008 Y100.779 E.16844
G1 X122.718 Y101.03 E.01403
G1 X125.976 Y104.288 E.16854
G1 X125.688 Y104.541 E.01402
G1 X122.427 Y101.28 E.16863
G1 X122.137 Y101.531 E.01403
G1 X125.408 Y104.802 E.16919
G1 X125.133 Y105.068 E.01399
G1 X121.847 Y101.782 E.16996
G1 X121.556 Y102.032 E.01403
G1 X124.857 Y105.333 E.17073
G1 X124.582 Y105.599 E.01399
G1 X121.266 Y102.283 E.17149
G1 X120.978 Y102.536 E.01402
G1 X124.313 Y105.871 E.17251
G1 X124.05 Y106.148 E.01399
G1 X120.693 Y102.791 E.17363
G1 X120.407 Y103.047 E.01401
G1 X123.786 Y106.425 E.17475
G1 X123.522 Y106.702 E.01399
G1 X120.122 Y103.302 E.17588
G1 X119.836 Y103.558 E.01401
G1 X123.258 Y106.98 E.177
G1 X122.995 Y107.257 E.01399
G1 X119.551 Y103.813 E.17812
G1 X119.265 Y104.068 E.01401
G1 X122.734 Y107.537 E.1794
G1 X122.478 Y107.822 E.01401
G1 X118.985 Y104.329 E.18068
G1 X118.704 Y104.589 E.014
G1 X122.222 Y108.107 E.18196
G1 X121.966 Y108.392 E.01401
G1 X118.423 Y104.849 E.18323
G1 X118.146 Y105.113 E.01399
G1 X121.71 Y108.677 E.18432
G1 X121.454 Y108.962 E.01401
G1 X117.871 Y105.379 E.18532
G1 X117.596 Y105.644 E.01399
M73 P1 R25
M73 Q1 S25
G1 X121.198 Y109.247 E.18631
G1 X120.942 Y109.532 E.01401
G1 X117.324 Y105.913 E.18714
G1 X117.056 Y106.187 E.01399
G1 X120.686 Y109.816 E.18774
G1 X120.43 Y110.101 E.01401
G1 X116.789 Y106.46 E.18834
G1 X116.524 Y106.736 E.01399
G1 X120.174 Y110.386 E.1888
G1 X119.918 Y110.671 E.01401
G1 X116.267 Y107.02 E.18886
G1 X116.01 Y107.304 E.01401
G1 X119.662 Y110.956 E.1889
G1 X119.4 Y111.235 E.014
G1 X115.756 Y107.591 E.1885
G1 X115.512 Y107.888 E.01406
G1 X119.139 Y111.514 E.18758
G1 X118.877 Y111.794 E.014
G1 X115.268 Y108.185 E.18665
G1 X115.029 Y108.487 E.01408
G1 X118.615 Y112.073 E.18549
G1 X118.353 Y112.352 E.014
G1 X114.799 Y108.797 E.18386
G1 X114.581 Y109.12 E.01425
G1 X118.083 Y112.622 E.18115
G1 X117.813 Y112.893 E.01399
G1 X114.363 Y109.443 E.17844
G1 X114.155 Y109.777 E.01436
G1 X117.542 Y113.163 E.17518
G1 X117.272 Y113.434 E.01399
M73 Q2 S25
G1 X113.959 Y110.121 E.17138
G1 X113.766 Y110.469 E.01455
G1 X116.997 Y113.7 E.16714
M73 P2 R25
G1 X116.721 Y113.965 E.01399
G1 X113.593 Y110.836 E.16183
G1 X113.419 Y111.204 E.01486
G1 X116.446 Y114.23 E.15653
G1 X116.17 Y114.495 E.01399
G1 X113.271 Y111.597 E.14993
G1 X113.124 Y111.99 E.01537
G1 X115.894 Y114.76 E.14329
G1 X115.618 Y115.026 E.01399
G1 X113.001 Y112.408 E.13536
G1 X112.881 Y112.829 E.016
G1 X115.342 Y115.291 E.12732
G1 X115.067 Y115.556 E.01399
G1 X112.788 Y113.277 E.11785
G1 X112.701 Y113.731 E.0169
G1 X114.791 Y115.821 E.10809
G1 X114.515 Y116.086 E.01399
G1 X112.636 Y114.207 E.09718
G1 X112.586 Y114.698 E.01805
G1 X114.239 Y116.351 E.08549
G1 X113.958 Y116.611 E.014
G1 X112.55 Y115.203 E.0728
G1 X112.545 Y115.739 E.0196
G1 X113.669 Y116.863 E.05813
G1 X113.38 Y117.115 E.01402
G1 X112.565 Y116.3 E.04218
G1 X112.62 Y116.895 E.02187
G1 X113.191 Y117.466 E.02953
M204 S1000
G1 X137.125 Y93.921 F10800
M204 S800
;WIDTH:0.429534
G1 F931.161
G1 X136.284 Y93.08 E.04396
G1 X135.945 Y92.801 E.01624
G1 X135.704 Y92.655 E.01041
G1 X135.463 Y92.543 E.00982
G1 X135.095 Y92.437 E.01415
G1 X137.21 Y94.552 E.11057
G1 X137.358 Y95.064 E.01969
G1 X137.397 Y95.286 E.00833
G1 X134.527 Y92.416 E.15006
G1 X134.382 Y92.44 E.00544
G1 X134.104 Y92.54 E.01091
G1 X137.457 Y95.892 E.17529
G1 X137.439 Y96.421 E.01956
G1 X133.769 Y92.752 E.19185
G1 X133.738 Y92.776 E.00145
G1 X133.5 Y93.03 E.01286
G1 X137.35 Y96.879 E.20125
G1 X137.27 Y97.101 E.00872
G1 X137.225 Y97.169 E.00302
G1 X136.879 Y96.955 E.01501
G1 X133.275 Y93.351 E.18843
G1 X133.079 Y93.702 E.01485
G1 X135.149 Y95.771 E.10821
G1 X134.648 Y95.597 E.0196
G1 X134.395 Y95.565 E.00942
G1 X132.901 Y94.071 E.07809
G1 X132.735 Y94.451 E.01534
G1 X133.853 Y95.57 E.05849
G1 X133.732 Y95.58 E.0045
G1 X133.416 Y95.679 E.01224
G1 X132.568 Y94.831 E.04436
G1 X132.391 Y95.201 E.01517
G1 X133.043 Y95.853 E.03409
G1 X132.883 Y95.941 E.00677
G1 X132.716 Y96.073 E.00785
G1 X132.204 Y95.561 E.02677
G1 X132.002 Y95.905 E.01476
G1 X132.424 Y96.327 E.0221
G1 X132.16 Y96.61 E.0143
G1 X131.798 Y96.248 E.01895
G1 X131.576 Y96.573 E.01454
G1 X131.918 Y96.915 E.01789
G1 X131.703 Y97.246 E.01461
G1 X131.354 Y96.898 E.01823
G1 X131.127 Y97.218 E.0145
G1 X131.487 Y97.578 E.01883
G1 X131.29 Y97.927 E.01483
G1 X130.895 Y97.532 E.02065
G1 X130.655 Y97.839 E.0144
G1 X131.097 Y98.281 E.02311
G1 X130.909 Y98.639 E.01496
G1 X130.41 Y98.141 E.02605
G1 X130.15 Y98.428 E.01431
G1 X130.727 Y99.004 E.03014
G1 X130.545 Y99.369 E.01507
G1 X129.874 Y98.698 E.03509
G1 X129.552 Y98.922 E.01452
G1 X130.363 Y99.734 E.04243
G1 X130.181 Y100.099 E.01507
G1 X129.152 Y99.07 E.05378
G1 X128.654 Y99.082 E.01844
G1 X128.597 Y99.061 E.00224
G1 X129.999 Y100.464 E.07332
G1 X129.81 Y100.821 E.01495
G1 X127.604 Y98.615 E.11533
G1 X127.326 Y98.739 E.01126
G1 X127.567 Y99.125 E.01683
G1 X129.61 Y101.168 E.1068
G1 X129.4 Y101.505 E.01467
G1 X128.25 Y100.354 E.06015
G1 X128.717 Y101.215 E.03621
G1 X129.048 Y101.7 E.02172
G1 X129.277 Y101.928 E.01193
M204 S1000
; stop printing object StrubeLåg_7Marts.stl id:0 copy 0
;LAYER_CHANGE
;Z:0.4
;HEIGHT:0.2
;BEFORE_LAYER_CHANGE
G92 E0.0
;0.4


G1 Z.4 F720
;AFTER_LAYER_CHANGE
;0.4
; printing object StrubeLåg_7Marts.stl id:0 copy 0
G1 X125.465 Y99.184 F10800
M204 S800
;TYPE:Perimeter
;WIDTH:0.45
G1 F884.348
G1 X125.562 Y99.62 E.01736
G1 X125.674 Y99.923 E.0126
G1 X125.897 Y100.407 E.02073
G1 X126.494 Y101.476 E.04765
G1 X127.448 Y103.021 E.07069
G1 X127.624 Y103.391 E.01594
G1 X127.452 Y103.579 E.00992
G1 X125.897 Y104.939 E.0804
G1 X124.781 Y106.015 E.06035
G1 X123.153 Y107.725 E.09192
G1 X120.007 Y111.228 E.18327
G1 X118.683 Y112.641 E.07538
G1 X117.525 Y113.8 E.06378
G1 X114.373 Y116.829 E.17017
G1 X113.873 Y117.278 E.02615
G1 X113.406 Y117.649 E.02321
G1 X112.991 Y117.915 E.01918
G1 X112.716 Y118.026 E.01155
G1 X112.598 Y118.035 E.00462
G1 X112.556 Y118.014 E.00182
G1 X112.447 Y117.871 E.00699
G1 X112.31 Y117.534 E.01417
G1 X112.192 Y116.995 E.02148
G1 X112.122 Y116.335 E.02583
G1 X112.106 Y115.984 E.01367
