; generated by PrusaSlicer 2.3.3+win64 on 2021-12-20 at 10:25:21 UTC

; 

; external perimeters extrusion width = 0.45mm
; perimeters extrusion width = 0.45mm
; infill extrusion width = 0.45mm
; solid infill extrusion width = 0.45mm
; top infill extrusion width = 0.40mm
; support material extrusion width = 0.35mm
; first layer extrusion width = 0.42mm

M73 P0 R29
M73 Q0 S29
M201 X1000 Y1000 Z200 E5000 ; sets maximum accelerations, mm/sec^2
M203 X200 Y200 Z12 E120 ; sets maximum feedrates, mm/sec
M204 P1250 R1250 T1250 ; sets acceleration (P, T) and retract acceleration (R), mm/sec^2
M205 X8.00 Y8.00 Z0.40 E4.50 ; sets the jerk limits, mm/sec
M205 S0 T0 ; sets the minimum extruding and travel feed rate, mm/sec
M107
;TYPE:Custom
M862.3 P "MK3S" ; printer model check
M862.1 P0.4 ; nozzle diameter check
M115 U3.10.0 ; tell printer latest fw version
G90 ; use absolute coordinates
M83 ; extruder relative mode
M104 S240 ; set extruder temp
M140 S50 ; set bed temp
M190 S50 ; wait for bed temp
M109 S240 ; wait for extruder temp
G28 W ; home all without mesh bed level
G80 ; mesh bed leveling
G1 Y-3.0 F1000.0 ; go outside print area
G92 E0.0
G1 X60.0 E9.0 F1000.0 ; intro line
M73 P0 R28
M73 Q0 S28
G1 X100.0 E12.5 F1000.0 ; intro line
G92 E0.0
M221 S95

; Don't change E values below. Excessive value can damage the printer.

M907 E538 ; set extruder motor current
G21 ; set units to millimeters
G90 ; use absolute coordinates
M83 ; use relative distances for extrusion
M900 K0
;LAYER_CHANGE
;Z:0.2
;HEIGHT:0.2
;BEFORE_LAYER_CHANGE
G92 E0.0
;0.2


G1 Z0.200 F10800.000
;AFTER_LAYER_CHANGE
;0.2
; printing object StrubeLåg.stl id:0 copy 0
G1 X127.557 Y102.101
M204 S1000
;TYPE:Perimeter
;WIDTH:0.42
G1 F954.706
G1 X126.387 Y102.905 E0.05119
G1 X125.664 Y103.433 E0.03229
G1 X125.064 Y103.912 E0.02766
G1 X124.433 Y104.459 E0.03012
G1 X123.570 Y105.285 E0.04309
G1 X122.913 Y105.977 E0.03439
G1 X122.265 Y106.718 E0.03551
G1 X121.631 Y107.503 E0.03639
G1 X120.829 Y108.592 E0.04875
G1 X120.442 Y109.158 E0.02473
G1 X119.723 Y110.292 E0.04841
G1 X118.761 Y111.979 E0.07003
G1 X117.149 Y115.066 E0.12558
G1 X116.657 Y115.943 E0.03626
G1 X116.032 Y116.914 E0.04163
G1 X115.652 Y117.413 E0.02262
G1 X115.398 Y117.706 E0.01399
G1 X114.998 Y118.106 E0.02038
G1 X114.593 Y118.440 E0.01894
G1 X114.178 Y118.715 E0.01793
G1 X113.911 Y118.858 E0.01093
G1 X113.649 Y118.972 E0.01029
G1 X113.254 Y119.095 E0.01493
G1 X113.027 Y119.138 E0.00834
G1 X112.640 Y119.147 E0.01394
G1 X112.500 Y119.121 E0.00515
G1 X112.329 Y119.043 E0.00677
G1 X112.238 Y118.939 E0.00500
G1 X112.197 Y118.847 E0.00362
G1 X112.164 Y118.718 E0.00480
G1 X112.140 Y118.411 E0.01112
G1 X112.190 Y117.837 E0.02075
G1 X112.290 Y117.325 E0.01881
G1 X112.436 Y116.748 E0.02147
G1 X113.152 Y114.311 E0.09159
G1 X113.512 Y112.921 E0.05176
G1 X113.711 Y112.008 E0.03373
G1 X114.127 Y109.866 E0.07864
G1 X114.315 Y109.069 E0.02955
G1 X114.488 Y108.487 E0.02188
G1 X114.619 Y108.114 E0.01425
G1 X114.957 Y107.341 E0.03043
G1 X115.274 Y106.761 E0.02383
G1 X115.516 Y106.376 E0.01639
G1 X116.109 Y105.561 E0.03636
G1 X116.628 Y104.941 E0.02916
G1 X117.426 Y104.087 E0.04212
G1 X118.552 Y103.000 E0.05646
G1 X119.516 Y102.132 E0.04675
G1 X120.992 Y100.864 E0.07018
G1 X123.045 Y99.167 E0.09605
G1 X124.002 Y98.420 E0.04376
G1 X124.793 Y97.873 E0.03465
G1 X125.159 Y97.678 E0.01496
G1 X125.486 Y97.564 E0.01249
G1 X125.528 Y97.555 E0.00156
G1 X125.455 Y97.703 E0.00594
G1 X125.443 Y97.991 E0.01041
G1 X125.493 Y98.248 E0.00944
G1 X125.669 Y98.753 E0.01927
G1 X125.912 Y99.264 E0.02042
G1 X126.213 Y99.818 E0.02272
G1 X127.264 Y101.542 E0.07279
G1 X127.536 Y102.044 E0.02061
G1 X129.243 Y100.905 F10800.000
G1 F954.706
G1 X129.139 Y100.825 E0.00474
G1 X128.989 Y100.666 E0.00788
G1 X128.815 Y100.437 E0.01039
G1 X128.525 Y99.979 E0.01953
G1 X127.636 Y98.329 E0.06759
G1 X127.273 Y97.718 E0.02563
G1 X126.976 Y97.335 E0.01746
G1 X127.246 Y97.273 E0.01001
G1 X127.786 Y97.019 E0.02149
G1 X128.023 Y96.862 E0.01024
G1 X128.098 Y97.019 E0.00629
G1 X128.277 Y97.242 E0.01031
G1 X128.536 Y97.434 E0.01163
G1 X128.890 Y97.540 E0.01330
G1 X129.232 Y97.518 E0.01238
G1 X129.512 Y97.414 E0.01076
G1 X129.804 Y97.222 E0.01260
G1 X130.227 Y96.802 E0.02151
G1 X130.726 Y96.179 E0.02879
G1 X131.375 Y95.278 E0.04002
G1 X131.746 Y94.718 E0.02424
G1 X132.197 Y93.931 E0.03271
G1 X132.781 Y92.633 E0.05130
G1 X133.024 Y92.139 E0.01988
G1 X133.222 Y91.810 E0.01384
G1 X133.450 Y91.511 E0.01353
G1 X133.608 Y91.347 E0.00822
G1 X133.781 Y91.201 E0.00817
G1 X133.967 Y91.079 E0.00801
G1 X134.166 Y90.981 E0.00799
G1 X134.379 Y90.908 E0.00813
G1 X134.598 Y90.864 E0.00806
G1 X134.978 Y90.850 E0.01370
G1 X135.383 Y90.913 E0.01480
G1 X135.641 Y90.993 E0.00972
G1 X136.070 Y91.201 E0.01719
G1 X136.327 Y91.374 E0.01118
G1 X136.726 Y91.728 E0.01922
G1 X136.954 Y91.991 E0.01255
G1 X137.277 Y92.475 E0.02100
G1 X137.452 Y92.818 E0.01389
G1 X137.597 Y93.184 E0.01419
G1 X137.761 Y93.779 E0.02226
G1 X137.825 Y94.161 E0.01395
G1 X137.862 Y94.748 E0.02119
G1 X137.847 Y95.092 E0.01242
G1 X137.772 Y95.567 E0.01735
G1 X137.656 Y95.924 E0.01355
G1 X137.525 Y96.153 E0.00950
G1 X137.442 Y96.218 E0.00381
G1 X137.400 Y96.223 E0.00150
G1 X137.226 Y96.164 E0.00662
G1 X136.949 Y96.003 E0.01154
G1 X135.821 Y95.148 E0.05104
G1 X135.369 Y94.863 E0.01930
G1 X135.021 Y94.702 E0.01380
G1 X134.659 Y94.596 E0.01360
G1 X134.430 Y94.562 E0.00837
G1 X134.029 Y94.569 E0.01443
G1 X133.622 Y94.668 E0.01513
G1 X133.246 Y94.850 E0.01506
G1 X132.910 Y95.095 E0.01499
G1 X132.608 Y95.387 E0.01515
G1 X132.328 Y95.722 E0.01574
G1 X131.945 Y96.281 E0.02444
G1 X131.357 Y97.337 E0.04357
G1 X130.253 Y99.553 E0.08927
G1 X129.943 Y100.103 E0.02278
G1 X129.752 Y100.399 E0.01268
G1 X129.481 Y100.742 E0.01578
G1 X129.296 Y100.900 E0.00877
G1 X126.036 Y97.380 F10800.000
;TYPE:External perimeter
G1 F954.706
G1 X125.828 Y97.799 E0.01687
G1 X125.821 Y97.963 E0.00592
G1 X125.858 Y98.150 E0.00686
G1 X126.019 Y98.609 E0.01757
G1 X126.248 Y99.093 E0.01931
G1 X126.540 Y99.629 E0.02200
G1 X127.589 Y101.351 E0.07272
G1 X127.863 Y101.841 E0.02022
G1 X127.973 Y102.142 E0.01155
G1 X127.959 Y102.230 E0.00320
G1 X127.873 Y102.331 E0.00481
G1 X127.660 Y102.500 E0.00978
G1 X126.604 Y103.214 E0.04598
G1 X125.893 Y103.733 E0.03175
G1 X125.306 Y104.202 E0.02709
G1 X124.687 Y104.738 E0.02951
G1 X123.837 Y105.552 E0.04243
G1 X123.192 Y106.231 E0.03379
G1 X122.554 Y106.961 E0.03496
G1 X121.929 Y107.734 E0.03582
G1 X121.136 Y108.810 E0.04820
G1 X120.757 Y109.365 E0.02425
G1 X120.046 Y110.486 E0.04786
G1 X119.092 Y112.159 E0.06945
G1 X117.481 Y115.246 E0.12554
G1 X116.980 Y116.138 E0.03688
G1 X116.341 Y117.131 E0.04258
G1 X115.944 Y117.651 E0.02359
G1 X115.674 Y117.963 E0.01490
G1 X115.252 Y118.385 E0.02151
G1 X114.818 Y118.744 E0.02031
G1 X114.372 Y119.039 E0.01928
G1 X114.075 Y119.197 E0.01212
G1 X113.781 Y119.325 E0.01156
G1 X113.346 Y119.462 E0.01646
G1 X113.077 Y119.512 E0.00987
G1 X112.825 Y119.532 E0.00911
G1 X112.598 Y119.523 E0.00819
G1 X112.401 Y119.486 E0.00722
G1 X112.236 Y119.427 E0.00630
G1 X112.103 Y119.348 E0.00558
G1 X111.996 Y119.250 E0.00523
G1 X111.909 Y119.127 E0.00542
G1 X111.839 Y118.972 E0.00614
G1 X111.790 Y118.780 E0.00714
G1 X111.761 Y118.409 E0.01342
G1 X111.816 Y117.785 E0.02260
G1 X111.922 Y117.243 E0.01990
G1 X112.072 Y116.649 E0.02211
G1 X112.789 Y114.210 E0.09164
G1 X113.146 Y112.834 E0.05127
G1 X113.342 Y111.932 E0.03330
G1 X113.758 Y109.787 E0.07876
G1 X113.951 Y108.972 E0.03021
G1 X114.129 Y108.370 E0.02261
G1 X114.269 Y107.976 E0.01509
G1 X114.618 Y107.175 E0.03151
G1 X114.948 Y106.570 E0.02485
G1 X115.203 Y106.164 E0.01727
G1 X115.811 Y105.328 E0.03728
G1 X116.345 Y104.691 E0.02999
G1 X117.157 Y103.823 E0.04284
G1 X118.295 Y102.724 E0.05705
G1 X119.267 Y101.849 E0.04714
G1 X120.749 Y100.575 E0.07047
G1 X122.809 Y98.873 E0.09637
G1 X123.778 Y98.116 E0.04435
G1 X124.596 Y97.551 E0.03584
G1 X125.007 Y97.332 E0.01678
G1 X125.386 Y97.199 E0.01450
G1 X126.035 Y97.072 E0.02383
G1 X126.626 Y97.029 E0.02136
G1 X127.122 Y96.914 E0.01837
G1 X127.600 Y96.689 E0.01905
G1 X128.176 Y96.308 E0.02489
G1 X128.419 Y96.817 E0.02034
G1 X128.541 Y96.968 E0.00699
G1 X128.708 Y97.092 E0.00752
G1 X128.933 Y97.160 E0.00846
G1 X129.152 Y97.145 E0.00794
M73 Q1 S28
G1 X129.341 Y97.075 E0.00725
G1 X129.565 Y96.928 E0.00969
G1 X129.947 Y96.550 E0.01936
G1 X130.426 Y95.950 E0.02767
G1 X131.065 Y95.064 E0.03941
G1 X131.425 Y94.520 E0.02353
G1 X131.861 Y93.759 E0.03160
G1 X132.440 Y92.473 E0.05086
M73 P1 R28
G1 X132.693 Y91.958 E0.02069
G1 X132.910 Y91.598 E0.01517
G1 X133.163 Y91.266 E0.01505
G1 X133.350 Y91.071 E0.00971
G1 X133.555 Y90.899 E0.00969
G1 X133.779 Y90.751 E0.00965
G1 X134.021 Y90.632 E0.00972
G1 X134.280 Y90.544 E0.00989
G1 X134.554 Y90.489 E0.01005
G1 X135.000 Y90.472 E0.01609
G1 X135.469 Y90.544 E0.01712
G1 X135.780 Y90.642 E0.01175
G1 X136.258 Y90.873 E0.01914
G1 X136.559 Y91.075 E0.01306
G1 X136.995 Y91.462 E0.02103
G1 X137.254 Y91.762 E0.01429
G1 X137.603 Y92.284 E0.02266
G1 X137.796 Y92.663 E0.01532
G1 X137.955 Y93.064 E0.01555
G1 X138.130 Y93.698 E0.02371
G1 X138.200 Y94.118 E0.01536
G1 X138.239 Y94.744 E0.02261
G1 X138.223 Y95.129 E0.01391
G1 X138.140 Y95.655 E0.01921
G1 X138.002 Y96.079 E0.01605
G1 X137.829 Y96.379 E0.01251
G1 X137.722 Y96.493 E0.00564
G1 X137.559 Y96.585 E0.00676
G1 X137.383 Y96.604 E0.00639
G1 X137.240 Y96.575 E0.00523
G1 X137.061 Y96.505 E0.00695
G1 X136.740 Y96.317 E0.01340
G1 X135.607 Y95.458 E0.05127
G1 X135.188 Y95.195 E0.01784
G1 X134.888 Y95.055 E0.01191
G1 X134.579 Y94.965 E0.01162
G1 X134.405 Y94.940 E0.00633
G1 X134.078 Y94.945 E0.01181
G1 X133.750 Y95.025 E0.01216
G1 X133.441 Y95.175 E0.01240
G1 X133.153 Y95.384 E0.01282
G1 X132.884 Y95.644 E0.01347
G1 X132.629 Y95.950 E0.01437
G1 X132.266 Y96.480 E0.02316
G1 X131.691 Y97.513 E0.04264
G1 X130.586 Y99.730 E0.08931
G1 X130.266 Y100.298 E0.02354
G1 X130.059 Y100.618 E0.01373
G1 X129.759 Y100.998 E0.01745
G1 X129.583 Y101.163 E0.00869
G1 X129.379 Y101.284 E0.00856
G1 X129.271 Y101.303 E0.00395
G1 X129.173 Y101.289 E0.00358
G1 X129.046 Y101.230 E0.00505
G1 X128.885 Y101.105 E0.00732
G1 X128.701 Y100.910 E0.00967
G1 X128.505 Y100.652 E0.01169
G1 X128.200 Y100.170 E0.02059
G1 X127.308 Y98.515 E0.06777
G1 X126.960 Y97.931 E0.02450
G1 X126.670 Y97.557 E0.01707
G1 X126.429 Y97.448 E0.00955
G1 X126.095 Y97.390 E0.01221
G1 X125.668 Y97.225 F10800.000
G1 X125.504 Y98.623
;TYPE:Solid infill
;WIDTH:0.421479
G1 F950.975
G1 X124.977 Y98.096 E0.02699
G1 X124.657 Y98.311 E0.01396
G1 X125.588 Y99.243 E0.04770
G1 X125.968 Y99.959 E0.02935
G1 X126.278 Y100.467 E0.02154
G1 X124.340 Y98.530 E0.09919
G1 X124.031 Y98.756 E0.01387
G1 X127.096 Y101.821 E0.15690
G1 X127.198 Y102.004 E0.00760
G1 X126.929 Y102.189 E0.01183
G1 X123.730 Y98.991 E0.16374
G1 X123.430 Y99.225 E0.01381
G1 X126.612 Y102.407 E0.16290
G1 X126.294 Y102.625 E0.01394
G1 X123.131 Y99.462 E0.16193
G1 X122.838 Y99.705 E0.01377
G1 X125.983 Y102.850 E0.16100
G1 X125.674 Y103.076 E0.01387
G1 X122.545 Y99.947 E0.16017
G1 X122.252 Y100.189 E0.01377
G1 X125.369 Y103.306 E0.15958
G1 X125.072 Y103.544 E0.01379
G1 X121.959 Y100.431 E0.15935
G1 X121.666 Y100.674 E0.01377
G1 X124.778 Y103.786 E0.15933
G1 X124.491 Y104.035 E0.01374
G1 X121.373 Y100.916 E0.15966
G1 X121.081 Y101.160 E0.01376
G1 X124.206 Y104.285 E0.15999
G1 X123.933 Y104.547 E0.01371
G1 X120.793 Y101.407 E0.16073
G1 X120.505 Y101.655 E0.01374
G1 X123.659 Y104.809 E0.16146
G1 X123.386 Y105.070 E0.01371
G1 X120.217 Y101.902 E0.16219
G1 X119.930 Y102.150 E0.01374
G1 X123.124 Y105.344 E0.16354
G1 X122.863 Y105.619 E0.01371
G1 X119.643 Y102.398 E0.16487
G1 X119.361 Y102.652 E0.01372
G1 X122.607 Y105.898 E0.16616
G1 X122.357 Y106.183 E0.01373
G1 X119.079 Y102.906 E0.16779
G1 X118.798 Y103.159 E0.01372
G1 X122.107 Y106.469 E0.16943
G1 X121.866 Y106.762 E0.01377
G1 X118.524 Y103.420 E0.17109
G1 X118.251 Y103.683 E0.01371
G1 X121.626 Y107.059 E0.17279
G1 X121.388 Y107.356 E0.01379
G1 X117.979 Y103.946 E0.17454
G1 X117.706 Y104.209 E0.01371
G1 X121.161 Y107.664 E0.17686
G1 X120.934 Y107.972 E0.01386
G1 X117.444 Y104.482 E0.17867
G1 X117.185 Y104.759 E0.01371
G1 X120.707 Y108.280 E0.18028
G1 X120.485 Y108.594 E0.01390
G1 X116.926 Y105.035 E0.18216
G1 X116.677 Y105.322 E0.01374
G1 X120.268 Y108.912 E0.18379
G1 X120.057 Y109.237 E0.01401
G1 X116.433 Y105.613 E0.18550
G1 X116.200 Y105.915 E0.01382
G1 X119.849 Y109.564 E0.18680
G1 X119.641 Y109.892 E0.01404
G1 X115.975 Y106.225 E0.18770
G1 X115.749 Y106.535 E0.01387
G1 X119.437 Y110.222 E0.18876
G1 X119.242 Y110.563 E0.01421
G1 X115.543 Y106.864 E0.18938
G1 X115.518 Y106.904 E0.00170
G1 X115.352 Y107.208 E0.01256
G1 X119.048 Y110.904 E0.18921
G1 X118.853 Y111.245 E0.01421
G1 X115.170 Y107.562 E0.18859
G1 X115.007 Y107.934 E0.01472
G1 X118.659 Y111.586 E0.18697
G1 X118.467 Y111.930 E0.01424
G1 X114.852 Y108.315 E0.18506
G1 X114.723 Y108.721 E0.01542
G1 X118.284 Y112.282 E0.18229
G1 X118.100 Y112.634 E0.01436
G1 X114.593 Y109.127 E0.17951
G1 X114.490 Y109.559 E0.01607
G1 X117.916 Y112.985 E0.17541
G1 X117.733 Y113.337 E0.01436
G1 X114.390 Y109.994 E0.17113
G1 X114.303 Y110.443 E0.01653
G1 X117.549 Y113.689 E0.16619
G1 X117.366 Y114.041 E0.01436
G1 X114.216 Y110.891 E0.16124
G1 X114.129 Y111.339 E0.01653
G1 X117.182 Y114.392 E0.15629
G1 X116.998 Y114.744 E0.01436
G1 X114.042 Y111.788 E0.15134
G1 X113.952 Y112.233 E0.01644
G1 X116.811 Y115.092 E0.14635
M73 Q2 S28
G1 X116.618 Y115.435 E0.01423
G1 X113.856 Y112.672 E0.14140
M73 P2 R28
G1 X113.756 Y113.108 E0.01617
G1 X116.426 Y115.778 E0.13666
G1 X116.217 Y116.104 E0.01403
G1 X113.646 Y113.533 E0.13162
G1 X113.536 Y113.958 E0.01590
G1 X116.007 Y116.430 E0.12653
G1 X115.797 Y116.755 E0.01402
G1 X113.426 Y114.383 E0.12143
G1 X113.304 Y114.797 E0.01561
G1 X115.566 Y117.059 E0.11579
G1 X115.327 Y117.356 E0.01378
G1 X113.182 Y115.211 E0.10980
G1 X113.061 Y115.625 E0.01561
G1 X115.070 Y117.634 E0.10286
G1 X114.802 Y117.901 E0.01370
G1 X112.939 Y116.038 E0.09536
G1 X112.818 Y116.452 E0.01561
G1 X114.509 Y118.143 E0.08657
G1 X114.195 Y118.365 E0.01391
G1 X112.697 Y116.867 E0.07666
G1 X112.589 Y117.295 E0.01596
G1 X113.859 Y118.565 E0.06501
G1 X113.486 Y118.726 E0.01474
G1 X112.498 Y117.738 E0.05059
G1 X112.441 Y118.217 E0.01744
G1 X113.212 Y118.988 E0.03950
G1 X137.238 Y92.647 F10800.000
;WIDTH:0.429952
G1 F930.156
G1 X136.465 Y91.875 E0.04041
G1 X136.154 Y91.598 E0.01542
G1 X135.929 Y91.447 E0.01003
G1 X135.536 Y91.257 E0.01614
G1 X135.217 Y91.173 E0.01222
G1 X137.333 Y93.289 E0.11074
G1 X137.485 Y93.840 E0.02116
G1 X137.515 Y94.018 E0.00668
G1 X134.642 Y91.146 E0.15035
G1 X134.453 Y91.182 E0.00713
G1 X134.219 Y91.270 E0.00925
G1 X137.571 Y94.622 E0.17541
G1 X137.579 Y94.750 E0.00477
G1 X137.552 Y95.150 E0.01483
G1 X133.889 Y91.488 E0.19169
G1 X133.615 Y91.761 E0.01432
G1 X137.462 Y95.608 E0.20133
G1 X137.396 Y95.809 E0.00783
G1 X137.341 Y95.904 E0.00408
G1 X137.107 Y95.767 E0.01005
G1 X136.973 Y95.666 E0.00621
G1 X133.389 Y92.082 E0.18761
G1 X133.194 Y92.434 E0.01491
G1 X135.260 Y94.500 E0.10813
G1 X135.121 Y94.436 E0.00566
G1 X134.720 Y94.319 E0.01548
G1 X134.499 Y94.287 E0.00826
G1 X133.015 Y92.803 E0.07766
G1 X132.845 Y93.180 E0.01532
G1 X133.959 Y94.295 E0.05832
G1 X133.521 Y94.403 E0.01673
G1 X132.675 Y93.558 E0.04424
G1 X132.506 Y93.935 E0.01532
G1 X133.152 Y94.582 E0.03382
G1 X132.828 Y94.805 E0.01457
G1 X132.316 Y94.293 E0.02678
G1 X132.116 Y94.641 E0.01484
G1 X132.537 Y95.062 E0.02202
G1 X132.274 Y95.346 E0.01433
G1 X131.910 Y94.982 E0.01902
G1 X131.692 Y95.312 E0.01462
G1 X132.033 Y95.652 E0.01783
G1 X131.811 Y95.977 E0.01457
G1 X131.467 Y95.634 E0.01797
G1 X131.238 Y95.952 E0.01451
G1 X131.602 Y96.316 E0.01906
G1 X131.406 Y96.668 E0.01489
G1 X131.009 Y96.270 E0.02081
G1 X130.769 Y96.578 E0.01443
G1 X131.211 Y97.019 E0.02311
G1 X131.021 Y97.377 E0.01499
G1 X130.526 Y96.882 E0.02594
G1 X130.262 Y97.166 E0.01433
G1 X130.839 Y97.743 E0.03020
G1 X130.657 Y98.108 E0.01511
G1 X129.988 Y97.438 E0.03505
G1 X129.658 Y97.656 E0.01462
G1 X130.475 Y98.473 E0.04277
G1 X130.293 Y98.839 E0.01511
G1 X129.254 Y97.800 E0.05439
G1 X128.857 Y97.826 E0.01472
