; generated by PrusaSlicer 2.3.3+win64 on 2022-01-11 at 09:13:41 UTC

; 

; external perimeters extrusion width = 0.45mm
; perimeters extrusion width = 0.45mm
; infill extrusion width = 0.45mm
; solid infill extrusion width = 0.45mm
; top infill extrusion width = 0.40mm
; support material extrusion width = 0.35mm
; first layer extrusion width = 0.42mm

M73 P0 R52
M73 Q0 S53
M201 X1000 Y1000 Z200 E8000 ; sets maximum accelerations, mm/sec^2
M203 X200 Y200 Z12 E120 ; sets maximum feedrates, mm/sec
M204 P1250 R1250 T1250 ; sets acceleration (P, T) and retract acceleration (R), mm/sec^2
M205 X8.00 Y8.00 Z0.40 E4.50 ; sets the jerk limits, mm/sec
M205 S0 T0 ; sets the minimum extruding and travel feed rate, mm/sec
M107
;TYPE:Custom
M862.3 P "MK3SMMU2S" ; printer model check
M862.1 P0.4 ; nozzle diameter check
M115 U3.10.0 ; tell printer latest fw version
G90 ; use absolute coordinates
M83 ; extruder relative mode
M104 S215 ; set extruder temp
M140 S60 ; set bed temp
M190 S60 ; wait for bed temp
M109 S215 ; wait for extruder temp
G28 W ; home all without mesh bed level
G80 ; mesh bed leveling

; Send the filament type to the MMU2.0 unit.
; E stands for extruder number, F stands for filament type (0: default; 1:flex; 2: PVA)
M403 E0 F0
M403 E1 F0
M403 E2 F0
M403 E3 F0
M403 E4 F0


;go outside print area
G1 Y-3.0 F1000.0
G1 Z0.4 F1000.0
; select extruder
T0
; initial load
G1 X55.0 E29.0 F1073.0
G1 X5.0 E29.0 F1800.0
G1 X55.0 E8.0 F2000.0
G1 Z0.3 F1000.0
G92 E0.0
G1 X240.0 E25.0 F2200.0
G1 Y-2.0 F1000.0
G1 X55.0 E25 F1400.0
M73 Q0 S52
G1 Z0.20 F1000.0
G1 X5.0 E4.0 F1000.0
G92 E0.0


M221 S95
G92 E0.0

; Don't change E values below. Excessive value can damage the printer.

M907 E538 ; set extruder motor current
G21 ; set units to millimeters
G90 ; use absolute coordinates
M83 ; use relative distances for extrusion
M900 K0.05 ; Filament gcode LA 1.5
M900 K30 ; Filament gcode LA 1.0
;LAYER_CHANGE
;Z:0.2
;HEIGHT:0.2
;BEFORE_LAYER_CHANGE
G92 E0.0
;0.2


G1 E-0.80000 F2100.000
G1 Z0.400 F10800.000
;AFTER_LAYER_CHANGE
;0.2
; printing object StemmeBånd.stl id:2 copy 0
G1 X109.955 Y74.181
G1 Z0.200
G1 E0.80000 F2100.000
M204 S1000
;TYPE:Support material
;WIDTH:0.42
G1 F1200.000
G1 X109.955 Y89.509 E0.48059
G1 X110.710 Y89.509 E0.02365
G1 X110.710 Y74.351 E0.47527
G1 X111.464 Y74.351 E0.02365
G1 X111.464 Y89.678 E0.48059
G1 X112.218 Y83.873 F10800.000
G1 F1200.000
G1 X112.218 Y89.509 E0.17670
G1 X112.972 Y89.509 E0.02365
G1 X112.972 Y85.198 E0.13517
G1 X113.354 Y85.537 E0.01601
G1 X113.726 Y85.800 E0.01429
G1 X113.726 Y89.509 E0.11630
G1 X114.480 Y89.509 E0.02365
G1 X114.480 Y86.157 E0.10508
G1 X114.871 Y86.250 E0.01259
G1 X115.235 Y86.267 E0.01141
G1 X115.235 Y89.509 E0.10164
G1 X115.989 Y89.509 E0.02365
G1 X115.989 Y86.005 E0.10985
G1 X116.393 Y85.711 E0.01567
G1 X116.743 Y85.556 E0.01201
G1 X116.743 Y89.509 E0.12394
G1 X117.497 Y89.509 E0.02365
G1 X117.497 Y85.405 E0.12868
G1 X118.251 Y85.332 E0.02376
G1 X118.251 Y89.509 E0.13097
G1 X119.005 Y89.509 E0.02365
G1 X119.005 Y85.292 E0.13221
G1 X119.760 Y85.276 E0.02365
G1 X119.760 Y89.509 E0.13272
G1 X120.514 Y89.509 E0.02365
G1 X120.514 Y85.278 E0.13264
G1 X121.268 Y85.300 E0.02366
G1 X121.268 Y89.509 E0.13197
G1 X122.022 Y89.509 E0.02365
G1 X122.022 Y85.341 E0.13069
G1 X122.776 Y85.402 E0.02372
G1 X122.776 Y89.509 E0.12876
G1 X123.530 Y89.509 E0.02365
G1 X123.530 Y85.486 E0.12612
G1 X124.284 Y85.597 E0.02390
G1 X124.284 Y91.816 E0.19498
G1 X125.039 Y91.816 E0.02365
G1 X125.039 Y85.739 E0.19052
G1 X125.793 Y85.919 E0.02431
G1 X125.793 Y91.816 E0.18489
M73 P1 R52
M73 Q1 S52
G1 X125.934 Y91.816 E0.00442
G1 X125.934 Y94.123 E0.07234
G1 X126.547 Y94.123 E0.01923
G1 X126.547 Y86.145 E0.25014
G1 X127.301 Y86.434 E0.02533
G1 X127.301 Y94.123 E0.24107
G1 X128.055 Y94.123 E0.02365
G1 X128.055 Y86.804 E0.22949
G1 X128.370 Y86.987 E0.01143
G1 X128.809 Y87.281 E0.01658
G1 X128.809 Y94.123 E0.21451
G1 X129.564 Y94.123 E0.02365
G1 X129.564 Y87.898 E0.19516
G1 X130.318 Y88.639 E0.03315
G1 X130.318 Y94.123 E0.17194
G1 X131.072 Y94.123 E0.02365
G1 X131.072 Y89.358 E0.14939
G1 X131.433 Y89.642 E0.01440
G1 X131.826 Y89.899 E0.01472
G1 X131.826 Y94.123 E0.13245
G1 X132.580 Y94.123 E0.02365
G1 X132.580 Y90.262 E0.12106
G1 X132.976 Y90.397 E0.01310
G1 X133.334 Y90.489 E0.01161
G1 X133.334 Y94.123 E0.11393
G1 X134.089 Y94.123 E0.02365
G1 X134.089 Y90.575 E0.11124
G1 X134.448 Y90.553 E0.01128
G1 X134.843 Y90.467 E0.01268
G1 X134.843 Y94.123 E0.11462
G1 X135.597 Y94.123 E0.02365
G1 X135.597 Y90.057 E0.12748
G1 X135.809 Y89.860 E0.00906
G1 X136.029 Y89.601 E0.01065
G1 X136.351 Y89.084 E0.01911
G1 X136.351 Y94.293 E0.16331
G1 X138.613 Y94.293 F10800.000
G1 F1200.000
G1 X138.613 Y78.965 E0.48059
G1 X137.859 Y78.965 E0.02365
G1 X137.859 Y94.123 E0.47527
G1 X137.105 Y94.123 E0.02365
G1 X137.105 Y78.965 E0.47527
G1 X136.351 Y78.965 E0.02365
G1 X136.351 Y82.546 E0.11228
G1 X136.193 Y82.409 E0.00655
G1 X136.028 Y82.300 E0.00621
G1 X135.851 Y82.214 E0.00616
G1 X135.597 Y82.130 E0.00840
G1 X135.597 Y78.965 E0.09924
G1 X134.843 Y78.965 E0.02365
G1 X134.843 Y82.062 E0.09712
G1 X134.089 Y82.135 E0.02376
G1 X134.089 Y78.965 E0.09941
G1 X133.334 Y78.965 E0.02365
G1 X133.334 Y82.258 E0.10325
G1 X132.580 Y82.390 E0.02401
G1 X132.580 Y78.965 E0.10739
G1 X131.826 Y78.965 E0.02365
G1 X131.826 Y82.512 E0.11123
G1 X131.072 Y82.614 E0.02386
G1 X131.072 Y78.965 E0.11443
G1 X130.318 Y78.965 E0.02365
G1 X130.318 Y82.691 E0.11683
G1 X129.564 Y82.738 E0.02369
G1 X129.564 Y78.965 E0.11832
G1 X128.809 Y78.965 E0.02365
G1 X128.809 Y82.755 E0.11885
G1 X128.679 Y82.756 E0.00410
G1 X128.055 Y82.740 E0.01955
G1 X128.055 Y78.965 E0.11838
G1 X127.301 Y78.965 E0.02365
G1 X127.301 Y82.692 E0.11688
G1 X126.547 Y82.612 E0.02378
G1 X126.547 Y76.658 E0.18669
G1 X125.793 Y76.658 E0.02365
G1 X125.793 Y82.498 E0.18312
G1 X125.570 Y82.459 E0.00710
G1 X125.039 Y82.352 E0.01699
G1 X125.039 Y76.658 E0.17853
G1 X124.284 Y76.658 E0.02365
G1 X124.284 Y82.173 E0.17292
G1 X123.964 Y82.087 E0.01040
G1 X123.530 Y81.962 E0.01415
G1 X123.530 Y76.658 E0.16631
G1 X122.776 Y76.658 E0.02365
G1 X122.776 Y81.720 E0.15873
G1 X122.022 Y81.449 E0.02513
G1 X122.022 Y76.658 E0.15022
G1 X121.268 Y76.658 E0.02365
G1 X121.268 Y81.150 E0.14084
G1 X120.514 Y80.826 E0.02574
G1 X120.514 Y76.658 E0.13068
G1 X120.328 Y76.658 E0.00582
G1 X120.328 Y74.351 E0.07234
G1 X119.760 Y74.351 E0.01783
G1 X119.760 Y80.479 E0.19216
G1 X119.005 Y80.115 E0.02627
G1 X119.005 Y74.351 E0.18073
G1 X118.251 Y74.351 E0.02365
G1 X118.251 Y79.736 E0.16886
G1 X117.497 Y79.351 E0.02655
G1 X117.497 Y74.351 E0.15678
G1 X116.743 Y74.351 E0.02365
G1 X116.743 Y78.968 E0.14477
G1 X115.989 Y78.602 E0.02628
G1 X115.989 Y74.351 E0.13330
M73 P1 R51
G1 X115.235 Y74.351 E0.02365
G1 X115.235 Y78.274 E0.12301
G1 X114.480 Y78.020 E0.02495
G1 X114.480 Y74.351 E0.11506
G1 X113.726 Y74.351 E0.02365
G1 X113.726 Y77.900 E0.11128
G1 X113.342 Y77.919 E0.01205
G1 X112.972 Y78.012 E0.01197
G1 X112.972 Y74.351 E0.11480
G1 X112.218 Y74.351 E0.02365
G1 X112.218 Y78.849 E0.14104
;WIPE_START
G1 F8640.000
G1 X112.218 Y75.557 E-0.76000
;WIPE_END
G1 E-0.04000 F2100.000
G1 Z0.600 F10800.000
G1 X115.130 Y85.067
G1 Z0.200
G1 E0.80000 F2100.000
;TYPE:Perimeter
G1 F1200.000
G1 X114.824 Y85.006 E0.00976
G1 X114.675 Y84.947 E0.00503
G1 X114.366 Y84.782 E0.01100
G1 X113.969 Y84.485 E0.01553
G1 X113.582 Y84.086 E0.01743
G1 X113.359 Y83.785 E0.01173
G1 X113.059 Y83.242 E0.01946
G1 X112.908 Y82.862 E0.01282
G1 X112.791 Y82.459 E0.01318
G1 X112.682 Y81.815 E0.02047
G1 X112.655 Y81.178 E0.01999
G1 X112.703 Y80.575 E0.01895
G1 X112.813 Y80.045 E0.01699
G1 X112.972 Y79.609 E0.01455
G1 X113.052 Y79.461 E0.00528
G1 X113.216 Y79.251 E0.00837
G1 X113.290 Y79.191 E0.00297
G1 X113.447 Y79.122 E0.00539
G1 X113.697 Y79.101 E0.00785
G1 X113.962 Y79.133 E0.00838
G1 X114.291 Y79.214 E0.01061
G1 X114.695 Y79.352 E0.01338
G1 X115.130 Y79.531 E0.01475
G1 X115.912 Y79.896 E0.02705
G1 X119.206 Y81.546 E0.11552
G1 X120.356 Y82.068 E0.03962
G1 X121.544 Y82.552 E0.04020
G1 X122.782 Y82.987 E0.04116
G1 X123.632 Y83.241 E0.02782
G1 X124.486 Y83.459 E0.02763
G1 X125.343 Y83.638 E0.02743
G1 X126.198 Y83.778 E0.02717
G1 X127.448 Y83.909 E0.03940
G1 X128.276 Y83.950 E0.02601
G1 X129.449 Y83.945 E0.03676
G1 X130.217 Y83.904 E0.02413
G1 X131.284 Y83.799 E0.03360
G1 X132.268 Y83.659 E0.03117
G1 X134.152 Y83.339 E0.05993
G1 X134.658 Y83.276 E0.01596
G1 X134.976 Y83.261 E0.00999
G1 X135.293 Y83.293 E0.01001
G1 X135.378 Y83.320 E0.00278
G1 X135.520 Y83.418 E0.00540
G1 X135.616 Y83.552 E0.00518
G1 X135.751 Y83.892 E0.01146
G1 X135.831 Y84.242 E0.01128
G1 X135.874 Y84.544 E0.00955
G1 X135.909 Y85.009 E0.01461
G1 X135.914 Y85.516 E0.01590
G1 X135.889 Y86.042 E0.01651
G1 X135.792 Y86.851 E0.02555
G1 X135.629 Y87.611 E0.02439
G1 X135.490 Y88.056 E0.01462
G1 X135.374 Y88.345 E0.00974
G1 X135.205 Y88.673 E0.01159
G1 X134.979 Y88.986 E0.01210
G1 X134.818 Y89.140 E0.00698
G1 X134.603 Y89.272 E0.00790
G1 X134.387 Y89.343 E0.00713
G1 X134.066 Y89.372 E0.01010
G1 X133.705 Y89.337 E0.01138
G1 X133.314 Y89.245 E0.01259
G1 X133.068 Y89.163 E0.00815
G1 X132.695 Y89.003 E0.01272
G1 X132.347 Y88.811 E0.01246
G1 X132.137 Y88.669 E0.00794
G1 X131.686 Y88.298 E0.01832
G1 X130.616 Y87.239 E0.04719
G1 X129.908 Y86.609 E0.02974
G1 X129.239 Y86.117 E0.02601
G1 X128.474 Y85.663 E0.02792
G1 X127.587 Y85.250 E0.03067
G1 X126.585 Y84.896 E0.03331
G1 X125.516 Y84.614 E0.03466
G1 X124.764 Y84.461 E0.02406
G1 X123.995 Y84.337 E0.02444
G1 X122.819 Y84.200 E0.03711
G1 X121.299 Y84.099 E0.04778
G1 X119.847 Y84.074 E0.04552
G1 X118.336 Y84.122 E0.04740
G1 X117.273 Y84.223 E0.03350
G1 X116.788 Y84.305 E0.01543
G1 X116.447 Y84.389 E0.01100
G1 X116.153 Y84.491 E0.00974
G1 X115.865 Y84.627 E0.01000
G1 X115.284 Y85.029 E0.02214
G1 X115.190 Y85.063 E0.00315
G1 X115.376 Y85.404 F10800.000
;TYPE:External perimeter
G1 F1200.000
G1 X115.264 Y85.435 E0.00365
G1 X115.123 Y85.446 E0.00442
G1 X114.936 Y85.425 E0.00590
G1 X114.707 Y85.365 E0.00742
G1 X114.517 Y85.290 E0.00641
G1 X114.163 Y85.100 E0.01259
G1 X113.719 Y84.769 E0.01736
G1 X113.294 Y84.331 E0.01915
G1 X113.041 Y83.990 E0.01329
G1 X112.717 Y83.404 E0.02100
G1 X112.551 Y82.985 E0.01415
G1 X112.423 Y82.543 E0.01442
G1 X112.306 Y81.854 E0.02189
G1 X112.278 Y81.171 E0.02145
G1 X112.329 Y80.522 E0.02040
G1 X112.449 Y79.941 E0.01860
G1 X112.627 Y79.455 E0.01624
G1 X112.729 Y79.264 E0.00678
G1 X112.957 Y78.975 E0.01156
G1 X113.079 Y78.877 E0.00490
G1 X113.209 Y78.805 E0.00466
G1 X113.355 Y78.755 E0.00481
G1 X113.522 Y78.727 E0.00534
G1 X113.716 Y78.724 E0.00607
G1 X114.030 Y78.762 E0.00993
G1 X114.397 Y78.852 E0.01185
G1 X114.827 Y78.999 E0.01425
G1 X115.281 Y79.186 E0.01538
G1 X116.076 Y79.556 E0.02750
G1 X119.368 Y81.206 E0.11545
G1 X120.506 Y81.722 E0.03916
G1 X121.678 Y82.199 E0.03968
G1 X122.899 Y82.628 E0.04059
G1 X123.733 Y82.878 E0.02729
G1 X124.572 Y83.092 E0.02713
G1 X125.412 Y83.268 E0.02691
G1 X126.248 Y83.404 E0.02658
G1 X127.477 Y83.533 E0.03873
G1 X128.285 Y83.573 E0.02536
G1 X129.438 Y83.568 E0.03615
G1 X130.189 Y83.528 E0.02357
G1 X131.239 Y83.424 E0.03308
G1 X132.210 Y83.286 E0.03076
G1 X134.098 Y82.966 E0.06003
G1 X134.626 Y82.900 E0.01668
G1 X134.976 Y82.884 E0.01101
G1 X135.383 Y82.926 E0.01282
G1 X135.532 Y82.974 E0.00491
G1 X135.702 Y83.072 E0.00616
G1 X135.805 Y83.167 E0.00440
G1 X135.942 Y83.360 E0.00741
G1 X136.033 Y83.550 E0.00661
G1 X136.115 Y83.788 E0.00789
G1 X136.203 Y84.174 E0.01240
G1 X136.249 Y84.503 E0.01043
G1 X136.286 Y84.993 E0.01539
G1 X136.291 Y85.523 E0.01663
G1 X136.265 Y86.073 E0.01727
G1 X136.164 Y86.913 E0.02651
G1 X135.994 Y87.707 E0.02548
G1 X135.845 Y88.183 E0.01562
G1 X135.718 Y88.501 E0.01076
G1 X135.527 Y88.871 E0.01303
G1 X135.264 Y89.235 E0.01408
G1 X135.049 Y89.440 E0.00931
G1 X134.763 Y89.616 E0.01053
G1 X134.464 Y89.715 E0.00987
G1 X134.065 Y89.751 E0.01256
G1 X133.643 Y89.710 E0.01329
G1 X133.211 Y89.608 E0.01392
G1 X132.934 Y89.516 E0.00917
G1 X132.529 Y89.342 E0.01381
G1 X132.150 Y89.133 E0.01357
G1 X131.912 Y88.972 E0.00902
G1 X131.433 Y88.579 E0.01943
G1 X130.358 Y87.514 E0.04742
G1 X129.670 Y86.902 E0.02888
G1 X129.031 Y86.432 E0.02488
G1 X128.297 Y85.997 E0.02675
G1 X127.444 Y85.600 E0.02951
G1 X126.474 Y85.256 E0.03226
G1 X125.431 Y84.981 E0.03383
G1 X124.697 Y84.832 E0.02348
G1 X123.943 Y84.711 E0.02395
G1 X122.785 Y84.575 E0.03655
G1 X121.283 Y84.476 E0.04719
G1 X119.850 Y84.451 E0.04494
G1 X118.360 Y84.499 E0.04674
G1 X117.322 Y84.597 E0.03269
G1 X116.864 Y84.675 E0.01456
G1 X116.554 Y84.751 E0.01003
G1 X116.295 Y84.841 E0.00857
G1 X116.054 Y84.955 E0.00838
G1 X115.430 Y85.378 E0.02364
G1 X115.286 Y85.331 F10800.000
;WIPE_START
G1 F8640.000
G1 X115.264 Y85.435 E-0.04059
G1 X115.123 Y85.446 E-0.03254
G1 X114.936 Y85.425 E-0.04348
G1 X114.707 Y85.365 E-0.05466
G1 X114.517 Y85.290 E-0.04723
G1 X114.163 Y85.100 E-0.09270
G1 X113.719 Y84.769 E-0.12783
G1 X113.294 Y84.331 E-0.14103
G1 X113.041 Y83.990 E-0.09791
G1 X112.869 Y83.679 E-0.08202
;WIPE_END
G1 E-0.04000 F2100.000
G1 Z0.600 F10800.000
G1 X135.650 Y83.955
G1 Z0.200
G1 E0.80000 F2100.000
;TYPE:Solid infill
;WIDTH:0.428368
G1 F1200.000
G1 X135.263 Y83.584 E0.01719
G1 X135.127 Y83.553 E0.00446
G1 X134.708 Y83.558 E0.01343
G1 X135.571 Y84.422 E0.03914
G1 X135.626 Y85.022 E0.01931
G1 X134.220 Y83.615 E0.06376
G1 X133.753 Y83.694 E0.01517
G1 X135.628 Y85.569 E0.08501
G1 X135.599 Y86.085 E0.01655
G1 X133.287 Y83.773 E0.10479
G1 X132.821 Y83.852 E0.01515
G1 X135.540 Y86.572 E0.12327
G1 X135.462 Y87.039 E0.01518
G1 X132.355 Y83.931 E0.14085
G1 X131.879 Y84.000 E0.01542
G1 X135.366 Y87.487 E0.15808
G1 X135.240 Y87.907 E0.01403
G1 X131.401 Y84.068 E0.17401
G1 X130.908 Y84.120 E0.01589
G1 X135.082 Y88.294 E0.18918
G1 X134.963 Y88.525 E0.00833
G1 X134.881 Y88.638 E0.00448
G1 X130.412 Y84.169 E0.20257
G1 X129.902 Y84.204 E0.01638
G1 X134.625 Y88.926 E0.21405
G1 X134.483 Y89.014 E0.00533
G1 X134.330 Y89.064 E0.00519
G1 X134.227 Y89.074 E0.00331
G1 X129.382 Y84.228 E0.21961
G1 X128.839 Y84.231 E0.01740
G1 X133.639 Y89.031 E0.21758
G1 X133.168 Y88.898 E0.01568
G1 X132.802 Y88.739 E0.01278
G1 X128.296 Y84.233 E0.20426
G1 X127.724 Y84.206 E0.01835
G1 X129.410 Y85.892 E0.07640
G1 X128.606 Y85.412 E0.03000
G1 X128.193 Y85.220 E0.01459
G1 X127.134 Y84.161 E0.04802
G1 X126.524 Y84.096 E0.01964
G1 X127.263 Y84.836 E0.03351
G1 X126.669 Y84.625 E0.02022
G1 X126.450 Y84.568 E0.00725
G1 X125.898 Y84.015 E0.02503
G1 X125.244 Y83.907 E0.02124
G1 X125.710 Y84.372 E0.02110
G1 X125.016 Y84.224 E0.02273
G1 X124.555 Y83.762 E0.02090
G1 X123.831 Y83.584 E0.02388
G1 X124.356 Y84.109 E0.02379
G1 X123.723 Y84.020 E0.02050
G1 X123.071 Y83.369 E0.02955
G1 X122.260 Y83.103 E0.02733
G1 X123.105 Y83.948 E0.03830
G1 X122.507 Y83.895 E0.01924
G1 X121.418 Y82.806 E0.04940
G1 X120.498 Y82.431 E0.03183
G1 X121.924 Y83.857 E0.06463
G1 X121.340 Y83.818 E0.01875
G1 X119.521 Y82.000 E0.08243
G1 X118.470 Y81.494 E0.03738
G1 X120.784 Y83.807 E0.10486
G1 X120.229 Y83.798 E0.01778
G1 X117.378 Y80.947 E0.12922
G1 X116.286 Y80.400 E0.03915
G1 X119.683 Y83.796 E0.15395
G1 X119.154 Y83.813 E0.01694
G1 X115.232 Y79.891 E0.17778
G1 X114.595 Y79.617 E0.02221
G1 X114.319 Y79.523 E0.00935
G1 X118.626 Y83.830 E0.19522
G1 X118.111 Y83.860 E0.01655
G1 X113.636 Y79.385 E0.20281
G1 X113.480 Y79.414 E0.00510
G1 X113.403 Y79.466 E0.00298
G1 X113.308 Y79.602 E0.00531
G1 X117.613 Y83.907 E0.19513
G1 X117.122 Y83.962 E0.01581
G1 X113.139 Y79.978 E0.18056
G1 X113.086 Y80.123 E0.00494
G1 X113.026 Y80.410 E0.00942
G1 X116.661 Y84.045 E0.16475
G1 X116.234 Y84.164 E0.01419
G1 X112.962 Y80.891 E0.14833
M73 P2 R51
M73 Q2 S52
G1 X112.939 Y81.183 E0.00939
G1 X112.949 Y81.423 E0.00769
G1 X115.848 Y84.322 E0.13141
G1 X115.723 Y84.381 E0.00443
G1 X115.509 Y84.529 E0.00832
G1 X113.004 Y82.024 E0.11356
G1 X113.067 Y82.395 E0.01209
G1 X113.163 Y82.728 E0.01109
G1 X115.187 Y84.752 E0.09175
G1 X115.152 Y84.777 E0.00139
G1 X115.055 Y84.773 E0.00310
G1 X114.786 Y84.686 E0.00906
G1 X114.518 Y84.542 E0.00974
G1 X114.179 Y84.288 E0.01359
G1 X113.256 Y83.366 E0.04180
; stop printing object StemmeBånd.stl id:2 copy 0
