; generated by PrusaSlicer 2.3.3+win64 on 2021-12-20 at 12:35:10 UTC

; 

; external perimeters extrusion width = 0.45mm
; perimeters extrusion width = 0.45mm
; infill extrusion width = 0.45mm
; solid infill extrusion width = 0.45mm
; top infill extrusion width = 0.40mm
; first layer extrusion width = 0.42mm

M73 P0 R42
M73 Q0 S43
M201 X1000 Y1000 Z200 E8000 ; sets maximum accelerations, mm/sec^2
M203 X200 Y200 Z12 E120 ; sets maximum feedrates, mm/sec
M204 P1250 R1250 T1250 ; sets acceleration (P, T) and retract acceleration (R), mm/sec^2
M205 X8.00 Y8.00 Z0.40 E4.50 ; sets the jerk limits, mm/sec
M205 S0 T0 ; sets the minimum extruding and travel feed rate, mm/sec
M107
;TYPE:Custom
M862.3 P "MK3SMMU2S" ; printer model check
M862.1 P0.4 ; nozzle diameter check
M115 U3.10.0 ; tell printer latest fw version
G90 ; use absolute coordinates
M83 ; extruder relative mode
M104 S215 ; set extruder temp
M140 S60 ; set bed temp
M190 S60 ; wait for bed temp
M109 S215 ; wait for extruder temp
G28 W ; home all without mesh bed level
G80 ; mesh bed leveling

; Send the filament type to the MMU2.0 unit.
; E stands for extruder number, F stands for filament type (0: default; 1:flex; 2: PVA)
M403 E0 F0
M403 E1 F0
M403 E2 F0
M403 E3 F0
M403 E4 F0


;go outside print area
G1 Y-3.0 F1000.0
G1 Z0.4 F1000.0
; select extruder
T4
; initial load
G1 X55.0 E29.0 F1073.0
G1 X5.0 E29.0 F1800.0
G1 X55.0 E8.0 F2000.0
G1 Z0.3 F1000.0
G92 E0.0
G1 X240.0 E25.0 F2200.0
M73 P1 R42
M73 Q1 S43
G1 Y-2.0 F1000.0
G1 X55.0 E25 F1400.0
M73 P1 R41
M73 Q1 S42
G1 Z0.20 F1000.0
G1 X5.0 E4.0 F1000.0
G92 E0.0


M221 S95
G92 E0.0

; Don't change E values below. Excessive value can damage the printer.

M907 E538 ; set extruder motor current
G21 ; set units to millimeters
G90 ; use absolute coordinates
M83 ; use relative distances for extrusion
T4
M900 K0.05 ; Filament gcode LA 1.5
M900 K30 ; Filament gcode LA 1.0
;LAYER_CHANGE
;Z:0.2
;HEIGHT:0.2
;BEFORE_LAYER_CHANGE
G92 E0.0
;0.2


G1 E-0.80000 F2100.000
G1 Z0.400 F10800.000
;AFTER_LAYER_CHANGE
;0.2
; printing object Tunge.stl id:0 copy 0
G1 X95.738 Y80.638
G1 Z0.200
G1 E0.80000 F2100.000
M204 S1000
;TYPE:Perimeter
;WIDTH:0.42
G1 F1200.000
G1 X96.293 Y80.665 E0.01741
G1 X96.961 Y80.741 E0.02110
G1 X97.719 Y80.865 E0.02406
G1 X98.561 Y81.034 E0.02695
G1 X99.973 Y81.358 E0.04539
G1 X104.888 Y82.572 E0.15875
G1 X107.211 Y83.109 E0.07476
G1 X111.780 Y84.101 E0.14659
G1 X113.928 Y84.605 E0.06918
G1 X114.954 Y84.876 E0.03329
G1 X115.953 Y85.171 E0.03265
G1 X116.925 Y85.495 E0.03212
G1 X118.327 Y86.046 E0.04724
G1 X119.229 Y86.465 E0.03118
G1 X120.109 Y86.930 E0.03120
G1 X120.531 Y87.175 E0.01532
G1 X121.385 Y87.715 E0.03166
G1 X122.635 Y88.619 E0.04838
G1 X123.857 Y89.628 E0.04967
G1 X124.658 Y90.351 E0.03384
G1 X126.233 Y91.886 E0.06894
G1 X129.343 Y95.097 E0.14018
G1 X130.126 Y95.881 E0.03472
G1 X130.904 Y96.630 E0.03387
G1 X131.689 Y97.348 E0.03336
G1 X132.877 Y98.344 E0.04861
G1 X134.084 Y99.234 E0.04702
G1 X135.310 Y100.010 E0.04549
G1 X136.553 Y100.671 E0.04413
G1 X137.395 Y101.055 E0.02904
G1 X138.240 Y101.394 E0.02853
G1 X139.100 Y101.696 E0.02860
G1 X139.956 Y101.960 E0.02807
G1 X140.818 Y102.192 E0.02799
G1 X141.692 Y102.395 E0.02814
G1 X142.558 Y102.566 E0.02769
G1 X143.427 Y102.707 E0.02759
G1 X144.710 Y102.848 E0.04048
G1 X145.578 Y102.887 E0.02723
G1 X146.416 Y102.868 E0.02630
G1 X146.850 Y102.832 E0.01363
G1 X147.654 Y102.705 E0.02553
G1 X148.071 Y102.603 E0.01346
G1 X148.832 Y102.340 E0.02524
G1 X149.218 Y102.159 E0.01338
G1 X149.721 Y101.865 E0.01826
G1 X149.860 Y102.067 E0.00768
G1 X150.337 Y102.602 E0.02245
G1 X150.912 Y103.100 E0.02388
G1 X151.245 Y103.346 E0.01297
G1 X151.938 Y103.798 E0.02593
G1 X152.702 Y104.230 E0.02753
G1 X153.931 Y104.834 E0.04295
G1 X155.651 Y105.577 E0.05872
G1 X158.153 Y106.605 E0.08482
G1 X159.256 Y107.111 E0.03805
G1 X159.905 Y107.456 E0.02305
G1 X160.482 Y107.817 E0.02133
G1 X160.981 Y108.198 E0.01968
G1 X161.403 Y108.604 E0.01837
G1 X161.753 Y109.041 E0.01756
G1 X162.037 Y109.517 E0.01737
G1 X162.256 Y110.037 E0.01770
G1 X162.412 Y110.607 E0.01855
G1 X162.496 Y111.194 E0.01860
G1 X162.513 Y111.819 E0.01960
G1 X162.458 Y112.445 E0.01969
G1 X162.330 Y113.063 E0.01979
G1 X162.247 Y113.339 E0.00904
G1 X162.015 Y113.898 E0.01899
G1 X161.727 Y114.387 E0.01778
G1 X161.370 Y114.828 E0.01779
G1 X161.179 Y115.014 E0.00836
G1 X160.964 Y115.195 E0.00881
G1 X160.464 Y115.530 E0.01888
G1 X160.200 Y115.673 E0.00942
G1 X159.587 Y115.944 E0.02099
G1 X158.884 Y116.190 E0.02337
G1 X158.100 Y116.417 E0.02559
G1 X155.874 Y116.994 E0.07209
G1 X154.891 Y117.272 E0.03203
G1 X153.887 Y117.595 E0.03307
G1 X152.906 Y117.959 E0.03280
G1 X151.903 Y118.390 E0.03423
G1 X150.964 Y118.860 E0.03291
G1 X150.085 Y119.371 E0.03187
G1 X149.284 Y119.914 E0.03036
G1 X148.596 Y120.463 E0.02761
G1 X148.254 Y120.776 E0.01453
G1 X147.724 Y121.345 E0.02436
G1 X147.309 Y121.918 E0.02219
G1 X147.007 Y122.500 E0.02056
G1 X146.827 Y123.081 E0.01907
G1 X146.760 Y123.595 E0.01627
G1 X146.761 Y124.470 E0.02742
G1 X146.714 Y124.709 E0.00762
G1 X146.598 Y124.903 E0.00707
G1 X146.363 Y125.149 E0.01070
G1 X146.077 Y125.370 E0.01133
G1 X145.679 Y125.620 E0.01474
G1 X144.967 Y125.985 E0.02508
G1 X144.074 Y126.364 E0.03041
G1 X142.970 Y126.762 E0.03681
G1 X142.025 Y127.060 E0.03107
G1 X140.591 Y127.458 E0.04665
G1 X139.410 Y127.746 E0.03811
G1 X137.682 Y128.116 E0.05541
G1 X136.759 Y128.290 E0.02945
G1 X134.838 Y128.608 E0.06105
G1 X133.820 Y128.753 E0.03225
G1 X131.695 Y129.004 E0.06709
G1 X129.486 Y129.196 E0.06953
G1 X127.209 Y129.318 E0.07147
G1 X124.886 Y129.363 E0.07285
G1 X122.537 Y129.324 E0.07367
G1 X120.181 Y129.195 E0.07397
G1 X117.834 Y128.971 E0.07393
G1 X116.675 Y128.822 E0.03664
G1 X115.522 Y128.649 E0.03656
G1 X114.380 Y128.451 E0.03634
G1 X113.251 Y128.228 E0.03609
G1 X112.118 Y127.976 E0.03639
G1 X111.036 Y127.708 E0.03494
G1 X109.954 Y127.412 E0.03518
G1 X108.890 Y127.091 E0.03483
G1 X107.863 Y126.753 E0.03391
G1 X106.824 Y126.381 E0.03463
G1 X105.823 Y125.992 E0.03365
G1 X104.853 Y125.585 E0.03299
G1 X103.899 Y125.153 E0.03285
G1 X102.969 Y124.701 E0.03240
G1 X102.071 Y124.233 E0.03177
G1 X101.200 Y123.747 E0.03127
G1 X100.333 Y123.230 E0.03162
G1 X99.516 Y122.710 E0.03037
G1 X98.719 Y122.170 E0.03018
G1 X97.955 Y121.619 E0.02954
G1 X97.215 Y121.051 E0.02926
G1 X96.499 Y120.467 E0.02899
G1 X95.816 Y119.874 E0.02835
G1 X95.161 Y119.271 E0.02791
G1 X94.534 Y118.658 E0.02748
G1 X93.936 Y118.037 E0.02705
G1 X93.366 Y117.407 E0.02662
G1 X92.824 Y116.771 E0.02620
G1 X91.828 Y115.487 E0.05094
G1 X90.941 Y114.188 E0.04933
G1 X90.162 Y112.881 E0.04772
G1 X89.491 Y111.580 E0.04587
G1 X88.925 Y110.291 E0.04416
G1 X88.457 Y109.016 E0.04256
G1 X88.085 Y107.760 E0.04108
G1 X87.937 Y107.153 E0.01958
G1 X87.701 Y105.934 E0.03893
G1 X87.618 Y105.351 E0.01848
G1 X87.511 Y104.185 E0.03671
G1 X87.484 Y103.058 E0.03534
G1 X87.531 Y101.966 E0.03427
G1 X87.648 Y100.908 E0.03338
G1 X87.830 Y99.882 E0.03266
G1 X88.073 Y98.888 E0.03210
G1 X88.371 Y97.922 E0.03169
G1 X88.720 Y96.983 E0.03140
G1 X89.113 Y96.069 E0.03122
G1 X89.545 Y95.179 E0.03102
G1 X90.256 Y93.876 E0.04653
G1 X91.280 Y92.200 E0.06159
G1 X92.855 Y89.795 E0.09012
G1 X93.834 Y88.254 E0.05725
G1 X94.492 Y87.119 E0.04113
G1 X95.054 Y86.002 E0.03922
G1 X95.495 Y84.902 E0.03716
G1 X95.716 Y84.166 E0.02410
G1 X95.869 Y83.439 E0.02330
G1 X95.951 Y82.716 E0.02278
G1 X95.956 Y82.002 E0.02241
G1 X95.883 Y81.297 E0.02221
G1 X95.751 Y80.697 E0.01928
G1 X95.218 Y80.283 F10800.000
;TYPE:External perimeter
G1 F1200.000
G1 X95.711 Y80.259 E0.01549
G1 X96.323 Y80.288 E0.01920
G1 X97.013 Y80.367 E0.02179
G1 X97.786 Y80.494 E0.02455
G1 X98.641 Y80.666 E0.02732
G1 X100.060 Y80.991 E0.04566
G1 X104.976 Y82.205 E0.15876
G1 X107.293 Y82.741 E0.07459
G1 X111.863 Y83.734 E0.14660
G1 X114.019 Y84.239 E0.06944
G1 X115.056 Y84.513 E0.03362
G1 X116.066 Y84.811 E0.03303
G1 X117.053 Y85.140 E0.03264
G1 X118.475 Y85.700 E0.04790
G1 X119.397 Y86.127 E0.03184
G1 X120.292 Y86.600 E0.03174
G1 X120.727 Y86.853 E0.01578
G1 X121.596 Y87.403 E0.03226
G1 X122.866 Y88.321 E0.04912
G1 X124.103 Y89.342 E0.05031
G1 X124.916 Y90.076 E0.03433
G1 X126.500 Y91.619 E0.06934
G1 X129.612 Y94.833 E0.14027
M73 P2 R41
G1 X130.390 Y95.612 E0.03451
G1 X131.162 Y96.355 E0.03360
G1 X131.938 Y97.064 E0.03296
G1 X133.110 Y98.048 E0.04799
G1 X134.297 Y98.923 E0.04623
G1 X135.500 Y99.684 E0.04463
G1 X136.720 Y100.333 E0.04332
G1 X137.544 Y100.708 E0.02840
G1 X138.373 Y101.041 E0.02800
G1 X139.218 Y101.338 E0.02811
G1 X140.060 Y101.598 E0.02762
G1 X140.910 Y101.826 E0.02757
G1 X141.771 Y102.026 E0.02774
G1 X142.625 Y102.195 E0.02728
G1 X143.478 Y102.333 E0.02708
M73 Q2 S42
G1 X144.739 Y102.472 E0.03979
G1 X145.582 Y102.510 E0.02645
G1 X146.396 Y102.491 E0.02554
G1 X146.804 Y102.457 E0.01284
G1 X147.580 Y102.335 E0.02461
G1 X147.965 Y102.241 E0.01241
G1 X148.690 Y101.990 E0.02407
G1 X149.047 Y101.823 E0.01235
G1 X149.377 Y101.640 E0.01184
G1 X149.837 Y101.322 E0.01754
G1 X149.973 Y101.567 E0.00879
G1 X150.157 Y101.834 E0.01017
G1 X150.602 Y102.333 E0.02095
G1 X151.148 Y102.806 E0.02266
G1 X151.460 Y103.037 E0.01216
G1 X152.133 Y103.475 E0.02520
G1 X152.878 Y103.896 E0.02682
G1 X154.089 Y104.492 E0.04232
G1 X155.797 Y105.229 E0.05832
G1 X158.303 Y106.259 E0.08496
G1 X159.423 Y106.773 E0.03864
G1 X160.094 Y107.129 E0.02381
G1 X160.697 Y107.507 E0.02229
G1 X161.226 Y107.911 E0.02090
G1 X161.682 Y108.349 E0.01981
G1 X162.064 Y108.825 E0.01915
G1 X162.374 Y109.346 E0.01901
G1 X162.613 Y109.913 E0.01930
G1 X162.780 Y110.525 E0.01988
G1 X162.836 Y110.844 E0.01016
G1 X162.873 Y111.168 E0.01022
G1 X162.890 Y111.831 E0.02078
G1 X162.832 Y112.499 E0.02105
G1 X162.696 Y113.156 E0.02102
G1 X162.602 Y113.466 E0.01016
G1 X162.353 Y114.067 E0.02039
G1 X162.038 Y114.603 E0.01949
G1 X161.649 Y115.082 E0.01935
G1 X161.191 Y115.496 E0.01937
G1 X160.659 Y115.854 E0.02008
G1 X160.366 Y116.012 E0.01046
G1 X159.726 Y116.295 E0.02194
G1 X158.998 Y116.549 E0.02416
G1 X158.199 Y116.780 E0.02608
G1 X155.973 Y117.358 E0.07212
G1 X155.000 Y117.633 E0.03170
G1 X154.010 Y117.952 E0.03261
G1 X153.046 Y118.309 E0.03223
G1 X152.062 Y118.733 E0.03359
G1 X151.144 Y119.192 E0.03221
G1 X150.286 Y119.690 E0.03109
G1 X149.507 Y120.218 E0.02949
G1 X148.841 Y120.750 E0.02674
G1 X148.520 Y121.044 E0.01366
G1 X148.016 Y121.585 E0.02317
G1 X147.631 Y122.116 E0.02057
G1 X147.358 Y122.644 E0.01863
G1 X147.197 Y123.162 E0.01700
G1 X147.137 Y123.620 E0.01448
G1 X147.138 Y124.501 E0.02763
G1 X147.095 Y124.761 E0.00826
G1 X147.057 Y124.869 E0.00361
G1 X146.901 Y125.132 E0.00959
G1 X146.616 Y125.430 E0.01293
G1 X146.293 Y125.680 E0.01279
G1 X145.865 Y125.948 E0.01583
G1 X145.127 Y126.327 E0.02602
G1 X144.212 Y126.715 E0.03117
G1 X143.090 Y127.119 E0.03738
G1 X142.132 Y127.422 E0.03152
G1 X140.686 Y127.823 E0.04705
G1 X139.494 Y128.114 E0.03846
G1 X137.756 Y128.485 E0.05572
G1 X136.825 Y128.662 E0.02972
G1 X134.895 Y128.981 E0.06132
G1 X133.869 Y129.127 E0.03252
G1 X131.733 Y129.380 E0.06742
G1 X129.512 Y129.572 E0.06991
G1 X127.223 Y129.695 E0.07187
G1 X124.887 Y129.741 E0.07327
G1 X122.524 Y129.701 E0.07411
G1 X120.153 Y129.571 E0.07443
G1 X117.792 Y129.345 E0.07436
G1 X116.623 Y129.196 E0.03696
G1 X115.462 Y129.021 E0.03682
G1 X114.311 Y128.821 E0.03661
G1 X113.173 Y128.597 E0.03637
G1 X112.031 Y128.343 E0.03667
G1 X110.941 Y128.073 E0.03522
G1 X109.850 Y127.774 E0.03547
G1 X108.777 Y127.451 E0.03513
G1 X107.741 Y127.110 E0.03421
G1 X106.692 Y126.734 E0.03494
G1 X105.682 Y126.342 E0.03397
G1 X104.702 Y125.930 E0.03331
G1 X103.738 Y125.494 E0.03318
G1 X102.800 Y125.038 E0.03273
G1 X101.892 Y124.565 E0.03210
G1 X101.011 Y124.073 E0.03161
G1 X100.136 Y123.551 E0.03197
G1 X99.309 Y123.026 E0.03071
G1 X98.503 Y122.479 E0.03052
G1 X97.730 Y121.922 E0.02988
G1 X96.981 Y121.347 E0.02961
G1 X96.256 Y120.755 E0.02934
G1 X95.564 Y120.155 E0.02870
G1 X94.901 Y119.545 E0.02827
G1 X94.267 Y118.924 E0.02784
G1 X93.661 Y118.294 E0.02741
G1 X93.083 Y117.656 E0.02698
G1 X92.534 Y117.011 E0.02656
G1 X92.013 Y116.361 E0.02610
G1 X91.522 Y115.707 E0.02566
G1 X90.623 Y114.391 E0.04996
G1 X89.832 Y113.064 E0.04845
G1 X89.151 Y111.743 E0.04661
G1 X88.575 Y110.432 E0.04490
G1 X88.099 Y109.135 E0.04331
G1 X87.721 Y107.858 E0.04175
G1 X87.569 Y107.234 E0.02016
G1 X87.329 Y105.996 E0.03952
G1 X87.244 Y105.395 E0.01906
G1 X87.135 Y104.207 E0.03740
G1 X87.107 Y103.055 E0.03613
G1 X87.155 Y101.937 E0.03507
G1 X87.275 Y100.854 E0.03416
G1 X87.461 Y99.805 E0.03342
G1 X87.709 Y98.788 E0.03283
G1 X88.014 Y97.801 E0.03237
G1 X88.369 Y96.843 E0.03204
G1 X88.770 Y95.912 E0.03179
G1 X89.210 Y95.006 E0.03157
G1 X89.929 Y93.687 E0.04710
G1 X90.961 Y91.998 E0.06207
G1 X92.538 Y89.591 E0.09023
G1 X93.512 Y88.059 E0.05692
G1 X94.160 Y86.940 E0.04054
G1 X94.710 Y85.847 E0.03837
G1 X95.139 Y84.777 E0.03613
G1 X95.351 Y84.073 E0.02307
G1 X95.497 Y83.379 E0.02224
G1 X95.574 Y82.694 E0.02160
G1 X95.579 Y82.020 E0.02113
G1 X95.511 Y81.358 E0.02088
G1 X95.367 Y80.709 E0.02084
G1 X95.238 Y80.340 E0.01226
G1 X95.586 Y80.440 F10800.000
;WIPE_START
G1 F8640.000
G1 X95.711 Y80.259 E-0.11093
G1 X96.323 Y80.288 E-0.14142
G1 X97.013 Y80.367 E-0.16044
G1 X97.786 Y80.494 E-0.18082
G1 X98.493 Y80.636 E-0.16638
;WIPE_END
G1 E-0.04000 F2100.000
G1 Z0.600 F10800.000
G1 X160.125 Y107.727
G1 Z0.200
G1 E0.80000 F2100.000
;TYPE:Solid infill
;WIDTH:0.421971
G1 F1200.000
G1 X161.199 Y108.801 E0.04787
G1 X161.520 Y109.202 E0.01622
G1 X161.784 Y109.644 E0.01623
G1 X161.986 Y110.124 E0.01640
G1 X159.335 Y107.473 E0.11817
G1 X158.317 Y106.991 E0.03549
G1 X162.165 Y110.840 E0.17153
G1 X162.214 Y111.214 E0.01190
G1 X162.220 Y111.430 E0.00680
G1 X157.385 Y106.595 E0.21551
G1 X156.475 Y106.221 E0.03101
G1 X162.216 Y111.963 E0.25592
G1 X162.168 Y112.450 E0.01545
G1 X155.565 Y105.847 E0.29433
G1 X154.622 Y105.441 E0.03235
G1 X162.076 Y112.895 E0.33226
G1 X161.953 Y113.308 E0.01358
G1 X153.663 Y105.017 E0.36953
G1 X152.608 Y104.498 E0.03706
G1 X161.796 Y113.687 E0.40956
G1 X161.607 Y114.034 E0.01245
G1 X151.281 Y103.707 E0.46027
G1 X150.735 Y103.321 E0.02107
G1 X150.138 Y102.804 E0.02492
G1 X149.637 Y102.242 E0.02370
G1 X149.411 Y102.374 E0.00825
G1 X161.390 Y114.353 E0.53394
G1 X161.149 Y114.648 E0.01201
G1 X149.051 Y102.550 E0.53926
G1 X148.663 Y102.698 E0.01309
G1 X160.870 Y114.904 E0.54410
G1 X160.557 Y115.127 E0.01211
G1 X148.264 Y102.835 E0.54790
G1 X147.843 Y102.950 E0.01377
G1 X160.229 Y115.336 E0.55210
G1 X159.868 Y115.511 E0.01265
G1 X147.390 Y103.033 E0.55620
G1 X146.927 Y103.106 E0.01477
G1 X159.496 Y115.675 E0.56027
G1 X159.100 Y115.815 E0.01325
G1 X146.435 Y103.150 E0.56451
G1 X145.911 Y103.162 E0.01652
G1 X158.698 Y115.949 E0.56995
G1 X158.282 Y116.069 E0.01364
G1 X145.373 Y103.161 E0.57538
G1 X144.812 Y103.136 E0.01771
G1 X157.863 Y116.186 E0.58170
G1 X157.437 Y116.296 E0.01386
G1 X144.219 Y103.078 E0.58917
G1 X143.617 Y103.012 E0.01909
G1 X157.011 Y116.407 E0.59703
M73 P3 R41
G1 X156.586 Y116.517 E0.01386
G1 X142.992 Y102.923 E0.60593
M73 Q3 S42
G1 X142.345 Y102.813 E0.02067
G1 X156.160 Y116.627 E0.61578
G1 X155.735 Y116.739 E0.01383
G1 X141.677 Y102.680 E0.62664
G1 X140.980 Y102.520 E0.02253
G1 X155.318 Y116.857 E0.63907
G1 X154.900 Y116.976 E0.01368
G1 X140.259 Y102.334 E0.65263
G1 X139.505 Y102.117 E0.02471
G1 X154.492 Y117.104 E0.66801
G1 X154.086 Y117.234 E0.01343
G1 X138.711 Y101.859 E0.68531
G1 X137.863 Y101.547 E0.02848
G1 X153.685 Y117.369 E0.70521
G1 X153.294 Y117.514 E0.01315
G1 X136.937 Y101.157 E0.72908
G1 X136.428 Y100.925 E0.01764
G1 X135.874 Y100.630 E0.01975
G1 X152.903 Y117.659 E0.75901
G1 X152.524 Y117.816 E0.01293
G1 X134.609 Y99.901 E0.79853
G1 X133.924 Y99.468 E0.02553
G1 X132.840 Y98.668 E0.04247
G1 X152.149 Y117.977 E0.86067
M73 Q3 S41
G1 X151.774 Y118.139 E0.01285
G1 X122.558 Y88.922 E1.30229
G1 X121.226 Y87.950 E0.05196
G1 X120.745 Y87.645 E0.01796
G1 X151.417 Y118.317 E1.36718
M73 P3 R40
G1 X151.060 Y118.496 E0.01259
G1 X119.483 Y86.919 E1.40749
G1 X119.103 Y86.719 E0.01354
G1 X118.437 Y86.409 E0.02315
G1 X150.709 Y118.681 E1.43848
G1 X150.370 Y118.878 E0.01236
G1 X117.528 Y86.036 E1.46390
