; generated by PrusaSlicer 2.4.2+win64 on 2022-05-16 at 09:48:38 UTC

; 

; external perimeters extrusion width = 0.60mm
; perimeters extrusion width = 0.50mm
; infill extrusion width = 0.50mm
; solid infill extrusion width = 0.50mm
; top infill extrusion width = 0.45mm
; first layer extrusion width = 0.42mm

M73 P0 R104
M73 Q0 S105
M201 X1000 Y1000 Z200 E5000 ; sets maximum accelerations, mm/sec^2
M203 X200 Y200 Z12 E120 ; sets maximum feedrates, mm / sec
M204 P1250 R1250 T1250 ; sets acceleration (P, T) and retract acceleration (R), mm/sec^2
M205 X8.00 Y8.00 Z0.40 E4.50 ; sets the jerk limits, mm/sec
M205 S0 T0 ; sets the minimum extruding and travel feed rate, mm/sec
M107
;TYPE:Custom
M862.3 P "MK3S" ; printer model check
M862.1 P0.4 ; nozzle diameter check
M115 U3.10.1 ; tell printer latest fw version
G90 ; use absolute coordinates
M83 ; extruder relative mode
M104 S215 ; set extruder temp
M140 S60 ; set bed temp
M190 S60 ; wait for bed temp
M109 S215 ; wait for extruder temp
G28 W ; home all without mesh bed level
G80 ; mesh bed leveling
G1 Z0.2 F720
G1 Y-3 F1000 ; go outside print area
G92 E0
G1 X60 E9 F1000 ; intro line
G1 X100 E12.5 F1000 ; intro line
G92 E0
M221 S95

; Don't change E values below. Excessive value can damage the printer.

M907 E538 ; set extruder motor current
G21 ; set units to millimeters
G90 ; use absolute coordinates
M83 ; use relative distances for extrusion
M900 K0.05 ; Filament gcode LA 1.5
M900 K30 ; Filament gcode LA 1.0
M107
;LAYER_CHANGE
;Z:0.2
;HEIGHT:0.2
;BEFORE_LAYER_CHANGE
G92 E0.0
;0.2


G1 E-.8 F2100
G1 Z.4 F720
;AFTER_LAYER_CHANGE
;0.2
G1 X61.061 Y102.658 F10800
G1 Z.2 F720
G1 E.8 F2100
M204 S800
;TYPE:Skirt/Brim
;WIDTH:0.42
G1 F1200
G1 X133.398 Y82.758 E2.35236
G1 X134.029 Y82.673 E.01995
G1 X148.829 Y82.673 E.46404
G1 X149.912 Y82.934 E.03494
G1 X188.782 Y102.834 E1.36918
G1 X189.767 Y103.778 E.04278
G1 X190.076 Y104.95 E.03799
G1 X190.076 Y124.95 E.62709
G1 X189.685 Y126.257 E.04278
G1 X188.639 Y127.133 E.04278
G1 X187.699 Y127.327 E.03008
G1 X61.691 Y127.327 E3.9509
G1 X60.384 Y126.935 E.04278
G1 X59.508 Y125.89 E.04278
G1 X59.314 Y124.95 E.03008
G1 X59.314 Y104.95 E.62709
G1 X59.706 Y103.643 E.04278
G1 X61.012 Y102.693 E.05064
M204 S1000
; printing object Vandkar.stl id:0 copy 0
;WIPE_START
G1 F8640
G1 X64.185 Y101.819 E-.76
;WIPE_END
G1 E-.04 F2100
G1 Z.6 F720
G1 X66.353 Y108.754 F10800
G1 Z.2 F720
G1 E.8 F2100
M204 S800
;TYPE:Perimeter
G1 F1200
G1 X137.833 Y108.754 E2.24119
G1 X137.833 Y88.854 E.62395
G1 X145.025 Y88.854 E.22552
G1 X145.025 Y108.754 E.62395
G1 X182.786 Y108.754 E1.18397
G1 X182.786 Y121.146 E.38856
G1 X66.353 Y121.146 E3.65068
G1 X66.353 Y108.814 E.38668
M204 S1000
G1 X65.976 Y108.377 F10800
M204 S800
G1 F1200
G1 X137.456 Y108.377 E2.24119
G1 X137.456 Y88.477 E.62395
M73 P0 R103
G1 X145.402 Y88.477 E.24916
M73 Q0 S104
G1 X145.402 Y108.377 E.62395
G1 X183.163 Y108.377 E1.18397
G1 X183.163 Y121.523 E.41221
G1 X65.976 Y121.523 E3.67433
G1 X65.976 Y108.437 E.41033
M204 S1000
G1 X65.599 Y108 F10800
M204 S800
G1 F1200
G1 X137.079 Y108 E2.24119
G1 X137.079 Y88.1 E.62395
G1 X145.779 Y88.1 E.27281
G1 X145.779 Y108 E.62395
G1 X183.54 Y108 E1.18397
G1 X183.54 Y121.9 E.43585
G1 X65.599 Y121.9 E3.69798
G1 X65.599 Y108.06 E.43397
M204 S1000
M73 P1 R103
M73 Q1 S104
G1 X65.222 Y107.622 F10800
M204 S800
G1 F1200
G1 X136.701 Y107.622 E2.24119
G1 X136.701 Y87.722 E.62395
G1 X146.156 Y87.722 E.29646
G1 X146.156 Y107.622 E.62395
G1 X183.918 Y107.622 E1.18397
G1 X183.918 Y122.278 E.4595
G1 X65.222 Y122.278 E3.72162
G1 X65.222 Y107.682 E.45762
M204 S1000
G1 X64.845 Y107.245 F10800
M204 S800
G1 F1200
G1 X136.324 Y107.245 E2.24119
G1 X136.324 Y87.345 E.62395
G1 X146.534 Y87.345 E.3201
G1 X146.534 Y107.245 E.62395
G1 X184.295 Y107.245 E1.18397
G1 X184.295 Y122.655 E.48314
G1 X64.845 Y122.655 E3.74527
G1 X64.845 Y107.305 E.48126
M204 S1000
M73 P1 R102
G1 X64.468 Y106.868 F10800
M204 S800
G1 F1200
G1 X135.947 Y106.868 E2.24119
G1 X135.947 Y86.968 E.62395
M73 Q1 S103
G1 X146.911 Y86.968 E.34375
G1 X146.911 Y106.868 E.62395
G1 X184.672 Y106.868 E1.18397
G1 X184.672 Y123.032 E.50679
G1 X64.468 Y123.032 E3.76891
G1 X64.468 Y106.928 E.50491
M204 S1000
G1 X64.091 Y106.491 F10800
M204 S800
G1 F1200
G1 X135.57 Y106.491 E2.24119
G1 X135.57 Y86.591 E.62395
G1 X147.288 Y86.591 E.36739
G1 X147.288 Y106.491 E.62395
G1 X185.049 Y106.491 E1.18397
G1 X185.049 Y123.409 E.53044
G1 X64.091 Y123.409 E3.79256
G1 X64.091 Y106.551 E.52856
M204 S1000
M73 P2 R102
M73 Q2 S103
G1 X63.713 Y106.114 F10800
M204 S800
G1 F1200
G1 X135.193 Y106.114 E2.24119
G1 X135.193 Y86.214 E.62395
G1 X147.665 Y86.214 E.39104
G1 X147.665 Y106.114 E.62395
G1 X185.426 Y106.114 E1.18397
G1 X185.426 Y123.786 E.55408
G1 X63.713 Y123.786 E3.81621
G1 X63.713 Y106.174 E.5522
M204 S1000
G1 X63.336 Y105.737 F10800
M204 S800
G1 F1200
G1 X134.816 Y105.737 E2.24119
G1 X134.816 Y85.837 E.62395
G1 X148.042 Y85.837 E.41469
G1 X148.042 Y105.737 E.62395
G1 X185.803 Y105.737 E1.18397
G1 X185.803 Y124.163 E.57773
G1 X63.336 Y124.163 E3.83985
G1 X63.336 Y105.797 E.57585
M204 S1000
M73 P2 R101
M73 Q2 S102
G1 X62.959 Y105.36 F10800
M204 S800
;TYPE:External perimeter
G1 F1200
G1 X134.439 Y105.36 E2.24119
G1 X134.439 Y85.46 E.62395
G1 X148.419 Y85.46 E.43833
G1 X148.419 Y105.36 E.62395
G1 X186.18 Y105.36 E1.18397
G1 X186.18 Y124.54 E.60138
G1 X62.959 Y124.54 E3.8635
G1 X62.959 Y105.42 E.59949
M204 S1000
G1 X63.359 Y105.381 F10800
;WIPE_START
G1 F8640
G1 X66.251 Y105.417 E-.76
;WIPE_END
G1 E-.04 F2100
G1 Z.6 F720
G1 X182.673 Y109.632 F10800
G1 Z.2 F720
G1 E.8 F2100
M204 S800
;TYPE:Solid infill
;WIDTH:0.421365
G1 F1200
G1 X182.078 Y109.037 E.0265
G1 X181.543 Y109.037 E.01684
G1 X182.503 Y109.998 E.04277
G1 X182.503 Y110.533 E.01684
G1 X181.007 Y109.037 E.06658
G1 X180.472 Y109.037 E.01684
G1 X182.503 Y111.068 E.0904
G1 X182.503 Y111.603 E.01684
G1 X179.937 Y109.037 E.11422
G1 X179.402 Y109.037 E.01684
G1 X182.503 Y112.138 E.13804
G1 X182.503 Y112.674 E.01684
G1 X178.866 Y109.037 E.16185
G1 X178.331 Y109.037 E.01684
G1 X182.503 Y113.209 E.18567
G1 X182.503 Y113.744 E.01684
G1 X177.796 Y109.037 E.20949
G1 X177.261 Y109.037 E.01684
G1 X182.503 Y114.279 E.23331
G1 X182.503 Y114.814 E.01684
G1 X176.726 Y109.037 E.25713
G1 X176.19 Y109.037 E.01684
G1 X182.503 Y115.35 E.28094
G1 X182.503 Y115.885 E.01684
G1 X175.655 Y109.037 E.30476
G1 X175.12 Y109.037 E.01684
G1 X182.503 Y116.42 E.32858
G1 X182.503 Y116.955 E.01684
G1 X174.585 Y109.037 E.3524
G1 X174.05 Y109.037 E.01684
G1 X182.503 Y117.49 E.37621
G1 X182.503 Y118.026 E.01684
G1 X173.514 Y109.037 E.40003
G1 X172.979 Y109.037 E.01684
G1 X182.503 Y118.561 E.42385
G1 X182.503 Y119.096 E.01684
G1 X172.444 Y109.037 E.44767
G1 X171.909 Y109.037 E.01684
M73 P3 R101
G1 X182.503 Y119.631 E.47148
G1 X182.503 Y120.166 E.01684
M73 Q3 S102
G1 X171.374 Y109.037 E.4953
G1 X170.838 Y109.037 E.01684
G1 X182.503 Y120.702 E.51912
G1 X182.503 Y120.863 E.0051
G1 X182.13 Y120.863 E.01175
G1 X170.303 Y109.037 E.52633
G1 X169.768 Y109.037 E.01684
G1 X181.595 Y120.863 E.52633
G1 X181.06 Y120.863 E.01684
G1 X169.233 Y109.037 E.52633
G1 X168.698 Y109.037 E.01684
G1 X180.525 Y120.863 E.52633
G1 X179.989 Y120.863 E.01684
G1 X168.162 Y109.037 E.52633
G1 X167.627 Y109.037 E.01684
G1 X179.454 Y120.863 E.52633
G1 X178.919 Y120.863 E.01684
G1 X167.092 Y109.037 E.52633
G1 X166.557 Y109.037 E.01684
G1 X178.384 Y120.863 E.52633
G1 X177.849 Y120.863 E.01684
G1 X166.022 Y109.037 E.52633
G1 X165.486 Y109.037 E.01684
G1 X177.313 Y120.863 E.52633
G1 X176.778 Y120.863 E.01684
G1 X164.951 Y109.037 E.52633
G1 X164.416 Y109.037 E.01684
G1 X176.243 Y120.863 E.52633
G1 X175.708 Y120.863 E.01684
G1 X163.881 Y109.037 E.52633
G1 X163.346 Y109.037 E.01684
G1 X175.173 Y120.863 E.52633
G1 X174.637 Y120.863 E.01684
G1 X162.81 Y109.037 E.52633
G1 X162.275 Y109.037 E.01684
G1 X174.102 Y120.863 E.52633
G1 X173.567 Y120.863 E.01684
G1 X161.74 Y109.037 E.52633
G1 X161.205 Y109.037 E.01684
G1 X173.032 Y120.863 E.52633
G1 X172.497 Y120.863 E.01684
G1 X160.67 Y109.037 E.52633
G1 X160.134 Y109.037 E.01684
G1 X171.961 Y120.863 E.52633
G1 X171.426 Y120.863 E.01684
G1 X159.599 Y109.037 E.52633
G1 X159.064 Y109.037 E.01684
G1 X170.891 Y120.863 E.52633
G1 X170.356 Y120.863 E.01684
G1 X158.529 Y109.037 E.52633
G1 X157.994 Y109.037 E.01684
G1 X169.821 Y120.863 E.52633
G1 X169.285 Y120.863 E.01684
G1 X157.458 Y109.037 E.52633
G1 X156.923 Y109.037 E.01684
G1 X168.75 Y120.863 E.52633
G1 X168.215 Y120.863 E.01684
G1 X156.388 Y109.037 E.52633
G1 X155.853 Y109.037 E.01684
G1 X167.68 Y120.863 E.52633
G1 X167.145 Y120.863 E.01684
G1 X155.318 Y109.037 E.52633
G1 X154.782 Y109.037 E.01684
G1 X166.609 Y120.863 E.52633
G1 X166.074 Y120.863 E.01684
G1 X154.247 Y109.037 E.52633
G1 X153.712 Y109.037 E.01684
G1 X165.539 Y120.863 E.52633
G1 X165.004 Y120.863 E.01684
M73 P3 R100
G1 X153.177 Y109.037 E.52633
G1 X152.642 Y109.037 E.01684
G1 X164.469 Y120.863 E.52633
G1 X163.933 Y120.863 E.01684
G1 X152.106 Y109.037 E.52633
G1 X151.571 Y109.037 E.01684
M73 Q3 S101
G1 X163.398 Y120.863 E.52633
G1 X162.863 Y120.863 E.01684
G1 X151.036 Y109.037 E.52633
G1 X150.501 Y109.037 E.01684
G1 X162.328 Y120.863 E.52633
G1 X161.793 Y120.863 E.01684
G1 X149.966 Y109.037 E.52633
G1 X149.43 Y109.037 E.01684
G1 X161.257 Y120.863 E.52633
G1 X160.722 Y120.863 E.01684
G1 X148.895 Y109.037 E.52633
G1 X148.36 Y109.037 E.01684
G1 X160.187 Y120.863 E.52633
G1 X159.652 Y120.863 E.01684
G1 X147.825 Y109.037 E.52633
G1 X147.29 Y109.037 E.01684
G1 X159.117 Y120.863 E.52633
G1 X158.581 Y120.863 E.01684
G1 X146.754 Y109.037 E.52633
G1 X146.219 Y109.037 E.01684
G1 X158.046 Y120.863 E.52633
G1 X157.511 Y120.863 E.01684
G1 X145.514 Y108.867 E.53388
M204 S1000
;WIPE_START
G1 F8640
G1 X147.842 Y111.194 E-.76
;WIPE_END
G1 E-.04 F2100
G1 Z.6 F720
G1 X144.912 Y89.533 F10800
G1 Z.2 F720
G1 E.8 F2100
M204 S800
G1 F1200
G1 X144.516 Y89.137 E.01763
G1 X143.981 Y89.137 E.01684
G1 X144.742 Y89.898 E.03389
G1 X144.742 Y90.433 E.01684
G1 X143.446 Y89.137 E.05771
G1 X142.91 Y89.137 E.01684
G1 X144.742 Y90.969 E.08153
G1 X144.742 Y91.504 E.01684
G1 X142.375 Y89.137 E.10535
G1 X141.84 Y89.137 E.01684
G1 X144.742 Y92.039 E.12916
G1 X144.742 Y92.574 E.01684
G1 X141.305 Y89.137 E.15298
G1 X140.77 Y89.137 E.01684
G1 X144.742 Y93.109 E.1768
G1 X144.742 Y93.645 E.01684
G1 X140.234 Y89.137 E.20062
G1 X139.699 Y89.137 E.01684
G1 X144.742 Y94.18 E.22444
G1 X144.742 Y94.715 E.01684
G1 X139.164 Y89.137 E.24825
G1 X138.629 Y89.137 E.01684
G1 X144.742 Y95.25 E.27207
G1 X144.742 Y95.785 E.01684
G1 X138.115 Y89.158 E.29492
G1 X138.115 Y89.694 E.01684
G1 X144.742 Y96.321 E.29492
G1 X144.742 Y96.856 E.01684
G1 X138.115 Y90.229 E.29492
G1 X138.115 Y90.764 E.01684
G1 X144.742 Y97.391 E.29492
G1 X144.742 Y97.926 E.01684
G1 X138.115 Y91.299 E.29492
G1 X138.115 Y91.834 E.01684
G1 X144.742 Y98.461 E.29492
G1 X144.742 Y98.997 E.01684
G1 X138.115 Y92.37 E.29492
G1 X138.115 Y92.905 E.01684
G1 X144.742 Y99.532 E.29492
G1 X144.742 Y100.067 E.01684
G1 X138.115 Y93.44 E.29492
G1 X138.115 Y93.975 E.01684
G1 X144.742 Y100.602 E.29492
G1 X144.742 Y101.137 E.01684
G1 X138.115 Y94.51 E.29492
G1 X138.115 Y95.046 E.01684
G1 X144.742 Y101.673 E.29492
G1 X144.742 Y102.208 E.01684
G1 X138.115 Y95.581 E.29492
G1 X138.115 Y96.116 E.01684
G1 X144.742 Y102.743 E.29492
G1 X144.742 Y103.278 E.01684
G1 X138.115 Y96.651 E.29492
G1 X138.115 Y97.186 E.01684
G1 X144.742 Y103.813 E.29492
G1 X144.742 Y104.349 E.01684
G1 X138.115 Y97.722 E.29492
G1 X138.115 Y98.257 E.01684
G1 X144.742 Y104.884 E.29492
G1 X144.742 Y105.419 E.01684
G1 X138.115 Y98.792 E.29492
G1 X138.115 Y99.327 E.01684
G1 X144.742 Y105.954 E.29492
G1 X144.742 Y106.489 E.01684
G1 X138.115 Y99.862 E.29492
G1 X138.115 Y100.398 E.01684
G1 X144.742 Y107.025 E.29492
G1 X144.742 Y107.56 E.01684
G1 X138.115 Y100.933 E.29492
G1 X138.115 Y101.468 E.01684
G1 X144.912 Y108.265 E.30247
M204 S1000
;WIPE_START
G1 F8640
G1 X142.585 Y105.937 E-.76
;WIPE_END
G1 E-.04 F2100
G1 Z.6 F720
G1 X137.946 Y101.834 F10800
G1 Z.2 F720
G1 E.8 F2100
M204 S800
G1 F1200
G1 X144.742 Y108.63 E.30247
G1 X144.742 Y109.037 E.01279
G1 X145.149 Y109.037 E.01279
G1 X156.976 Y120.863 E.52633
G1 X156.441 Y120.863 E.01684
G1 X138.115 Y102.538 E.81551
G1 X138.115 Y103.074 E.01684
M73 P4 R100
G1 X155.905 Y120.863 E.79169
G1 X155.37 Y120.863 E.01684
M73 Q4 S101
G1 X138.115 Y103.609 E.76787
G1 X138.115 Y104.144 E.01684
G1 X154.835 Y120.863 E.74405
G1 X154.3 Y120.863 E.01684
G1 X138.115 Y104.679 E.72024
G1 X138.115 Y105.214 E.01684
G1 X153.765 Y120.863 E.69642
G1 X153.229 Y120.863 E.01684
G1 X138.115 Y105.75 E.6726
G1 X138.115 Y106.285 E.01684
G1 X152.694 Y120.863 E.64878
G1 X152.159 Y120.863 E.01684
G1 X138.115 Y106.82 E.62496
G1 X138.115 Y107.355 E.01684
G1 X151.624 Y120.863 E.60115
G1 X151.089 Y120.863 E.01684
G1 X138.115 Y107.89 E.57733
G1 X138.115 Y108.426 E.01684
G1 X150.553 Y120.863 E.55351
G1 X150.018 Y120.863 E.01684
G1 X138.115 Y108.961 E.52969
G1 X138.115 Y109.037 E.00238
G1 X137.656 Y109.037 E.01446
G1 X149.483 Y120.863 E.52633
G1 X148.948 Y120.863 E.01684
G1 X137.121 Y109.037 E.52633
G1 X136.586 Y109.037 E.01684
G1 X148.413 Y120.863 E.52633
G1 X147.877 Y120.863 E.01684
G1 X136.05 Y109.037 E.52633
G1 X135.515 Y109.037 E.01684
G1 X147.342 Y120.863 E.52633
G1 X146.807 Y120.863 E.01684
G1 X134.98 Y109.037 E.52633
G1 X134.445 Y109.037 E.01684
G1 X146.272 Y120.863 E.52633
G1 X145.736 Y120.863 E.01684
G1 X133.91 Y109.037 E.52633
G1 X133.374 Y109.037 E.01684
G1 X145.201 Y120.863 E.52633
G1 X144.666 Y120.863 E.01684
G1 X132.839 Y109.037 E.52633
G1 X132.304 Y109.037 E.01684
G1 X144.131 Y120.863 E.52633
G1 X143.596 Y120.863 E.01684
G1 X131.769 Y109.037 E.52633
G1 X131.234 Y109.037 E.01684
G1 X143.06 Y120.863 E.52633
G1 X142.525 Y120.863 E.01684
G1 X130.698 Y109.037 E.52633
G1 X130.163 Y109.037 E.01684
G1 X141.99 Y120.863 E.52633
G1 X141.455 Y120.863 E.01684
G1 X129.628 Y109.037 E.52633
G1 X129.093 Y109.037 E.01684
M73 P4 R99
G1 X140.92 Y120.863 E.52633
G1 X140.384 Y120.863 E.01684
G1 X128.557 Y109.037 E.52633
G1 X128.022 Y109.037 E.01684
G1 X139.849 Y120.863 E.52633
G1 X139.314 Y120.863 E.01684
G1 X127.487 Y109.037 E.52633
G1 X126.952 Y109.037 E.01684
M73 Q4 S100
G1 X138.779 Y120.863 E.52633
G1 X138.244 Y120.863 E.01684
G1 X126.417 Y109.037 E.52633
G1 X125.881 Y109.037 E.01684
G1 X137.708 Y120.863 E.52633
G1 X137.173 Y120.863 E.01684
G1 X125.346 Y109.037 E.52633
G1 X124.811 Y109.037 E.01684
G1 X136.638 Y120.863 E.52633
G1 X136.103 Y120.863 E.01684
G1 X124.276 Y109.037 E.52633
G1 X123.741 Y109.037 E.01684
G1 X135.568 Y120.863 E.52633
G1 X135.032 Y120.863 E.01684
G1 X123.205 Y109.037 E.52633
G1 X122.67 Y109.037 E.01684
G1 X134.497 Y120.863 E.52633
G1 X133.962 Y120.863 E.01684
G1 X122.135 Y109.037 E.52633
G1 X121.6 Y109.037 E.01684
G1 X133.427 Y120.863 E.52633
G1 X132.892 Y120.863 E.01684
G1 X121.065 Y109.037 E.52633
G1 X120.529 Y109.037 E.01684
G1 X132.356 Y120.863 E.52633
G1 X131.821 Y120.863 E.01684
G1 X119.994 Y109.037 E.52633
G1 X119.459 Y109.037 E.01684
G1 X131.286 Y120.863 E.52633
G1 X130.751 Y120.863 E.01684
G1 X118.924 Y109.037 E.52633
G1 X118.389 Y109.037 E.01684
G1 X130.216 Y120.863 E.52633
G1 X129.68 Y120.863 E.01684
G1 X117.853 Y109.037 E.52633
G1 X117.318 Y109.037 E.01684
G1 X129.145 Y120.863 E.52633
G1 X128.61 Y120.863 E.01684
G1 X116.783 Y109.037 E.52633
G1 X116.248 Y109.037 E.01684
G1 X128.075 Y120.863 E.52633
G1 X127.54 Y120.863 E.01684
G1 X115.713 Y109.037 E.52633
G1 X115.177 Y109.037 E.01684
G1 X127.004 Y120.863 E.52633
G1 X126.469 Y120.863 E.01684
G1 X114.642 Y109.037 E.52633
G1 X114.107 Y109.037 E.01684
G1 X125.934 Y120.863 E.52633
G1 X125.399 Y120.863 E.01684
G1 X113.572 Y109.037 E.52633
G1 X113.037 Y109.037 E.01684
G1 X124.864 Y120.863 E.52633
G1 X124.328 Y120.863 E.01684
G1 X112.501 Y109.037 E.52633
G1 X111.966 Y109.037 E.01684
G1 X123.793 Y120.863 E.52633
G1 X123.258 Y120.863 E.01684
G1 X111.431 Y109.037 E.52633
G1 X110.896 Y109.037 E.01684
G1 X122.723 Y120.863 E.52633
G1 X122.188 Y120.863 E.01684
G1 X110.361 Y109.037 E.52633
G1 X109.825 Y109.037 E.01684
G1 X121.652 Y120.863 E.52633
G1 X121.117 Y120.863 E.01684
